(.../pcb-gcode-3.6.2.4/pcb-gcode.ulp)
(Copyright 2005 - 2012 by John Johnson)
(See readme.txt for licensing terms.)
(This file generated from the board:)
(.../atmega_midi_pg800/eagle/atmega_midi_pg800.brd)
(Current profile is .../pcb-gcode-3.6.2.4/profiles/mach.pp  )
(This file generated 11/17/16 10:41 PM)
(Settings from pcb-machine.h)
(spindle on time = 0.0000)
(  Tool Size)
(0.0030  )
(spindle speed = 30000.0000)
(tool change at 0.0000  0.0000  1.5000  )
(feed rate xy = F20    )
(feed rate z  = F10    )
(Z Axis Settings)
(  High     Up        Down     Drill)
(0.2500  	0.0500  	-0.0035 	-0.0710 )
(Settings from pcb-defaults.h)
(isolate min = 0.0040)
(isolate max = 0.0200)
(isolate step = 0.0025)
(Generated bottom outlines, bottom drill, )
(Unit of measure: inch)
(Inch Mode)
G20
(Absolute Coordinates)
G90
S30000
G00 Z0.2500  
G00 X0.0000  Y0.0000  
M03
G04 P0.000000
G00 Z0.0500  
G00 X-0.2515 Y0.0831  
G01 Z-0.0035 F10    
G01 X-0.2515 Y0.1141  F20    
G01 X-0.0740 Y0.2832  
G01 X-0.0737 Y0.2833  
G01 X-0.0722 Y0.2849  
G01 X-0.0706 Y0.2864  
G01 X-0.0704 Y0.2867  
G01 X-0.0702 Y0.2869  
G01 X-0.0690 Y0.2887  
G01 X-0.0677 Y0.2905  
G01 X-0.0676 Y0.2908  
G01 X-0.0674 Y0.2911  
G01 X-0.0666 Y0.2931  
G01 X-0.0657 Y0.2951  
G01 X-0.0656 Y0.2954  
G01 X-0.0655 Y0.2957  
G01 X-0.0651 Y0.2979  
G01 X-0.0646 Y0.3000  
G01 X-0.0646 Y0.3003  
G01 X-0.0645 Y0.3006  
G01 X-0.0645 Y0.3028  
G01 X-0.0644 Y0.3050  
G01 X-0.0645 Y0.3053  
G01 X-0.0645 Y1.2487  
G01 X-0.0644 Y1.2498  
G01 X-0.0645 Y1.2512  
G01 X-0.0645 Y1.2525  
G01 X-0.0647 Y1.2537  
G01 X-0.0648 Y1.2548  
G01 X-0.0652 Y1.2561  
G01 X-0.0655 Y1.2574  
G01 X-0.0659 Y1.2585  
G01 X-0.0663 Y1.2596  
G01 X-0.0669 Y1.2608  
G01 X-0.0674 Y1.2621  
G01 X-0.0680 Y1.2630  
G01 X-0.0686 Y1.2641  
G01 X-0.0694 Y1.2651  
G01 X-0.0702 Y1.2663  
G01 X-0.0710 Y1.2671  
G01 X-0.0717 Y1.2680  
G01 X-0.0728 Y1.2688  
G01 X-0.0737 Y1.2698  
G01 X-0.0747 Y1.2705  
G01 X-0.1245 Y1.3119  
G01 X-0.1245 Y1.5025  
G01 X-0.1255 Y1.5074  
G01 X-0.1274 Y1.5121  
G01 X-0.1302 Y1.5163  
G01 X-0.1337 Y1.5198  
G01 X-0.1837 Y1.5698  
G01 X-0.1879 Y1.5726  
G01 X-0.1926 Y1.5745  
G01 X-0.1975 Y1.5755  
G01 X-0.3025 Y1.5755  
G01 X-0.3074 Y1.5745  
G01 X-0.3121 Y1.5726  
G01 X-0.3163 Y1.5698  
G01 X-0.3198 Y1.5663  
G01 X-0.3698 Y1.5163  
G01 X-0.3726 Y1.5121  
G01 X-0.3745 Y1.5074  
G01 X-0.3751 Y1.5043  
G01 X-0.3773 Y1.5021  
G01 X-0.3812 Y1.4964  
G01 X-0.3838 Y1.4899  
G01 X-0.3852 Y1.4832  
G01 X-0.3852 Y1.4168  
G01 X-0.3838 Y1.4101  
G01 X-0.3812 Y1.4036  
G01 X-0.3773 Y1.3979  
G01 X-0.3724 Y1.3930  
G01 X-0.3667 Y1.3891  
G01 X-0.3603 Y1.3865  
G01 X-0.3535 Y1.3851  
G01 X-0.3465 Y1.3851  
G01 X-0.3397 Y1.3865  
G01 X-0.3333 Y1.3891  
G01 X-0.3276 Y1.3930  
G01 X-0.3227 Y1.3979  
G01 X-0.3188 Y1.4036  
G01 X-0.3162 Y1.4101  
G01 X-0.3148 Y1.4168  
G01 X-0.3148 Y1.4832  
G01 X-0.3162 Y1.4899  
G01 X-0.3185 Y1.4955  
G01 X-0.2894 Y1.5245  
G01 X-0.2106 Y1.5245  
G01 X-0.1755 Y1.4894  
G01 X-0.1755 Y1.3013  
G01 X-0.1756 Y1.3002  
G01 X-0.1755 Y1.2988  
G01 X-0.1755 Y1.2975  
G01 X-0.1753 Y1.2963  
G01 X-0.1752 Y1.2952  
G01 X-0.1748 Y1.2939  
G01 X-0.1745 Y1.2926  
G01 X-0.1741 Y1.2915  
G01 X-0.1737 Y1.2904  
G01 X-0.1731 Y1.2892  
G01 X-0.1726 Y1.2879  
G01 X-0.1720 Y1.2870  
G01 X-0.1714 Y1.2859  
G01 X-0.1706 Y1.2849  
G01 X-0.1698 Y1.2837  
G01 X-0.1690 Y1.2829  
G01 X-0.1683 Y1.2820  
G01 X-0.1672 Y1.2812  
G01 X-0.1663 Y1.2802  
G01 X-0.1653 Y1.2795  
G01 X-0.1155 Y1.2381  
G01 X-0.1155 Y0.3141  
G01 X-0.2860 Y0.1516  
G01 X-0.3201 Y0.1516  
G01 X-0.3412 Y0.1305  
G01 X-0.3588 Y0.1305  
G01 X-0.3799 Y0.1516  
G01 X-0.4201 Y0.1516  
G01 X-0.4412 Y0.1305  
G01 X-0.5588 Y0.1305  
G01 X-0.5799 Y0.1516  
G01 X-0.6201 Y0.1516  
G01 X-0.6412 Y0.1305  
G01 X-0.6588 Y0.1305  
G01 X-0.6799 Y0.1516  
G01 X-0.7201 Y0.1516  
G01 X-0.7412 Y0.1305  
G01 X-0.8945 Y0.1305  
G01 X-0.8945 Y0.5496  
G01 X-0.8944 Y0.5516  
G01 X-0.8945 Y0.5521  
G01 X-0.8945 Y0.5525  
G01 X-0.8949 Y0.5545  
G01 X-0.8952 Y0.5566  
G01 X-0.8954 Y0.5570  
G01 X-0.8955 Y0.5574  
G01 X-0.8963 Y0.5594  
G01 X-0.8970 Y0.5613  
G01 X-0.8972 Y0.5617  
G01 X-0.8974 Y0.5621  
G01 X-0.8986 Y0.5638  
G01 X-0.8996 Y0.5656  
G01 X-0.8999 Y0.5659  
G01 X-0.9002 Y0.5663  
G01 X-0.9017 Y0.5677  
G01 X-1.1613 Y0.8459  
G01 X-1.1601 Y0.8462  
G01 X-1.1536 Y0.8488  
G01 X-1.1479 Y0.8527  
G01 X-1.1430 Y0.8576  
G01 X-1.1391 Y0.8633  
G01 X-1.1365 Y0.8697  
G01 X-1.1358 Y0.8731  
G01 X-1.0660 Y0.8946  
G01 X-0.7048 Y0.8995  
G01 X-0.6955 Y0.8995  
G01 X-0.6919 Y0.8971  
G01 X-0.6862 Y0.8947  
G01 X-0.6801 Y0.8935  
G01 X-0.6219 Y0.8935  
G01 X-0.6158 Y0.8947  
G01 X-0.6101 Y0.8971  
G01 X-0.6049 Y0.9005  
G01 X-0.6005 Y0.9049  
G01 X-0.5971 Y0.9101  
G01 X-0.5947 Y0.9158  
G01 X-0.5935 Y0.9219  
G01 X-0.5935 Y0.9281  
G01 X-0.5947 Y0.9342  
G01 X-0.5971 Y0.9399  
G01 X-0.6005 Y0.9451  
G01 X-0.6049 Y0.9495  
G01 X-0.6101 Y0.9529  
G01 X-0.6158 Y0.9553  
G01 X-0.6219 Y0.9565  
G01 X-0.6801 Y0.9565  
G01 X-0.6862 Y0.9553  
G01 X-0.6919 Y0.9529  
G01 X-0.6955 Y0.9505  
G01 X-0.7027 Y0.9505  
G01 X-0.7028 Y0.9505  
G01 X-0.7052 Y0.9505  
G01 X-0.7075 Y0.9505  
G01 X-0.7077 Y0.9505  
G01 X-1.0690 Y0.9455  
G01 X-1.0701 Y0.9456  
G01 X-1.0715 Y0.9455  
G01 X-1.0729 Y0.9455  
G01 X-1.0740 Y0.9452  
G01 X-1.0751 Y0.9451  
G01 X-1.0764 Y0.9447  
G01 X-1.0778 Y0.9444  
G01 X-1.0788 Y0.9440  
G01 X-1.1724 Y0.9152  
G01 X-1.2332 Y0.9152  
G01 X-1.2399 Y0.9138  
G01 X-1.2464 Y0.9112  
G01 X-1.2521 Y0.9073  
G01 X-1.2570 Y0.9024  
G01 X-1.2609 Y0.8967  
G01 X-1.2635 Y0.8903  
G01 X-1.2649 Y0.8835  
G01 X-1.2649 Y0.8765  
G01 X-1.2635 Y0.8697  
G01 X-1.2609 Y0.8633  
G01 X-1.2570 Y0.8576  
G01 X-1.2521 Y0.8527  
G01 X-1.2464 Y0.8488  
G01 X-1.2399 Y0.8462  
G01 X-1.2332 Y0.8448  
G01 X-1.2250 Y0.8448  
G01 X-1.2248 Y0.8434  
G01 X-1.2246 Y0.8430  
G01 X-1.2245 Y0.8426  
G01 X-1.2237 Y0.8406  
G01 X-1.2230 Y0.8387  
G01 X-1.2228 Y0.8383  
G01 X-1.2226 Y0.8379  
G01 X-1.2214 Y0.8362  
G01 X-1.2204 Y0.8344  
G01 X-1.2201 Y0.8341  
G01 X-1.2198 Y0.8337  
G01 X-1.2183 Y0.8323  
G01 X-0.9455 Y0.5399  
G01 X-0.9455 Y0.1305  
G01 X-1.1088 Y0.1305  
G01 X-1.1299 Y0.1516  
G01 X-1.1701 Y0.1516  
G01 X-1.1912 Y0.1305  
G01 X-1.2088 Y0.1305  
G01 X-1.2299 Y0.1516  
G01 X-1.2701 Y0.1516  
G01 X-1.2912 Y0.1305  
G01 X-1.3195 Y0.1305  
G01 X-1.3195 Y0.4278  
G01 X-1.3161 Y0.4312  
G01 X-1.3119 Y0.4369  
G01 X-1.3088 Y0.4431  
G01 X-1.3066 Y0.4498  
G01 X-1.3055 Y0.4567  
G01 X-1.3055 Y0.5417  
G01 X-1.3066 Y0.5486  
G01 X-1.3088 Y0.5553  
G01 X-1.3119 Y0.5615  
G01 X-1.3161 Y0.5672  
G01 X-1.3210 Y0.5722  
G01 X-1.3267 Y0.5763  
G01 X-1.3329 Y0.5795  
G01 X-1.3396 Y0.5816  
G01 X-1.3465 Y0.5827  
G01 X-1.3535 Y0.5827  
G01 X-1.3604 Y0.5816  
G01 X-1.3671 Y0.5795  
G01 X-1.3733 Y0.5763  
G01 X-1.3790 Y0.5722  
G01 X-1.3839 Y0.5672  
G01 X-1.3881 Y0.5615  
G01 X-1.3912 Y0.5553  
G01 X-1.3934 Y0.5486  
G01 X-1.3945 Y0.5417  
G01 X-1.3945 Y0.4567  
G01 X-1.3934 Y0.4498  
G01 X-1.3912 Y0.4431  
G01 X-1.3881 Y0.4369  
G01 X-1.3839 Y0.4312  
G01 X-1.3805 Y0.4278  
G01 X-1.3805 Y0.1305  
G01 X-1.4088 Y0.1305  
G01 X-1.4299 Y0.1516  
G01 X-1.4701 Y0.1516  
G01 X-1.4912 Y0.1305  
G01 X-1.5088 Y0.1305  
G01 X-1.5299 Y0.1516  
G01 X-1.5701 Y0.1516  
G01 X-1.5737 Y0.1480  
G01 X-1.7735 Y0.2896  
G01 X-1.7737 Y0.2898  
G01 X-1.7755 Y0.2910  
G01 X-1.7773 Y0.2923  
G01 X-1.7776 Y0.2924  
G01 X-1.7779 Y0.2926  
G01 X-1.7799 Y0.2934  
G01 X-1.7819 Y0.2943  
G01 X-1.7822 Y0.2944  
G01 X-1.7826 Y0.2945  
G01 X-1.7847 Y0.2949  
G01 X-1.7868 Y0.2954  
G01 X-1.7871 Y0.2954  
G01 X-1.7875 Y0.2955  
G01 X-1.7897 Y0.2955  
G01 X-1.7918 Y0.2956  
G01 X-1.7922 Y0.2955  
G01 X-2.0579 Y0.2955  
G01 X-2.0583 Y0.2956  
G01 X-2.0604 Y0.2955  
G01 X-2.0625 Y0.2955  
G01 X-2.0629 Y0.2954  
G01 X-2.0633 Y0.2954  
G01 X-2.0654 Y0.2949  
G01 X-2.0674 Y0.2945  
G01 X-2.0678 Y0.2944  
G01 X-2.0682 Y0.2943  
G01 X-2.0701 Y0.2934  
G01 X-2.0721 Y0.2926  
G01 X-2.0724 Y0.2924  
G01 X-2.0728 Y0.2922  
G01 X-2.0745 Y0.2910  
G01 X-2.0763 Y0.2898  
G01 X-2.0765 Y0.2895  
G01 X-2.0768 Y0.2893  
G01 X-2.0783 Y0.2878  
G01 X-2.0798 Y0.2863  
G01 X-2.0800 Y0.2859  
G01 X-2.2310 Y0.1255  
G01 X-2.3894 Y0.1255  
G01 X-2.4208 Y0.1568  
G01 X-2.4208 Y0.1748  
G01 X-2.4216 Y0.1769  
G01 X-2.4231 Y0.1784  
G01 X-2.4252 Y0.1792  
G01 X-2.4748 Y0.1792  
G01 X-2.4769 Y0.1784  
G01 X-2.4784 Y0.1769  
G01 X-2.4792 Y0.1748  
G01 X-2.4792 Y0.1252  
G01 X-2.4784 Y0.1231  
G01 X-2.4769 Y0.1216  
G01 X-2.4748 Y0.1208  
G01 X-2.4568 Y0.1208  
G01 X-2.4163 Y0.0802  
G01 X-2.4121 Y0.0774  
G01 X-2.4074 Y0.0755  
G01 X-2.4025 Y0.0745  
G01 X-2.2221 Y0.0745  
G01 X-2.2217 Y0.0744  
G01 X-2.2196 Y0.0745  
G01 X-2.2175 Y0.0745  
G01 X-2.2171 Y0.0746  
G01 X-2.2167 Y0.0746  
G01 X-2.2146 Y0.0751  
G01 X-2.2126 Y0.0755  
G01 X-2.2122 Y0.0756  
G01 X-2.2118 Y0.0757  
G01 X-2.2099 Y0.0766  
G01 X-2.2079 Y0.0774  
G01 X-2.2076 Y0.0776  
G01 X-2.2072 Y0.0778  
G01 X-2.2055 Y0.0790  
G01 X-2.2037 Y0.0802  
G01 X-2.2035 Y0.0805  
G01 X-2.2032 Y0.0807  
G01 X-2.2017 Y0.0822  
G01 X-2.2002 Y0.0837  
G01 X-2.2000 Y0.0841  
G01 X-2.0490 Y0.2445  
G01 X-1.7981 Y0.2445  
G01 X-1.5985 Y0.1031  
G01 X-1.5985 Y0.0831  
G01 X-1.5701 Y0.0546  
G01 X-1.5299 Y0.0546  
G01 X-1.5151 Y0.0695  
G01 X-1.4849 Y0.0695  
G01 X-1.4701 Y0.0546  
G01 X-1.4299 Y0.0546  
G01 X-1.4151 Y0.0695  
G01 X-1.2849 Y0.0695  
G01 X-1.2701 Y0.0546  
G01 X-1.2299 Y0.0546  
G01 X-1.2151 Y0.0695  
G01 X-1.1849 Y0.0695  
G01 X-1.1701 Y0.0546  
G01 X-1.1299 Y0.0546  
G01 X-1.1151 Y0.0695  
G01 X-0.7349 Y0.0695  
G01 X-0.7201 Y0.0546  
G01 X-0.6799 Y0.0546  
G01 X-0.6651 Y0.0695  
G01 X-0.6349 Y0.0695  
G01 X-0.6201 Y0.0546  
G01 X-0.5799 Y0.0546  
G01 X-0.5651 Y0.0695  
G01 X-0.4349 Y0.0695  
G01 X-0.4201 Y0.0546  
G01 X-0.3799 Y0.0546  
G01 X-0.3651 Y0.0695  
G01 X-0.3349 Y0.0695  
G01 X-0.3201 Y0.0546  
G01 X-0.2799 Y0.0546  
G01 X-0.2515 Y0.0831  
G00 Z0.0500  
G00 X-0.2240 Y0.4468  
G01 Z-0.0035 F10    
G01 X-0.1838 Y0.4468  F20    
G01 X-0.1554 Y0.4752  
G01 X-0.1554 Y0.5154  
G01 X-0.1838 Y0.5438  
G01 X-0.2240 Y0.5438  
G01 X-0.2524 Y0.5154  
G01 X-0.2524 Y0.4752  
G01 X-0.2240 Y0.4468  
G00 Z0.0500  
G00 X-0.2515 Y0.5712  
G01 Z-0.0035 F10    
G01 X-0.2515 Y0.5949  F20    
G01 X-0.1892 Y0.6314  
G01 X-0.1868 Y0.6328  
G01 X-0.1867 Y0.6329  
G01 X-0.1847 Y0.6348  
G01 X-0.1828 Y0.6368  
G01 X-0.1827 Y0.6369  
G01 X-0.1813 Y0.6393  
G01 X-0.1800 Y0.6417  
G01 X-0.1799 Y0.6418  
G01 X-0.1792 Y0.6445  
G01 X-0.1785 Y0.6472  
G01 X-0.1785 Y0.6473  
G01 X-0.1785 Y0.6501  
G01 X-0.1785 Y0.8325  
G01 X-0.1783 Y0.8325  
G01 X-0.1717 Y0.8325  
G01 X-0.1650 Y0.8335  
G01 X-0.1587 Y0.8356  
G01 X-0.1527 Y0.8387  
G01 X-0.1473 Y0.8426  
G01 X-0.1426 Y0.8473  
G01 X-0.1387 Y0.8527  
G01 X-0.1356 Y0.8587  
G01 X-0.1335 Y0.8650  
G01 X-0.1325 Y0.8717  
G01 X-0.1325 Y0.8783  
G01 X-0.1335 Y0.8850  
G01 X-0.1356 Y0.8913  
G01 X-0.1387 Y0.8973  
G01 X-0.1426 Y0.9027  
G01 X-0.1473 Y0.9074  
G01 X-0.1527 Y0.9113  
G01 X-0.1535 Y0.9117  
G01 X-0.1535 Y0.9244  
G01 X-0.1534 Y0.9266  
G01 X-0.1535 Y0.9272  
G01 X-0.1535 Y0.9278  
G01 X-0.1541 Y0.9300  
G01 X-0.1545 Y0.9322  
G01 X-0.1548 Y0.9327  
G01 X-0.1550 Y0.9333  
G01 X-0.1561 Y0.9352  
G01 X-0.1571 Y0.9372  
G01 X-0.1575 Y0.9377  
G01 X-0.1578 Y0.9382  
G01 X-0.1594 Y0.9398  
G01 X-0.2424 Y1.0326  
G01 X-0.2427 Y1.0342  
G01 X-0.2451 Y1.0399  
G01 X-0.2485 Y1.0451  
G01 X-0.2529 Y1.0495  
G01 X-0.2581 Y1.0529  
G01 X-0.2638 Y1.0553  
G01 X-0.2699 Y1.0565  
G01 X-0.3281 Y1.0565  
G01 X-0.3342 Y1.0553  
G01 X-0.3399 Y1.0529  
G01 X-0.3451 Y1.0495  
G01 X-0.3495 Y1.0451  
G01 X-0.3529 Y1.0399  
G01 X-0.3553 Y1.0342  
G01 X-0.3565 Y1.0281  
G01 X-0.3565 Y1.0219  
G01 X-0.3553 Y1.0158  
G01 X-0.3529 Y1.0101  
G01 X-0.3495 Y1.0049  
G01 X-0.3451 Y1.0005  
G01 X-0.3399 Y0.9971  
G01 X-0.3342 Y0.9947  
G01 X-0.3281 Y0.9935  
G01 X-0.2699 Y0.9935  
G01 X-0.2659 Y0.9943  
G01 X-0.1965 Y0.9168  
G01 X-0.1965 Y0.9117  
G01 X-0.1973 Y0.9113  
G01 X-0.2027 Y0.9074  
G01 X-0.2074 Y0.9027  
G01 X-0.2113 Y0.8973  
G01 X-0.2144 Y0.8913  
G01 X-0.2165 Y0.8850  
G01 X-0.2175 Y0.8783  
G01 X-0.2175 Y0.8717  
G01 X-0.2165 Y0.8650  
G01 X-0.2162 Y0.8642  
G01 X-0.2172 Y0.8632  
G01 X-0.2200 Y0.8583  
G01 X-0.2215 Y0.8528  
G01 X-0.2215 Y0.6623  
G01 X-0.2725 Y0.6324  
G01 X-0.2799 Y0.6398  
G01 X-0.3201 Y0.6398  
G01 X-0.3485 Y0.6114  
G01 X-0.3485 Y0.5712  
G01 X-0.3201 Y0.5428  
G01 X-0.2799 Y0.5428  
G01 X-0.2515 Y0.5712  
G00 Z0.0500  
G00 X-0.2885 Y0.7270  
G01 Z-0.0035 F10    
G01 X-0.2885 Y0.7530  F20    
G01 X-0.3070 Y0.7715  
G01 X-0.3196 Y0.7715  
G01 X-0.3985 Y0.8583  
G01 X-0.3985 Y1.0792  
G01 X-0.3406 Y1.0975  
G01 X-0.3399 Y1.0971  
G01 X-0.3342 Y1.0947  
G01 X-0.3281 Y1.0935  
G01 X-0.2699 Y1.0935  
G01 X-0.2638 Y1.0947  
G01 X-0.2581 Y1.0971  
G01 X-0.2529 Y1.1005  
G01 X-0.2485 Y1.1049  
G01 X-0.2451 Y1.1101  
G01 X-0.2427 Y1.1158  
G01 X-0.2419 Y1.1197  
G01 X-0.2227 Y1.1235  
G01 X-0.2218 Y1.1236  
G01 X-0.2199 Y1.1241  
G01 X-0.2180 Y1.1245  
G01 X-0.2172 Y1.1249  
G01 X-0.2164 Y1.1251  
G01 X-0.2147 Y1.1261  
G01 X-0.2129 Y1.1270  
G01 X-0.2123 Y1.1276  
G01 X-0.1954 Y1.1377  
G01 X-0.1913 Y1.1356  
G01 X-0.1850 Y1.1335  
G01 X-0.1783 Y1.1325  
G01 X-0.1717 Y1.1325  
G01 X-0.1650 Y1.1335  
G01 X-0.1587 Y1.1356  
G01 X-0.1527 Y1.1387  
G01 X-0.1473 Y1.1426  
G01 X-0.1426 Y1.1473  
G01 X-0.1387 Y1.1527  
G01 X-0.1356 Y1.1587  
G01 X-0.1335 Y1.1650  
G01 X-0.1325 Y1.1717  
G01 X-0.1325 Y1.1783  
G01 X-0.1335 Y1.1850  
G01 X-0.1356 Y1.1913  
G01 X-0.1387 Y1.1973  
G01 X-0.1426 Y1.2027  
G01 X-0.1473 Y1.2074  
G01 X-0.1527 Y1.2113  
G01 X-0.1587 Y1.2144  
G01 X-0.1650 Y1.2165  
G01 X-0.1717 Y1.2175  
G01 X-0.1783 Y1.2175  
G01 X-0.1850 Y1.2165  
G01 X-0.1913 Y1.2144  
G01 X-0.1973 Y1.2113  
G01 X-0.2027 Y1.2074  
G01 X-0.2074 Y1.2027  
G01 X-0.2113 Y1.1973  
G01 X-0.2144 Y1.1913  
G01 X-0.2165 Y1.1850  
G01 X-0.2175 Y1.1783  
G01 X-0.2175 Y1.1746  
G01 X-0.2329 Y1.1654  
G01 X-0.2771 Y1.1565  
G01 X-0.3281 Y1.1565  
G01 X-0.3342 Y1.1553  
G01 X-0.3399 Y1.1529  
G01 X-0.3451 Y1.1495  
G01 X-0.3495 Y1.1451  
G01 X-0.3529 Y1.1399  
G01 X-0.3535 Y1.1386  
G01 X-0.4260 Y1.1156  
G01 X-0.4283 Y1.1150  
G01 X-0.4287 Y1.1148  
G01 X-0.4292 Y1.1146  
G01 X-0.4312 Y1.1134  
G01 X-0.4332 Y1.1122  
G01 X-0.4335 Y1.1119  
G01 X-0.4339 Y1.1116  
G01 X-0.4355 Y1.1099  
G01 X-0.4372 Y1.1082  
G01 X-0.4374 Y1.1078  
G01 X-0.4378 Y1.1074  
G01 X-0.4389 Y1.1053  
G01 X-0.4400 Y1.1033  
G01 X-0.4402 Y1.1028  
G01 X-0.4404 Y1.1024  
G01 X-0.4409 Y1.1001  
G01 X-0.4415 Y1.0978  
G01 X-0.4415 Y1.0973  
G01 X-0.4416 Y1.0969  
G01 X-0.4415 Y1.0945  
G01 X-0.4415 Y0.8505  
G01 X-0.4416 Y0.8482  
G01 X-0.4415 Y0.8477  
G01 X-0.4415 Y0.8472  
G01 X-0.4409 Y0.8449  
G01 X-0.4404 Y0.8427  
G01 X-0.4402 Y0.8422  
G01 X-0.4400 Y0.8417  
G01 X-0.4389 Y0.8397  
G01 X-0.4378 Y0.8376  
G01 X-0.4375 Y0.8372  
G01 X-0.4372 Y0.8368  
G01 X-0.4356 Y0.8352  
G01 X-0.3515 Y0.7427  
G01 X-0.3515 Y0.7270  
G01 X-0.3330 Y0.7085  
G01 X-0.3070 Y0.7085  
G01 X-0.2885 Y0.7270  
G00 Z0.0500  
G00 X-0.2699 Y0.8935  
G01 Z-0.0035 F10    
G01 X-0.2638 Y0.8947  F20    
G01 X-0.2581 Y0.8971  
G01 X-0.2529 Y0.9005  
G01 X-0.2485 Y0.9049  
G01 X-0.2451 Y0.9101  
G01 X-0.2427 Y0.9158  
G01 X-0.2415 Y0.9219  
G01 X-0.2415 Y0.9281  
G01 X-0.2427 Y0.9342  
G01 X-0.2451 Y0.9399  
G01 X-0.2485 Y0.9451  
G01 X-0.2529 Y0.9495  
G01 X-0.2581 Y0.9529  
G01 X-0.2638 Y0.9553  
G01 X-0.2699 Y0.9565  
G01 X-0.3281 Y0.9565  
G01 X-0.3342 Y0.9553  
G01 X-0.3399 Y0.9529  
G01 X-0.3451 Y0.9495  
G01 X-0.3495 Y0.9451  
G01 X-0.3529 Y0.9399  
G01 X-0.3553 Y0.9342  
G01 X-0.3565 Y0.9281  
G01 X-0.3565 Y0.9219  
G01 X-0.3553 Y0.9158  
G01 X-0.3529 Y0.9101  
G01 X-0.3495 Y0.9049  
G01 X-0.3451 Y0.9005  
G01 X-0.3399 Y0.8971  
G01 X-0.3342 Y0.8947  
G01 X-0.3281 Y0.8935  
G01 X-0.2699 Y0.8935  
G00 Z0.0500  
G00 X-0.2699 Y1.1935  
G01 Z-0.0035 F10    
G01 X-0.2638 Y1.1947  F20    
G01 X-0.2581 Y1.1971  
G01 X-0.2529 Y1.2005  
G01 X-0.2485 Y1.2049  
G01 X-0.2451 Y1.2101  
G01 X-0.2427 Y1.2158  
G01 X-0.2415 Y1.2219  
G01 X-0.2415 Y1.2281  
G01 X-0.2427 Y1.2342  
G01 X-0.2451 Y1.2399  
G01 X-0.2485 Y1.2451  
G01 X-0.2529 Y1.2495  
G01 X-0.2581 Y1.2529  
G01 X-0.2638 Y1.2553  
G01 X-0.2699 Y1.2565  
G01 X-0.3281 Y1.2565  
G01 X-0.3342 Y1.2553  
G01 X-0.3399 Y1.2529  
G01 X-0.3451 Y1.2495  
G01 X-0.3495 Y1.2451  
G01 X-0.3529 Y1.2399  
G01 X-0.3553 Y1.2342  
G01 X-0.3565 Y1.2281  
G01 X-0.3565 Y1.2219  
G01 X-0.3553 Y1.2158  
G01 X-0.3529 Y1.2101  
G01 X-0.3495 Y1.2049  
G01 X-0.3451 Y1.2005  
G01 X-0.3399 Y1.1971  
G01 X-0.3342 Y1.1947  
G01 X-0.3281 Y1.1935  
G01 X-0.2699 Y1.1935  
G00 Z0.0500  
G00 X-0.2802 Y1.2837  
G01 Z-0.0035 F10    
G01 X-0.2302 Y1.3337  F20    
G01 X-0.2274 Y1.3379  
G01 X-0.2255 Y1.3426  
G01 X-0.2245 Y1.3475  
G01 X-0.2245 Y1.3961  
G01 X-0.2227 Y1.3979  
G01 X-0.2188 Y1.4036  
G01 X-0.2162 Y1.4101  
G01 X-0.2148 Y1.4168  
G01 X-0.2148 Y1.4832  
G01 X-0.2162 Y1.4899  
G01 X-0.2188 Y1.4964  
G01 X-0.2227 Y1.5021  
G01 X-0.2276 Y1.5070  
G01 X-0.2333 Y1.5109  
G01 X-0.2397 Y1.5135  
G01 X-0.2465 Y1.5149  
G01 X-0.2535 Y1.5149  
G01 X-0.2603 Y1.5135  
G01 X-0.2667 Y1.5109  
G01 X-0.2724 Y1.5070  
G01 X-0.2773 Y1.5021  
G01 X-0.2812 Y1.4964  
G01 X-0.2838 Y1.4899  
G01 X-0.2852 Y1.4832  
G01 X-0.2852 Y1.4168  
G01 X-0.2838 Y1.4101  
G01 X-0.2812 Y1.4036  
G01 X-0.2773 Y1.3979  
G01 X-0.2755 Y1.3961  
G01 X-0.2755 Y1.3606  
G01 X-0.3106 Y1.3255  
G01 X-0.4025 Y1.3255  
G01 X-0.4074 Y1.3245  
G01 X-0.4121 Y1.3226  
G01 X-0.4163 Y1.3198  
G01 X-0.4606 Y1.2755  
G01 X-0.6025 Y1.2755  
G01 X-0.6074 Y1.2745  
G01 X-0.6121 Y1.2726  
G01 X-0.6163 Y1.2698  
G01 X-0.6288 Y1.2572  
G01 X-0.7485 Y1.3306  
G01 X-0.7485 Y1.3330  
G01 X-0.7670 Y1.3515  
G01 X-0.7930 Y1.3515  
G01 X-0.7990 Y1.3455  
G01 X-0.8810 Y1.3455  
G01 X-0.8870 Y1.3515  
G01 X-0.9130 Y1.3515  
G01 X-0.9230 Y1.3415  
G01 X-0.9463 Y1.3415  
G01 X-0.9479 Y1.3426  
G01 X-0.9526 Y1.3445  
G01 X-0.9575 Y1.3455  
G01 X-1.9084 Y1.3455  
G01 X-1.9093 Y1.3456  
G01 X-1.9109 Y1.3455  
G01 X-1.9125 Y1.3455  
G01 X-1.9134 Y1.3453  
G01 X-1.9143 Y1.3453  
G01 X-1.9159 Y1.3448  
G01 X-1.9174 Y1.3445  
G01 X-1.9183 Y1.3442  
G01 X-1.9192 Y1.3439  
G01 X-1.9206 Y1.3432  
G01 X-1.9221 Y1.3426  
G01 X-1.9228 Y1.3421  
G01 X-1.9237 Y1.3417  
G01 X-1.9249 Y1.3407  
G01 X-1.9263 Y1.3398  
G01 X-1.9269 Y1.3392  
G01 X-2.0149 Y1.2707  
G01 X-2.0163 Y1.2698  
G01 X-2.0169 Y1.2692  
G01 X-2.0176 Y1.2686  
G01 X-2.0187 Y1.2674  
G01 X-2.0198 Y1.2663  
G01 X-2.0203 Y1.2655  
G01 X-2.0209 Y1.2648  
G01 X-2.0217 Y1.2634  
G01 X-2.0226 Y1.2621  
G01 X-2.0230 Y1.2612  
G01 X-2.0234 Y1.2604  
G01 X-2.0239 Y1.2589  
G01 X-2.0245 Y1.2574  
G01 X-2.0247 Y1.2565  
G01 X-2.0250 Y1.2557  
G01 X-2.0252 Y1.2541  
G01 X-2.0255 Y1.2525  
G01 X-2.0255 Y1.2516  
G01 X-2.0256 Y1.2507  
G01 X-2.0255 Y1.2491  
G01 X-2.0255 Y1.1945  
G01 X-2.0279 Y1.1909  
G01 X-2.0303 Y1.1852  
G01 X-2.0315 Y1.1791  
G01 X-2.0315 Y1.1209  
G01 X-2.0303 Y1.1148  
G01 X-2.0279 Y1.1091  
G01 X-2.0255 Y1.1055  
G01 X-2.0255 Y1.0290  
G01 X-2.0315 Y1.0230  
G01 X-2.0315 Y0.9970  
G01 X-2.0255 Y0.9910  
G01 X-2.0255 Y0.7690  
G01 X-2.0315 Y0.7630  
G01 X-2.0315 Y0.7370  
G01 X-2.0255 Y0.7310  
G01 X-2.0255 Y0.7085  
G01 X-2.1693 Y0.5167  
G01 X-2.1698 Y0.5163  
G01 X-2.1708 Y0.5147  
G01 X-2.1719 Y0.5133  
G01 X-2.1722 Y0.5127  
G01 X-2.1726 Y0.5121  
G01 X-2.1733 Y0.5104  
G01 X-2.1741 Y0.5088  
G01 X-2.1743 Y0.5081  
G01 X-2.1745 Y0.5074  
G01 X-2.1749 Y0.5057  
G01 X-2.1753 Y0.5039  
G01 X-2.1754 Y0.5032  
G01 X-2.1755 Y0.5025  
G01 X-2.1755 Y0.5007  
G01 X-2.1756 Y0.4989  
G01 X-2.1755 Y0.4982  
G01 X-2.1755 Y0.4539  
G01 X-2.1773 Y0.4521  
G01 X-2.1812 Y0.4464  
G01 X-2.1838 Y0.4399  
G01 X-2.1852 Y0.4332  
G01 X-2.1852 Y0.3668  
G01 X-2.1838 Y0.3601  
G01 X-2.1812 Y0.3536  
G01 X-2.1773 Y0.3479  
G01 X-2.1755 Y0.3461  
G01 X-2.1755 Y0.3106  
G01 X-2.2106 Y0.2755  
G01 X-2.6232 Y0.2755  
G01 X-2.6264 Y0.2787  
G01 X-2.6325 Y0.2828  
G01 X-2.6392 Y0.2856  
G01 X-2.6464 Y0.2870  
G01 X-2.6536 Y0.2870  
G01 X-2.6608 Y0.2856  
G01 X-2.6675 Y0.2828  
G01 X-2.6736 Y0.2787  
G01 X-2.6768 Y0.2755  
G01 X-2.7894 Y0.2755  
G01 X-2.8685 Y0.3546  
G01 X-2.8685 Y0.3630  
G01 X-2.8870 Y0.3815  
G01 X-2.9130 Y0.3815  
G01 X-2.9315 Y0.3630  
G01 X-2.9315 Y0.3539  
G01 X-3.1209 Y0.1555  
G01 X-3.6987 Y0.1555  
G01 X-3.8845 Y0.3599  
G01 X-3.8845 Y2.9381  
G01 X-3.8408 Y2.9745  
G01 X-3.6445 Y2.9745  
G01 X-3.6409 Y2.9721  
G01 X-3.6352 Y2.9697  
G01 X-3.6291 Y2.9685  
G01 X-3.5709 Y2.9685  
G01 X-3.5648 Y2.9697  
G01 X-3.5591 Y2.9721  
G01 X-3.5539 Y2.9755  
G01 X-3.5495 Y2.9799  
G01 X-3.5461 Y2.9851  
G01 X-3.5437 Y2.9908  
G01 X-3.5425 Y2.9969  
G01 X-3.5425 Y3.0031  
G01 X-3.5437 Y3.0092  
G01 X-3.5438 Y3.0094  
G01 X-3.4817 Y3.0545  
G01 X-2.6497 Y3.0545  
G01 X-2.5675 Y2.9814  
G01 X-2.5663 Y2.9802  
G01 X-2.5656 Y2.9798  
G01 X-2.5651 Y2.9793  
G01 X-2.5635 Y2.9784  
G01 X-2.5621 Y2.9774  
G01 X-2.5614 Y2.9771  
G01 X-2.5607 Y2.9767  
G01 X-2.5591 Y2.9762  
G01 X-2.5574 Y2.9755  
G01 X-2.5567 Y2.9753  
G01 X-2.5560 Y2.9751  
G01 X-2.5542 Y2.9748  
G01 X-2.5525 Y2.9745  
G01 X-2.5518 Y2.9745  
G01 X-2.5510 Y2.9744  
G01 X-2.5493 Y2.9745  
G01 X-2.3445 Y2.9745  
G01 X-2.3409 Y2.9721  
G01 X-2.3352 Y2.9697  
G01 X-2.3291 Y2.9685  
G01 X-2.2709 Y2.9685  
G01 X-2.2648 Y2.9697  
G01 X-2.2591 Y2.9721  
G01 X-2.2539 Y2.9755  
G01 X-2.2495 Y2.9799  
G01 X-2.2461 Y2.9851  
G01 X-2.2437 Y2.9908  
G01 X-2.2425 Y2.9969  
G01 X-2.2425 Y3.0031  
G01 X-2.2437 Y3.0092  
G01 X-2.2447 Y3.0116  
G01 X-2.1911 Y3.0545  
G01 X-1.3089 Y3.0545  
G01 X-1.2170 Y2.9810  
G01 X-1.2163 Y2.9802  
G01 X-1.2151 Y2.9794  
G01 X-1.2140 Y2.9785  
G01 X-1.2130 Y2.9780  
G01 X-1.2121 Y2.9774  
G01 X-1.2108 Y2.9769  
G01 X-1.2095 Y2.9762  
G01 X-1.2085 Y2.9759  
G01 X-1.2074 Y2.9755  
G01 X-1.2060 Y2.9752  
G01 X-1.2047 Y2.9748  
G01 X-1.2036 Y2.9747  
G01 X-1.2025 Y2.9745  
G01 X-1.2011 Y2.9745  
G01 X-1.1997 Y2.9744  
G01 X-1.1986 Y2.9745  
G01 X-0.9945 Y2.9745  
G01 X-0.9909 Y2.9721  
G01 X-0.9852 Y2.9697  
G01 X-0.9791 Y2.9685  
G01 X-0.9209 Y2.9685  
G01 X-0.9148 Y2.9697  
G01 X-0.9091 Y2.9721  
G01 X-0.9039 Y2.9755  
G01 X-0.8995 Y2.9799  
G01 X-0.8961 Y2.9851  
G01 X-0.8937 Y2.9908  
G01 X-0.8925 Y2.9969  
G01 X-0.8925 Y3.0031  
G01 X-0.8937 Y3.0092  
G01 X-0.8961 Y3.0149  
G01 X-0.8995 Y3.0201  
G01 X-0.9039 Y3.0245  
G01 X-0.9091 Y3.0279  
G01 X-0.9148 Y3.0303  
G01 X-0.9209 Y3.0315  
G01 X-0.9791 Y3.0315  
G01 X-0.9852 Y3.0303  
G01 X-0.9909 Y3.0279  
G01 X-0.9945 Y3.0255  
G01 X-1.1911 Y3.0255  
G01 X-1.2830 Y3.0990  
G01 X-1.2837 Y3.0998  
G01 X-1.2849 Y3.1006  
G01 X-1.2860 Y3.1015  
G01 X-1.2870 Y3.1020  
G01 X-1.2879 Y3.1026  
G01 X-1.2892 Y3.1031  
G01 X-1.2905 Y3.1038  
G01 X-1.2915 Y3.1041  
G01 X-1.2926 Y3.1045  
G01 X-1.2940 Y3.1048  
G01 X-1.2953 Y3.1052  
G01 X-1.2964 Y3.1053  
G01 X-1.2975 Y3.1055  
G01 X-1.2989 Y3.1055  
G01 X-1.3003 Y3.1056  
G01 X-1.3014 Y3.1055  
G01 X-2.1986 Y3.1055  
G01 X-2.1997 Y3.1056  
G01 X-2.2011 Y3.1055  
G01 X-2.2025 Y3.1055  
G01 X-2.2036 Y3.1053  
G01 X-2.2047 Y3.1052  
G01 X-2.2060 Y3.1048  
G01 X-2.2074 Y3.1045  
G01 X-2.2085 Y3.1041  
G01 X-2.2095 Y3.1038  
G01 X-2.2108 Y3.1031  
G01 X-2.2121 Y3.1026  
G01 X-2.2130 Y3.1020  
G01 X-2.2140 Y3.1015  
G01 X-2.2151 Y3.1006  
G01 X-2.2163 Y3.0998  
G01 X-2.2170 Y3.0990  
G01 X-2.3014 Y3.0315  
G01 X-2.3291 Y3.0315  
G01 X-2.3352 Y3.0303  
G01 X-2.3409 Y3.0279  
G01 X-2.3445 Y3.0255  
G01 X-2.5403 Y3.0255  
G01 X-2.6225 Y3.0986  
G01 X-2.6237 Y3.0998  
G01 X-2.6244 Y3.1002  
G01 X-2.6249 Y3.1007  
G01 X-2.6265 Y3.1016  
G01 X-2.6279 Y3.1026  
G01 X-2.6286 Y3.1029  
G01 X-2.6293 Y3.1033  
G01 X-2.6309 Y3.1038  
G01 X-2.6326 Y3.1045  
G01 X-2.6333 Y3.1047  
G01 X-2.6340 Y3.1049  
G01 X-2.6358 Y3.1052  
G01 X-2.6375 Y3.1055  
G01 X-2.6382 Y3.1055  
G01 X-2.6390 Y3.1056  
G01 X-2.6407 Y3.1055  
G01 X-3.4880 Y3.1055  
G01 X-3.4885 Y3.1056  
G01 X-3.4905 Y3.1055  
G01 X-3.4925 Y3.1055  
G01 X-3.4930 Y3.1054  
G01 X-3.4935 Y3.1054  
G01 X-3.4955 Y3.1049  
G01 X-3.4974 Y3.1045  
G01 X-3.4979 Y3.1043  
G01 X-3.4984 Y3.1042  
G01 X-3.5002 Y3.1034  
G01 X-3.5021 Y3.1026  
G01 X-3.5025 Y3.1023  
G01 X-3.5030 Y3.1021  
G01 X-3.5046 Y3.1009  
G01 X-3.5063 Y3.0998  
G01 X-3.5066 Y3.0994  
G01 X-3.6000 Y3.0315  
G01 X-3.6291 Y3.0315  
G01 X-3.6352 Y3.0303  
G01 X-3.6409 Y3.0279  
G01 X-3.6445 Y3.0255  
G01 X-3.8488 Y3.0255  
G01 X-3.8502 Y3.0256  
G01 X-3.8513 Y3.0255  
G01 X-3.8525 Y3.0255  
G01 X-3.8538 Y3.0252  
G01 X-3.8552 Y3.0251  
G01 X-3.8563 Y3.0247  
G01 X-3.8574 Y3.0245  
G01 X-3.8587 Y3.0240  
G01 X-3.8600 Y3.0236  
G01 X-3.8610 Y3.0230  
G01 X-3.8621 Y3.0226  
G01 X-3.8632 Y3.0218  
G01 X-3.8644 Y3.0212  
G01 X-3.8653 Y3.0205  
G01 X-3.8663 Y3.0198  
G01 X-3.8672 Y3.0188  
G01 X-3.9253 Y2.9705  
G01 X-3.9263 Y2.9698  
G01 X-3.9272 Y2.9688  
G01 X-3.9283 Y2.9680  
G01 X-3.9290 Y2.9671  
G01 X-3.9298 Y2.9663  
G01 X-3.9306 Y2.9651  
G01 X-3.9314 Y2.9641  
G01 X-3.9320 Y2.9630  
G01 X-3.9326 Y2.9621  
G01 X-3.9331 Y2.9608  
G01 X-3.9337 Y2.9596  
G01 X-3.9341 Y2.9585  
G01 X-3.9345 Y2.9574  
G01 X-3.9348 Y2.9561  
G01 X-3.9352 Y2.9548  
G01 X-3.9353 Y2.9537  
G01 X-3.9355 Y2.9525  
G01 X-3.9355 Y2.9512  
G01 X-3.9356 Y2.9498  
G01 X-3.9355 Y2.9487  
G01 X-3.9355 Y0.3506  
G01 X-3.9356 Y0.3487  
G01 X-3.9355 Y0.3481  
G01 X-3.9355 Y0.3475  
G01 X-3.9351 Y0.3456  
G01 X-3.9348 Y0.3437  
G01 X-3.9346 Y0.3432  
G01 X-3.9345 Y0.3426  
G01 X-3.9338 Y0.3408  
G01 X-3.9331 Y0.3390  
G01 X-3.9328 Y0.3385  
G01 X-3.9326 Y0.3379  
G01 X-3.9315 Y0.3363  
G01 X-3.9306 Y0.3347  
G01 X-3.9301 Y0.3343  
G01 X-3.9298 Y0.3337  
G01 X-3.9285 Y0.3324  
G01 X-3.7301 Y0.1143  
G01 X-3.7298 Y0.1137  
G01 X-3.7285 Y0.1124  
G01 X-3.7272 Y0.1110  
G01 X-3.7267 Y0.1106  
G01 X-3.7263 Y0.1102  
G01 X-3.7247 Y0.1091  
G01 X-3.7231 Y0.1080  
G01 X-3.7226 Y0.1077  
G01 X-3.7221 Y0.1074  
G01 X-3.7203 Y0.1067  
G01 X-3.7186 Y0.1059  
G01 X-3.7180 Y0.1057  
G01 X-3.7174 Y0.1055  
G01 X-3.7156 Y0.1051  
G01 X-3.7137 Y0.1046  
G01 X-3.7131 Y0.1046  
G01 X-3.7125 Y0.1045  
G01 X-3.7106 Y0.1045  
G01 X-3.7087 Y0.1044  
G01 X-3.7081 Y0.1045  
G01 X-3.1122 Y0.1045  
G01 X-3.1119 Y0.1044  
G01 X-3.1097 Y0.1045  
G01 X-3.1075 Y0.1045  
G01 X-3.1072 Y0.1046  
G01 X-3.1069 Y0.1046  
G01 X-3.1047 Y0.1050  
G01 X-3.1026 Y0.1055  
G01 X-3.1023 Y0.1056  
G01 X-3.1020 Y0.1057  
G01 X-3.1000 Y0.1066  
G01 X-3.0979 Y0.1074  
G01 X-3.0977 Y0.1076  
G01 X-3.0974 Y0.1077  
G01 X-3.0956 Y0.1090  
G01 X-3.0937 Y0.1102  
G01 X-3.0935 Y0.1104  
G01 X-3.0933 Y0.1106  
G01 X-3.0918 Y0.1122  
G01 X-3.0902 Y0.1137  
G01 X-3.0900 Y0.1140  
G01 X-2.8996 Y0.3135  
G01 X-2.8163 Y0.2302  
G01 X-2.8121 Y0.2274  
G01 X-2.8074 Y0.2255  
G01 X-2.8025 Y0.2245  
G01 X-2.6768 Y0.2245  
G01 X-2.6736 Y0.2213  
G01 X-2.6675 Y0.2172  
G01 X-2.6608 Y0.2144  
G01 X-2.6536 Y0.2130  
G01 X-2.6464 Y0.2130  
G01 X-2.6392 Y0.2144  
G01 X-2.6325 Y0.2172  
G01 X-2.6264 Y0.2213  
G01 X-2.6232 Y0.2245  
G01 X-2.1975 Y0.2245  
G01 X-2.1926 Y0.2255  
G01 X-2.1879 Y0.2274  
G01 X-2.1837 Y0.2302  
G01 X-2.1337 Y0.2802  
G01 X-2.1302 Y0.2837  
G01 X-2.1274 Y0.2879  
G01 X-2.1255 Y0.2926  
G01 X-2.1245 Y0.2975  
G01 X-2.1245 Y0.3461  
G01 X-2.1227 Y0.3479  
G01 X-2.1188 Y0.3536  
G01 X-2.1162 Y0.3601  
G01 X-2.1148 Y0.3668  
G01 X-2.1148 Y0.4332  
G01 X-2.1162 Y0.4399  
G01 X-2.1188 Y0.4464  
G01 X-2.1227 Y0.4521  
G01 X-2.1245 Y0.4539  
G01 X-2.1245 Y0.4915  
G01 X-1.9807 Y0.6833  
G01 X-1.9802 Y0.6837  
G01 X-1.9792 Y0.6853  
G01 X-1.9781 Y0.6867  
G01 X-1.9778 Y0.6873  
G01 X-1.9774 Y0.6879  
G01 X-1.9767 Y0.6896  
G01 X-1.9759 Y0.6912  
G01 X-1.9757 Y0.6919  
G01 X-1.9755 Y0.6926  
G01 X-1.9751 Y0.6943  
G01 X-1.9747 Y0.6961  
G01 X-1.9746 Y0.6968  
G01 X-1.9745 Y0.6975  
G01 X-1.9745 Y0.6993  
G01 X-1.9744 Y0.7011  
G01 X-1.9745 Y0.7018  
G01 X-1.9745 Y0.7310  
G01 X-1.9685 Y0.7370  
G01 X-1.9685 Y0.7630  
G01 X-1.9745 Y0.7690  
G01 X-1.9745 Y0.9910  
G01 X-1.9685 Y0.9970  
G01 X-1.9685 Y1.0230  
G01 X-1.9745 Y1.0290  
G01 X-1.9745 Y1.1055  
G01 X-1.9721 Y1.1091  
G01 X-1.9697 Y1.1148  
G01 X-1.9685 Y1.1209  
G01 X-1.9685 Y1.1791  
G01 X-1.9697 Y1.1852  
G01 X-1.9721 Y1.1909  
G01 X-1.9745 Y1.1945  
G01 X-1.9745 Y1.2375  
G01 X-1.9013 Y1.2945  
G01 X-0.9575 Y1.2945  
G01 X-0.9526 Y1.2955  
G01 X-0.9479 Y1.2974  
G01 X-0.9463 Y1.2985  
G01 X-0.9230 Y1.2985  
G01 X-0.9130 Y1.2885  
G01 X-0.8870 Y1.2885  
G01 X-0.8810 Y1.2945  
G01 X-0.7990 Y1.2945  
G01 X-0.7930 Y1.2885  
G01 X-0.7774 Y1.2885  
G01 X-0.7029 Y1.2429  
G01 X-0.7049 Y1.2399  
G01 X-0.7073 Y1.2342  
G01 X-0.7085 Y1.2281  
G01 X-0.7085 Y1.2219  
G01 X-0.7073 Y1.2158  
G01 X-0.7049 Y1.2101  
G01 X-0.7015 Y1.2049  
G01 X-0.6971 Y1.2005  
G01 X-0.6919 Y1.1971  
G01 X-0.6862 Y1.1947  
G01 X-0.6801 Y1.1935  
G01 X-0.6219 Y1.1935  
G01 X-0.6158 Y1.1947  
G01 X-0.6101 Y1.1971  
G01 X-0.6049 Y1.2005  
G01 X-0.6005 Y1.2049  
G01 X-0.5971 Y1.2101  
G01 X-0.5947 Y1.2158  
G01 X-0.5939 Y1.2201  
G01 X-0.5894 Y1.2245  
G01 X-0.4475 Y1.2245  
G01 X-0.4426 Y1.2255  
G01 X-0.4379 Y1.2274  
G01 X-0.4337 Y1.2302  
G01 X-0.4302 Y1.2337  
G01 X-0.3894 Y1.2745  
G01 X-0.2975 Y1.2745  
G01 X-0.2926 Y1.2755  
G01 X-0.2879 Y1.2774  
G01 X-0.2837 Y1.2802  
G01 X-0.2802 Y1.2837  
G00 Z0.0500  
G00 X-0.4328 Y1.3868  
G01 Z-0.0035 F10    
G01 X-0.4303 Y1.3912  F20    
G01 X-0.4276 Y1.3930  
G01 X-0.4227 Y1.3979  
G01 X-0.4188 Y1.4036  
G01 X-0.4162 Y1.4101  
G01 X-0.4148 Y1.4168  
G01 X-0.4148 Y1.4832  
G01 X-0.4162 Y1.4899  
G01 X-0.4188 Y1.4964  
G01 X-0.4227 Y1.5021  
G01 X-0.4276 Y1.5070  
G01 X-0.4333 Y1.5109  
G01 X-0.4397 Y1.5135  
G01 X-0.4465 Y1.5149  
G01 X-0.4535 Y1.5149  
G01 X-0.4603 Y1.5135  
G01 X-0.4667 Y1.5109  
G01 X-0.4724 Y1.5070  
G01 X-0.4773 Y1.5021  
G01 X-0.4812 Y1.4964  
G01 X-0.4838 Y1.4899  
G01 X-0.4852 Y1.4832  
G01 X-0.4852 Y1.4168  
G01 X-0.4838 Y1.4101  
G01 X-0.4812 Y1.4036  
G01 X-0.4794 Y1.4010  
G01 X-0.5089 Y1.3715  
G01 X-0.6427 Y1.3715  
G01 X-0.7658 Y1.4662  
G01 X-0.7668 Y1.4672  
G01 X-0.7680 Y1.4679  
G01 X-0.7691 Y1.4688  
G01 X-0.7705 Y1.4693  
G01 X-0.7717 Y1.4700  
G01 X-0.7731 Y1.4704  
G01 X-0.7744 Y1.4709  
G01 X-0.7758 Y1.4711  
G01 X-0.7772 Y1.4715  
G01 X-0.7786 Y1.4715  
G01 X-0.7800 Y1.4717  
G01 X-0.7814 Y1.4715  
G01 X-1.3685 Y1.4715  
G01 X-1.3685 Y1.4791  
G01 X-1.3697 Y1.4852  
G01 X-1.3721 Y1.4909  
G01 X-1.3755 Y1.4961  
G01 X-1.3799 Y1.5005  
G01 X-1.3851 Y1.5039  
G01 X-1.3908 Y1.5063  
G01 X-1.3969 Y1.5075  
G01 X-1.4031 Y1.5075  
G01 X-1.4092 Y1.5063  
G01 X-1.4149 Y1.5039  
G01 X-1.4201 Y1.5005  
G01 X-1.4245 Y1.4961  
G01 X-1.4279 Y1.4909  
G01 X-1.4303 Y1.4852  
G01 X-1.4315 Y1.4791  
G01 X-1.4315 Y1.4209  
G01 X-1.4303 Y1.4148  
G01 X-1.4279 Y1.4091  
G01 X-1.4245 Y1.4039  
G01 X-1.4201 Y1.3995  
G01 X-1.4149 Y1.3961  
G01 X-1.4092 Y1.3937  
G01 X-1.4031 Y1.3925  
G01 X-1.3969 Y1.3925  
G01 X-1.3908 Y1.3937  
G01 X-1.3851 Y1.3961  
G01 X-1.3799 Y1.3995  
G01 X-1.3755 Y1.4039  
G01 X-1.3721 Y1.4091  
G01 X-1.3697 Y1.4148  
G01 X-1.3685 Y1.4209  
G01 X-1.3685 Y1.4285  
G01 X-0.7873 Y1.4285  
G01 X-0.6642 Y1.3338  
G01 X-0.6632 Y1.3328  
G01 X-0.6620 Y1.3321  
G01 X-0.6609 Y1.3312  
G01 X-0.6595 Y1.3307  
G01 X-0.6583 Y1.3300  
G01 X-0.6569 Y1.3296  
G01 X-0.6556 Y1.3291  
G01 X-0.6542 Y1.3289  
G01 X-0.6528 Y1.3285  
G01 X-0.6514 Y1.3285  
G01 X-0.6500 Y1.3283  
G01 X-0.6486 Y1.3285  
G01 X-0.4972 Y1.3285  
G01 X-0.4917 Y1.3300  
G01 X-0.4868 Y1.3328  
G01 X-0.4368 Y1.3828  
G01 X-0.4328 Y1.3868  
G00 Z0.0500  
G00 X-0.5227 Y1.3979  
G01 Z-0.0035 F10    
G01 X-0.5188 Y1.4036  F20    
G01 X-0.5162 Y1.4101  
G01 X-0.5148 Y1.4168  
G01 X-0.5148 Y1.4832  
G01 X-0.5162 Y1.4899  
G01 X-0.5188 Y1.4964  
G01 X-0.5227 Y1.5021  
G01 X-0.5276 Y1.5070  
G01 X-0.5333 Y1.5109  
G01 X-0.5397 Y1.5135  
G01 X-0.5465 Y1.5149  
G01 X-0.5535 Y1.5149  
G01 X-0.5603 Y1.5135  
G01 X-0.5667 Y1.5109  
G01 X-0.5724 Y1.5070  
G01 X-0.5773 Y1.5021  
G01 X-0.5812 Y1.4964  
G01 X-0.5838 Y1.4899  
G01 X-0.5852 Y1.4832  
G01 X-0.5852 Y1.4715  
G01 X-0.6417 Y1.4715  
G01 X-0.7352 Y1.5556  
G01 X-0.7368 Y1.5572  
G01 X-0.7373 Y1.5575  
G01 X-0.7377 Y1.5579  
G01 X-0.7397 Y1.5589  
G01 X-0.7417 Y1.5600  
G01 X-0.7423 Y1.5602  
G01 X-0.7428 Y1.5604  
G01 X-0.7450 Y1.5609  
G01 X-0.7472 Y1.5615  
G01 X-0.7477 Y1.5615  
G01 X-0.7483 Y1.5616  
G01 X-0.7506 Y1.5615  
G01 X-1.4488 Y1.5615  
G01 X-1.4504 Y1.5617  
G01 X-1.4516 Y1.5615  
G01 X-1.4528 Y1.5615  
G01 X-1.4544 Y1.5611  
G01 X-1.4560 Y1.5608  
G01 X-1.4571 Y1.5603  
G01 X-1.4583 Y1.5600  
G01 X-1.4597 Y1.5592  
G01 X-1.4612 Y1.5586  
G01 X-1.4622 Y1.5578  
G01 X-1.4632 Y1.5572  
G01 X-1.4644 Y1.5560  
G01 X-1.5122 Y1.5178  
G01 X-1.5132 Y1.5172  
G01 X-1.5144 Y1.5160  
G01 X-1.5156 Y1.5150  
G01 X-1.5164 Y1.5141  
G01 X-1.5172 Y1.5132  
G01 X-1.5180 Y1.5118  
G01 X-1.5190 Y1.5105  
G01 X-1.5194 Y1.5093  
G01 X-1.5200 Y1.5083  
G01 X-1.5205 Y1.5067  
G01 X-1.5211 Y1.5052  
G01 X-1.5212 Y1.5040  
G01 X-1.5215 Y1.5028  
G01 X-1.5215 Y1.5012  
G01 X-1.5217 Y1.4996  
G01 X-1.5216 Y1.4990  
G01 X-1.5245 Y1.4961  
G01 X-1.5279 Y1.4909  
G01 X-1.5303 Y1.4852  
G01 X-1.5315 Y1.4791  
G01 X-1.5315 Y1.4209  
G01 X-1.5303 Y1.4148  
G01 X-1.5279 Y1.4091  
G01 X-1.5245 Y1.4039  
G01 X-1.5201 Y1.3995  
G01 X-1.5149 Y1.3961  
G01 X-1.5092 Y1.3937  
G01 X-1.5031 Y1.3925  
G01 X-1.4969 Y1.3925  
G01 X-1.4908 Y1.3937  
G01 X-1.4851 Y1.3961  
G01 X-1.4799 Y1.3995  
G01 X-1.4755 Y1.4039  
G01 X-1.4721 Y1.4091  
G01 X-1.4697 Y1.4148  
G01 X-1.4685 Y1.4209  
G01 X-1.4685 Y1.4791  
G01 X-1.4697 Y1.4852  
G01 X-1.4721 Y1.4909  
G01 X-1.4738 Y1.4934  
G01 X-1.4425 Y1.5185  
G01 X-0.7583 Y1.5185  
G01 X-0.6648 Y1.4344  
G01 X-0.6632 Y1.4328  
G01 X-0.6627 Y1.4325  
G01 X-0.6623 Y1.4321  
G01 X-0.6603 Y1.4311  
G01 X-0.6583 Y1.4300  
G01 X-0.6577 Y1.4298  
G01 X-0.6572 Y1.4296  
G01 X-0.6550 Y1.4291  
G01 X-0.6528 Y1.4285  
G01 X-0.6523 Y1.4285  
G01 X-0.6517 Y1.4284  
G01 X-0.6494 Y1.4285  
G01 X-0.5852 Y1.4285  
G01 X-0.5852 Y1.4168  
G01 X-0.5838 Y1.4101  
G01 X-0.5812 Y1.4036  
G01 X-0.5773 Y1.3979  
G01 X-0.5724 Y1.3930  
G01 X-0.5667 Y1.3891  
G01 X-0.5603 Y1.3865  
G01 X-0.5535 Y1.3851  
G01 X-0.5465 Y1.3851  
G01 X-0.5397 Y1.3865  
G01 X-0.5333 Y1.3891  
G01 X-0.5276 Y1.3930  
G01 X-0.5227 Y1.3979  
G00 Z0.0500  
G00 X-0.4213 Y1.5785  
G01 Z-0.0035 F10    
G01 X-0.4197 Y1.5783  F20    
G01 X-0.4185 Y1.5785  
G01 X-0.4172 Y1.5785  
G01 X-0.4157 Y1.5789  
G01 X-0.4141 Y1.5791  
G01 X-0.4129 Y1.5796  
G01 X-0.4117 Y1.5800  
G01 X-0.4104 Y1.5807  
G01 X-0.3456 Y1.6085  
G01 X-0.1213 Y1.6085  
G01 X-0.1199 Y1.6083  
G01 X-0.1185 Y1.6085  
G01 X-0.1172 Y1.6085  
G01 X-0.1157 Y1.6089  
G01 X-0.1143 Y1.6091  
G01 X-0.1130 Y1.6096  
G01 X-0.1117 Y1.6100  
G01 X-0.1104 Y1.6107  
G01 X-0.1090 Y1.6113  
G01 X-0.1080 Y1.6121  
G01 X-0.1068 Y1.6128  
G01 X-0.1057 Y1.6139  
G01 X-0.0180 Y1.6821  
G01 X-0.0168 Y1.6828  
G01 X-0.0157 Y1.6839  
G01 X-0.0146 Y1.6848  
G01 X-0.0138 Y1.6858  
G01 X-0.0128 Y1.6868  
G01 X-0.0120 Y1.6881  
G01 X-0.0111 Y1.6893  
G01 X-0.0106 Y1.6905  
G01 X-0.0100 Y1.6917  
G01 X-0.0096 Y1.6931  
G01 X-0.0090 Y1.6945  
G01 X-0.0088 Y1.6959  
G01 X-0.0085 Y1.6972  
G01 X-0.0085 Y1.6987  
G01 X-0.0083 Y1.7001  
G01 X-0.0085 Y1.7015  
G01 X-0.0085 Y2.9490  
G01 X-0.0083 Y2.9507  
G01 X-0.0085 Y2.9518  
G01 X-0.0085 Y2.9528  
G01 X-0.0090 Y2.9546  
G01 X-0.0093 Y2.9563  
G01 X-0.0097 Y2.9573  
G01 X-0.0100 Y2.9583  
G01 X-0.0109 Y2.9598  
G01 X-0.0116 Y2.9615  
G01 X-0.0123 Y2.9623  
G01 X-0.0128 Y2.9632  
G01 X-0.0141 Y2.9645  
G01 X-0.0152 Y2.9659  
G01 X-0.0161 Y2.9665  
G01 X-0.0168 Y2.9672  
G01 X-0.0183 Y2.9681  
G01 X-0.0861 Y3.0165  
G01 X-0.0868 Y3.0172  
G01 X-0.0883 Y3.0181  
G01 X-0.0898 Y3.0191  
G01 X-0.0908 Y3.0195  
G01 X-0.0917 Y3.0200  
G01 X-0.0934 Y3.0205  
G01 X-0.0951 Y3.0211  
G01 X-0.0962 Y3.0212  
G01 X-0.0972 Y3.0215  
G01 X-0.0990 Y3.0215  
G01 X-0.1007 Y3.0217  
G01 X-0.1018 Y3.0215  
G01 X-0.3010 Y3.0215  
G01 X-0.3039 Y3.0245  
G01 X-0.3091 Y3.0279  
G01 X-0.3148 Y3.0303  
G01 X-0.3209 Y3.0315  
G01 X-0.3791 Y3.0315  
G01 X-0.3852 Y3.0303  
G01 X-0.3909 Y3.0279  
G01 X-0.3961 Y3.0245  
G01 X-0.4005 Y3.0201  
G01 X-0.4039 Y3.0149  
G01 X-0.4063 Y3.0092  
G01 X-0.4075 Y3.0031  
G01 X-0.4075 Y2.9969  
G01 X-0.4063 Y2.9908  
G01 X-0.4039 Y2.9851  
G01 X-0.4005 Y2.9799  
G01 X-0.3961 Y2.9755  
G01 X-0.3909 Y2.9721  
G01 X-0.3852 Y2.9697  
G01 X-0.3791 Y2.9685  
G01 X-0.3209 Y2.9685  
G01 X-0.3148 Y2.9697  
G01 X-0.3091 Y2.9721  
G01 X-0.3039 Y2.9755  
G01 X-0.3010 Y2.9785  
G01 X-0.1069 Y2.9785  
G01 X-0.0515 Y2.9389  
G01 X-0.0515 Y1.7105  
G01 X-0.1274 Y1.6515  
G01 X-0.3487 Y1.6515  
G01 X-0.3503 Y1.6517  
G01 X-0.3515 Y1.6515  
G01 X-0.3528 Y1.6515  
G01 X-0.3543 Y1.6511  
G01 X-0.3559 Y1.6509  
G01 X-0.3571 Y1.6504  
G01 X-0.3583 Y1.6500  
G01 X-0.3596 Y1.6493  
G01 X-0.4244 Y1.6215  
G01 X-1.6028 Y1.6215  
G01 X-1.6083 Y1.6200  
G01 X-1.6132 Y1.6172  
G01 X-1.6172 Y1.6132  
G01 X-1.7172 Y1.5132  
G01 X-1.7200 Y1.5083  
G01 X-1.7215 Y1.5028  
G01 X-1.7215 Y1.4990  
G01 X-1.7245 Y1.4961  
G01 X-1.7279 Y1.4909  
G01 X-1.7303 Y1.4852  
G01 X-1.7315 Y1.4791  
G01 X-1.7315 Y1.4209  
G01 X-1.7303 Y1.4148  
G01 X-1.7279 Y1.4091  
G01 X-1.7245 Y1.4039  
G01 X-1.7201 Y1.3995  
G01 X-1.7149 Y1.3961  
G01 X-1.7092 Y1.3937  
G01 X-1.7031 Y1.3925  
G01 X-1.6969 Y1.3925  
G01 X-1.6908 Y1.3937  
G01 X-1.6851 Y1.3961  
G01 X-1.6799 Y1.3995  
G01 X-1.6755 Y1.4039  
G01 X-1.6721 Y1.4091  
G01 X-1.6697 Y1.4148  
G01 X-1.6685 Y1.4209  
G01 X-1.6685 Y1.4791  
G01 X-1.6697 Y1.4852  
G01 X-1.6721 Y1.4909  
G01 X-1.6747 Y1.4949  
G01 X-1.5911 Y1.5785  
G01 X-0.4213 Y1.5785  
G00 Z0.0500  
G00 X-0.3945 Y1.8745  
G01 Z-0.0035 F10    
G01 X-0.3909 Y1.8721  F20    
G01 X-0.3852 Y1.8697  
G01 X-0.3791 Y1.8685  
G01 X-0.3209 Y1.8685  
G01 X-0.3148 Y1.8697  
G01 X-0.3091 Y1.8721  
G01 X-0.3039 Y1.8755  
G01 X-0.2995 Y1.8799  
G01 X-0.2961 Y1.8851  
G01 X-0.2937 Y1.8908  
G01 X-0.2925 Y1.8969  
G01 X-0.2925 Y1.9031  
G01 X-0.2937 Y1.9092  
G01 X-0.2961 Y1.9149  
G01 X-0.2995 Y1.9201  
G01 X-0.3039 Y1.9245  
G01 X-0.3091 Y1.9279  
G01 X-0.3148 Y1.9303  
G01 X-0.3209 Y1.9315  
G01 X-0.3791 Y1.9315  
G01 X-0.3852 Y1.9303  
G01 X-0.3909 Y1.9279  
G01 X-0.3945 Y1.9255  
G01 X-0.4911 Y1.9255  
G01 X-0.7330 Y2.1190  
G01 X-0.7337 Y2.1198  
G01 X-0.7349 Y2.1206  
G01 X-0.7360 Y2.1215  
G01 X-0.7370 Y2.1220  
G01 X-0.7379 Y2.1226  
G01 X-0.7392 Y2.1231  
G01 X-0.7405 Y2.1238  
G01 X-0.7415 Y2.1241  
G01 X-0.7426 Y2.1245  
G01 X-0.7440 Y2.1248  
G01 X-0.7453 Y2.1252  
G01 X-0.7464 Y2.1253  
G01 X-0.7475 Y2.1255  
G01 X-0.7489 Y2.1255  
G01 X-0.7503 Y2.1256  
G01 X-0.7514 Y2.1255  
G01 X-0.9055 Y2.1255  
G01 X-0.9091 Y2.1279  
G01 X-0.9148 Y2.1303  
G01 X-0.9209 Y2.1315  
G01 X-0.9791 Y2.1315  
G01 X-0.9852 Y2.1303  
G01 X-0.9909 Y2.1279  
G01 X-0.9945 Y2.1255  
G01 X-1.1525 Y2.1255  
G01 X-1.1574 Y2.1245  
G01 X-1.1621 Y2.1226  
G01 X-1.1663 Y2.1198  
G01 X-1.2663 Y2.0198  
G01 X-1.2698 Y2.0163  
G01 X-1.2726 Y2.0121  
G01 X-1.2745 Y2.0074  
G01 X-1.2755 Y2.0025  
G01 X-1.2755 Y1.7290  
G01 X-1.2769 Y1.7284  
G01 X-1.2784 Y1.7269  
G01 X-1.2792 Y1.7248  
G01 X-1.2792 Y1.6752  
G01 X-1.2784 Y1.6731  
G01 X-1.2769 Y1.6716  
G01 X-1.2748 Y1.6708  
G01 X-1.2252 Y1.6708  
G01 X-1.2231 Y1.6716  
G01 X-1.2216 Y1.6731  
G01 X-1.2208 Y1.6752  
G01 X-1.2208 Y1.7248  
G01 X-1.2216 Y1.7269  
G01 X-1.2231 Y1.7284  
G01 X-1.2245 Y1.7290  
G01 X-1.2245 Y1.9894  
G01 X-1.1394 Y2.0745  
G01 X-0.9945 Y2.0745  
G01 X-0.9909 Y2.0721  
G01 X-0.9852 Y2.0697  
G01 X-0.9791 Y2.0685  
G01 X-0.9209 Y2.0685  
G01 X-0.9148 Y2.0697  
G01 X-0.9091 Y2.0721  
G01 X-0.9055 Y2.0745  
G01 X-0.7589 Y2.0745  
G01 X-0.5170 Y1.8810  
G01 X-0.5163 Y1.8802  
G01 X-0.5151 Y1.8794  
G01 X-0.5140 Y1.8785  
G01 X-0.5130 Y1.8780  
G01 X-0.5121 Y1.8774  
G01 X-0.5108 Y1.8769  
G01 X-0.5095 Y1.8762  
G01 X-0.5085 Y1.8759  
G01 X-0.5074 Y1.8755  
G01 X-0.5060 Y1.8752  
G01 X-0.5047 Y1.8748  
G01 X-0.5036 Y1.8747  
G01 X-0.5025 Y1.8745  
G01 X-0.5011 Y1.8745  
G01 X-0.4997 Y1.8744  
G01 X-0.4986 Y1.8745  
G01 X-0.3945 Y1.8745  
G00 Z0.0500  
G00 X-0.3909 Y1.9721  
G01 Z-0.0035 F10    
G01 X-0.3852 Y1.9697  F20    
G01 X-0.3791 Y1.9685  
G01 X-0.3209 Y1.9685  
G01 X-0.3148 Y1.9697  
G01 X-0.3091 Y1.9721  
G01 X-0.3039 Y1.9755  
G01 X-0.3023 Y1.9771  
G01 X-0.2102 Y1.9311  
G01 X-0.2088 Y1.9303  
G01 X-0.2070 Y1.9276  
G01 X-0.2021 Y1.9227  
G01 X-0.1964 Y1.9188  
G01 X-0.1899 Y1.9162  
G01 X-0.1832 Y1.9148  
G01 X-0.1168 Y1.9148  
G01 X-0.1101 Y1.9162  
G01 X-0.1036 Y1.9188  
G01 X-0.0979 Y1.9227  
G01 X-0.0930 Y1.9276  
G01 X-0.0891 Y1.9333  
G01 X-0.0865 Y1.9397  
G01 X-0.0851 Y1.9465  
G01 X-0.0851 Y1.9535  
G01 X-0.0865 Y1.9603  
G01 X-0.0891 Y1.9667  
G01 X-0.0930 Y1.9724  
G01 X-0.0979 Y1.9773  
G01 X-0.1036 Y1.9812  
G01 X-0.1101 Y1.9838  
G01 X-0.1168 Y1.9852  
G01 X-0.1832 Y1.9852  
G01 X-0.1899 Y1.9838  
G01 X-0.1964 Y1.9812  
G01 X-0.2021 Y1.9773  
G01 X-0.2036 Y1.9758  
G01 X-0.2898 Y2.0189  
G01 X-0.2917 Y2.0200  
G01 X-0.2923 Y2.0202  
G01 X-0.2929 Y2.0205  
G01 X-0.2951 Y2.0209  
G01 X-0.2972 Y2.0215  
G01 X-0.2978 Y2.0215  
G01 X-0.2985 Y2.0216  
G01 X-0.3006 Y2.0215  
G01 X-0.3010 Y2.0215  
G01 X-0.3039 Y2.0245  
G01 X-0.3091 Y2.0279  
G01 X-0.3148 Y2.0303  
G01 X-0.3209 Y2.0315  
G01 X-0.3791 Y2.0315  
G01 X-0.3852 Y2.0303  
G01 X-0.3909 Y2.0279  
G01 X-0.3961 Y2.0245  
G01 X-0.4005 Y2.0201  
G01 X-0.4039 Y2.0149  
G01 X-0.4063 Y2.0092  
G01 X-0.4075 Y2.0031  
G01 X-0.4075 Y1.9969  
G01 X-0.4063 Y1.9908  
G01 X-0.4039 Y1.9851  
G01 X-0.4005 Y1.9799  
G01 X-0.3961 Y1.9755  
G01 X-0.3909 Y1.9721  
G00 Z0.0500  
G00 X-0.3909 Y2.0721  
G01 Z-0.0035 F10    
G01 X-0.3852 Y2.0697  F20    
G01 X-0.3791 Y2.0685  
G01 X-0.3209 Y2.0685  
G01 X-0.3148 Y2.0697  
G01 X-0.3091 Y2.0721  
G01 X-0.3039 Y2.0755  
G01 X-0.3010 Y2.0785  
G01 X-0.2089 Y2.0785  
G01 X-0.2049 Y2.0745  
G01 X-0.2070 Y2.0724  
G01 X-0.2109 Y2.0667  
G01 X-0.2135 Y2.0603  
G01 X-0.2149 Y2.0535  
G01 X-0.2149 Y2.0465  
G01 X-0.2135 Y2.0397  
G01 X-0.2109 Y2.0333  
G01 X-0.2070 Y2.0276  
G01 X-0.2021 Y2.0227  
G01 X-0.1964 Y2.0188  
G01 X-0.1899 Y2.0162  
G01 X-0.1832 Y2.0148  
G01 X-0.1168 Y2.0148  
G01 X-0.1101 Y2.0162  
G01 X-0.1036 Y2.0188  
G01 X-0.0979 Y2.0227  
G01 X-0.0930 Y2.0276  
G01 X-0.0891 Y2.0333  
G01 X-0.0865 Y2.0397  
G01 X-0.0851 Y2.0465  
G01 X-0.0851 Y2.0535  
G01 X-0.0865 Y2.0603  
G01 X-0.0891 Y2.0667  
G01 X-0.0930 Y2.0724  
G01 X-0.0979 Y2.0773  
G01 X-0.1036 Y2.0812  
G01 X-0.1101 Y2.0838  
G01 X-0.1168 Y2.0852  
G01 X-0.1548 Y2.0852  
G01 X-0.1828 Y2.1132  
G01 X-0.1868 Y2.1172  
G01 X-0.1917 Y2.1200  
G01 X-0.1972 Y2.1215  
G01 X-0.3010 Y2.1215  
G01 X-0.3039 Y2.1245  
G01 X-0.3091 Y2.1279  
G01 X-0.3148 Y2.1303  
G01 X-0.3209 Y2.1315  
G01 X-0.3791 Y2.1315  
G01 X-0.3852 Y2.1303  
G01 X-0.3909 Y2.1279  
G01 X-0.3961 Y2.1245  
G01 X-0.4005 Y2.1201  
G01 X-0.4039 Y2.1149  
G01 X-0.4063 Y2.1092  
G01 X-0.4075 Y2.1031  
G01 X-0.4075 Y2.0969  
G01 X-0.4063 Y2.0908  
G01 X-0.4039 Y2.0851  
G01 X-0.4005 Y2.0799  
G01 X-0.3961 Y2.0755  
G01 X-0.3909 Y2.0721  
G00 Z0.0500  
G00 X-0.3909 Y2.1721  
G01 Z-0.0035 F10    
G01 X-0.3852 Y2.1697  F20    
G01 X-0.3791 Y2.1685  
G01 X-0.3209 Y2.1685  
G01 X-0.3148 Y2.1697  
G01 X-0.3091 Y2.1721  
G01 X-0.3039 Y2.1755  
G01 X-0.3010 Y2.1785  
G01 X-0.2076 Y2.1785  
G01 X-0.2070 Y2.1776  
G01 X-0.2021 Y2.1727  
G01 X-0.1964 Y2.1688  
G01 X-0.1899 Y2.1662  
G01 X-0.1832 Y2.1648  
G01 X-0.1168 Y2.1648  
G01 X-0.1101 Y2.1662  
G01 X-0.1036 Y2.1688  
G01 X-0.0979 Y2.1727  
G01 X-0.0930 Y2.1776  
G01 X-0.0891 Y2.1833  
G01 X-0.0865 Y2.1897  
G01 X-0.0851 Y2.1965  
G01 X-0.0851 Y2.2035  
G01 X-0.0865 Y2.2103  
G01 X-0.0891 Y2.2167  
G01 X-0.0930 Y2.2224  
G01 X-0.0979 Y2.2273  
G01 X-0.1036 Y2.2312  
G01 X-0.1101 Y2.2338  
G01 X-0.1168 Y2.2352  
G01 X-0.1832 Y2.2352  
G01 X-0.1899 Y2.2338  
G01 X-0.1964 Y2.2312  
G01 X-0.2021 Y2.2273  
G01 X-0.2070 Y2.2224  
G01 X-0.2076 Y2.2215  
G01 X-0.3010 Y2.2215  
G01 X-0.3039 Y2.2245  
G01 X-0.3091 Y2.2279  
G01 X-0.3148 Y2.2303  
G01 X-0.3209 Y2.2315  
G01 X-0.3791 Y2.2315  
G01 X-0.3852 Y2.2303  
G01 X-0.3909 Y2.2279  
G01 X-0.3961 Y2.2245  
G01 X-0.4005 Y2.2201  
G01 X-0.4039 Y2.2149  
G01 X-0.4063 Y2.2092  
G01 X-0.4075 Y2.2031  
G01 X-0.4075 Y2.1969  
G01 X-0.4063 Y2.1908  
G01 X-0.4039 Y2.1851  
G01 X-0.4005 Y2.1799  
G01 X-0.3961 Y2.1755  
G01 X-0.3909 Y2.1721  
G00 Z0.0500  
G00 X-0.3909 Y2.2721  
G01 Z-0.0035 F10    
G01 X-0.3852 Y2.2697  F20    
G01 X-0.3791 Y2.2685  
G01 X-0.3209 Y2.2685  
G01 X-0.3148 Y2.2697  
G01 X-0.3091 Y2.2721  
G01 X-0.3039 Y2.2755  
G01 X-0.3010 Y2.2785  
G01 X-0.2076 Y2.2785  
G01 X-0.2070 Y2.2776  
G01 X-0.2021 Y2.2727  
G01 X-0.1964 Y2.2688  
G01 X-0.1899 Y2.2662  
G01 X-0.1832 Y2.2648  
G01 X-0.1168 Y2.2648  
G01 X-0.1101 Y2.2662  
G01 X-0.1036 Y2.2688  
G01 X-0.0979 Y2.2727  
G01 X-0.0930 Y2.2776  
G01 X-0.0891 Y2.2833  
G01 X-0.0865 Y2.2897  
G01 X-0.0851 Y2.2965  
G01 X-0.0851 Y2.3035  
G01 X-0.0865 Y2.3103  
G01 X-0.0891 Y2.3167  
G01 X-0.0930 Y2.3224  
G01 X-0.0979 Y2.3273  
G01 X-0.1036 Y2.3312  
G01 X-0.1101 Y2.3338  
G01 X-0.1168 Y2.3352  
G01 X-0.1832 Y2.3352  
G01 X-0.1899 Y2.3338  
G01 X-0.1964 Y2.3312  
G01 X-0.2021 Y2.3273  
G01 X-0.2070 Y2.3224  
G01 X-0.2076 Y2.3215  
G01 X-0.3010 Y2.3215  
G01 X-0.3039 Y2.3245  
G01 X-0.3091 Y2.3279  
G01 X-0.3148 Y2.3303  
G01 X-0.3209 Y2.3315  
G01 X-0.3791 Y2.3315  
G01 X-0.3852 Y2.3303  
G01 X-0.3909 Y2.3279  
G01 X-0.3961 Y2.3245  
G01 X-0.4005 Y2.3201  
G01 X-0.4039 Y2.3149  
G01 X-0.4063 Y2.3092  
G01 X-0.4075 Y2.3031  
G01 X-0.4075 Y2.2969  
G01 X-0.4063 Y2.2908  
G01 X-0.4039 Y2.2851  
G01 X-0.4005 Y2.2799  
G01 X-0.3961 Y2.2755  
G01 X-0.3909 Y2.2721  
G00 Z0.0500  
G00 X-0.3909 Y2.3721  
G01 Z-0.0035 F10    
G01 X-0.3852 Y2.3697  F20    
G01 X-0.3791 Y2.3685  
G01 X-0.3209 Y2.3685  
G01 X-0.3148 Y2.3697  
G01 X-0.3091 Y2.3721  
G01 X-0.3039 Y2.3755  
G01 X-0.3010 Y2.3785  
G01 X-0.2076 Y2.3785  
G01 X-0.2070 Y2.3776  
G01 X-0.2021 Y2.3727  
G01 X-0.1964 Y2.3688  
G01 X-0.1899 Y2.3662  
G01 X-0.1832 Y2.3648  
G01 X-0.1168 Y2.3648  
G01 X-0.1101 Y2.3662  
G01 X-0.1036 Y2.3688  
G01 X-0.0979 Y2.3727  
G01 X-0.0930 Y2.3776  
G01 X-0.0891 Y2.3833  
G01 X-0.0865 Y2.3897  
G01 X-0.0851 Y2.3965  
G01 X-0.0851 Y2.4035  
G01 X-0.0865 Y2.4103  
G01 X-0.0891 Y2.4167  
G01 X-0.0930 Y2.4224  
G01 X-0.0979 Y2.4273  
G01 X-0.1036 Y2.4312  
G01 X-0.1101 Y2.4338  
G01 X-0.1168 Y2.4352  
G01 X-0.1832 Y2.4352  
G01 X-0.1899 Y2.4338  
G01 X-0.1964 Y2.4312  
G01 X-0.2021 Y2.4273  
G01 X-0.2070 Y2.4224  
G01 X-0.2076 Y2.4215  
G01 X-0.3010 Y2.4215  
G01 X-0.3039 Y2.4245  
G01 X-0.3091 Y2.4279  
G01 X-0.3148 Y2.4303  
G01 X-0.3209 Y2.4315  
G01 X-0.3791 Y2.4315  
G01 X-0.3852 Y2.4303  
G01 X-0.3909 Y2.4279  
G01 X-0.3961 Y2.4245  
G01 X-0.4005 Y2.4201  
G01 X-0.4039 Y2.4149  
G01 X-0.4063 Y2.4092  
G01 X-0.4075 Y2.4031  
G01 X-0.4075 Y2.3969  
G01 X-0.4063 Y2.3908  
G01 X-0.4039 Y2.3851  
G01 X-0.4005 Y2.3799  
G01 X-0.3961 Y2.3755  
G01 X-0.3909 Y2.3721  
G00 Z0.0500  
G00 X-0.3909 Y2.4721  
G01 Z-0.0035 F10    
G01 X-0.3852 Y2.4697  F20    
G01 X-0.3791 Y2.4685  
G01 X-0.3209 Y2.4685  
G01 X-0.3148 Y2.4697  
G01 X-0.3091 Y2.4721  
G01 X-0.3039 Y2.4755  
G01 X-0.3010 Y2.4785  
G01 X-0.2076 Y2.4785  
G01 X-0.2070 Y2.4776  
G01 X-0.2021 Y2.4727  
G01 X-0.1964 Y2.4688  
G01 X-0.1899 Y2.4662  
G01 X-0.1832 Y2.4648  
G01 X-0.1168 Y2.4648  
G01 X-0.1101 Y2.4662  
G01 X-0.1036 Y2.4688  
G01 X-0.0979 Y2.4727  
G01 X-0.0930 Y2.4776  
G01 X-0.0891 Y2.4833  
G01 X-0.0865 Y2.4897  
G01 X-0.0851 Y2.4965  
G01 X-0.0851 Y2.5035  
G01 X-0.0865 Y2.5103  
G01 X-0.0891 Y2.5167  
G01 X-0.0930 Y2.5224  
G01 X-0.0979 Y2.5273  
G01 X-0.1036 Y2.5312  
G01 X-0.1101 Y2.5338  
G01 X-0.1168 Y2.5352  
G01 X-0.1832 Y2.5352  
G01 X-0.1899 Y2.5338  
G01 X-0.1964 Y2.5312  
G01 X-0.2021 Y2.5273  
G01 X-0.2070 Y2.5224  
G01 X-0.2076 Y2.5215  
G01 X-0.3010 Y2.5215  
G01 X-0.3039 Y2.5245  
G01 X-0.3091 Y2.5279  
G01 X-0.3148 Y2.5303  
G01 X-0.3209 Y2.5315  
G01 X-0.3791 Y2.5315  
G01 X-0.3852 Y2.5303  
G01 X-0.3909 Y2.5279  
G01 X-0.3961 Y2.5245  
G01 X-0.4005 Y2.5201  
G01 X-0.4039 Y2.5149  
G01 X-0.4063 Y2.5092  
G01 X-0.4075 Y2.5031  
G01 X-0.4075 Y2.4969  
G01 X-0.4063 Y2.4908  
G01 X-0.4039 Y2.4851  
G01 X-0.4005 Y2.4799  
G01 X-0.3961 Y2.4755  
G01 X-0.3909 Y2.4721  
G00 Z0.0500  
G00 X-0.3909 Y2.5721  
G01 Z-0.0035 F10    
G01 X-0.3852 Y2.5697  F20    
G01 X-0.3791 Y2.5685  
G01 X-0.3209 Y2.5685  
G01 X-0.3148 Y2.5697  
G01 X-0.3091 Y2.5721  
G01 X-0.3039 Y2.5755  
G01 X-0.3010 Y2.5785  
G01 X-0.2076 Y2.5785  
G01 X-0.2070 Y2.5776  
G01 X-0.2021 Y2.5727  
G01 X-0.1964 Y2.5688  
G01 X-0.1899 Y2.5662  
G01 X-0.1832 Y2.5648  
G01 X-0.1168 Y2.5648  
G01 X-0.1101 Y2.5662  
G01 X-0.1036 Y2.5688  
G01 X-0.0979 Y2.5727  
G01 X-0.0930 Y2.5776  
G01 X-0.0891 Y2.5833  
G01 X-0.0865 Y2.5897  
G01 X-0.0851 Y2.5965  
G01 X-0.0851 Y2.6035  
G01 X-0.0865 Y2.6103  
G01 X-0.0891 Y2.6167  
G01 X-0.0930 Y2.6224  
G01 X-0.0979 Y2.6273  
G01 X-0.1036 Y2.6312  
G01 X-0.1101 Y2.6338  
G01 X-0.1168 Y2.6352  
G01 X-0.1832 Y2.6352  
G01 X-0.1899 Y2.6338  
G01 X-0.1964 Y2.6312  
G01 X-0.2021 Y2.6273  
G01 X-0.2070 Y2.6224  
G01 X-0.2076 Y2.6215  
G01 X-0.3010 Y2.6215  
G01 X-0.3039 Y2.6245  
G01 X-0.3091 Y2.6279  
G01 X-0.3148 Y2.6303  
G01 X-0.3209 Y2.6315  
G01 X-0.3791 Y2.6315  
G01 X-0.3852 Y2.6303  
G01 X-0.3909 Y2.6279  
G01 X-0.3961 Y2.6245  
G01 X-0.4005 Y2.6201  
G01 X-0.4039 Y2.6149  
G01 X-0.4063 Y2.6092  
G01 X-0.4075 Y2.6031  
G01 X-0.4075 Y2.5969  
G01 X-0.4063 Y2.5908  
G01 X-0.4039 Y2.5851  
G01 X-0.4005 Y2.5799  
G01 X-0.3961 Y2.5755  
G01 X-0.3909 Y2.5721  
G00 Z0.0500  
G00 X-0.3909 Y2.6721  
G01 Z-0.0035 F10    
G01 X-0.3852 Y2.6697  F20    
G01 X-0.3791 Y2.6685  
G01 X-0.3209 Y2.6685  
G01 X-0.3148 Y2.6697  
G01 X-0.3091 Y2.6721  
G01 X-0.3039 Y2.6755  
G01 X-0.3010 Y2.6785  
G01 X-0.2076 Y2.6785  
G01 X-0.2070 Y2.6776  
G01 X-0.2021 Y2.6727  
G01 X-0.1964 Y2.6688  
G01 X-0.1899 Y2.6662  
G01 X-0.1832 Y2.6648  
G01 X-0.1168 Y2.6648  
G01 X-0.1101 Y2.6662  
G01 X-0.1036 Y2.6688  
G01 X-0.0979 Y2.6727  
G01 X-0.0930 Y2.6776  
G01 X-0.0891 Y2.6833  
G01 X-0.0865 Y2.6897  
G01 X-0.0851 Y2.6965  
G01 X-0.0851 Y2.7035  
G01 X-0.0865 Y2.7103  
G01 X-0.0891 Y2.7167  
G01 X-0.0930 Y2.7224  
G01 X-0.0979 Y2.7273  
G01 X-0.1036 Y2.7312  
G01 X-0.1101 Y2.7338  
G01 X-0.1168 Y2.7352  
G01 X-0.1832 Y2.7352  
G01 X-0.1899 Y2.7338  
G01 X-0.1964 Y2.7312  
G01 X-0.2021 Y2.7273  
G01 X-0.2070 Y2.7224  
G01 X-0.2076 Y2.7215  
G01 X-0.3010 Y2.7215  
G01 X-0.3039 Y2.7245  
G01 X-0.3091 Y2.7279  
G01 X-0.3148 Y2.7303  
G01 X-0.3209 Y2.7315  
G01 X-0.3791 Y2.7315  
G01 X-0.3852 Y2.7303  
G01 X-0.3909 Y2.7279  
G01 X-0.3961 Y2.7245  
G01 X-0.4005 Y2.7201  
G01 X-0.4039 Y2.7149  
G01 X-0.4063 Y2.7092  
G01 X-0.4075 Y2.7031  
G01 X-0.4075 Y2.6969  
G01 X-0.4063 Y2.6908  
G01 X-0.4039 Y2.6851  
G01 X-0.4005 Y2.6799  
G01 X-0.3961 Y2.6755  
G01 X-0.3909 Y2.6721  
G00 Z0.0500  
G00 X-0.3909 Y2.7721  
G01 Z-0.0035 F10    
G01 X-0.3852 Y2.7697  F20    
G01 X-0.3791 Y2.7685  
G01 X-0.3209 Y2.7685  
G01 X-0.3148 Y2.7697  
G01 X-0.3091 Y2.7721  
G01 X-0.3039 Y2.7755  
G01 X-0.3010 Y2.7785  
G01 X-0.2076 Y2.7785  
G01 X-0.2070 Y2.7776  
G01 X-0.2021 Y2.7727  
G01 X-0.1964 Y2.7688  
G01 X-0.1899 Y2.7662  
G01 X-0.1832 Y2.7648  
G01 X-0.1168 Y2.7648  
G01 X-0.1101 Y2.7662  
G01 X-0.1036 Y2.7688  
G01 X-0.0979 Y2.7727  
G01 X-0.0930 Y2.7776  
G01 X-0.0891 Y2.7833  
G01 X-0.0865 Y2.7897  
G01 X-0.0851 Y2.7965  
G01 X-0.0851 Y2.8035  
G01 X-0.0865 Y2.8103  
G01 X-0.0891 Y2.8167  
G01 X-0.0930 Y2.8224  
G01 X-0.0979 Y2.8273  
G01 X-0.1036 Y2.8312  
G01 X-0.1101 Y2.8338  
G01 X-0.1168 Y2.8352  
G01 X-0.1832 Y2.8352  
G01 X-0.1899 Y2.8338  
G01 X-0.1964 Y2.8312  
G01 X-0.2021 Y2.8273  
G01 X-0.2070 Y2.8224  
G01 X-0.2076 Y2.8215  
G01 X-0.3010 Y2.8215  
G01 X-0.3039 Y2.8245  
G01 X-0.3091 Y2.8279  
G01 X-0.3148 Y2.8303  
G01 X-0.3209 Y2.8315  
G01 X-0.3791 Y2.8315  
G01 X-0.3852 Y2.8303  
G01 X-0.3909 Y2.8279  
G01 X-0.3961 Y2.8245  
G01 X-0.4005 Y2.8201  
G01 X-0.4039 Y2.8149  
G01 X-0.4063 Y2.8092  
G01 X-0.4075 Y2.8031  
G01 X-0.4075 Y2.7969  
G01 X-0.4063 Y2.7908  
G01 X-0.4039 Y2.7851  
G01 X-0.4005 Y2.7799  
G01 X-0.3961 Y2.7755  
G01 X-0.3909 Y2.7721  
G00 Z0.0500  
G00 X-0.3909 Y2.8721  
G01 Z-0.0035 F10    
G01 X-0.3852 Y2.8697  F20    
G01 X-0.3791 Y2.8685  
G01 X-0.3209 Y2.8685  
G01 X-0.3148 Y2.8697  
G01 X-0.3091 Y2.8721  
G01 X-0.3039 Y2.8755  
G01 X-0.3010 Y2.8785  
G01 X-0.2076 Y2.8785  
G01 X-0.2070 Y2.8776  
G01 X-0.2021 Y2.8727  
G01 X-0.1964 Y2.8688  
G01 X-0.1899 Y2.8662  
G01 X-0.1832 Y2.8648  
G01 X-0.1168 Y2.8648  
G01 X-0.1101 Y2.8662  
G01 X-0.1036 Y2.8688  
G01 X-0.0979 Y2.8727  
G01 X-0.0930 Y2.8776  
G01 X-0.0891 Y2.8833  
G01 X-0.0865 Y2.8897  
G01 X-0.0851 Y2.8965  
G01 X-0.0851 Y2.9035  
G01 X-0.0865 Y2.9103  
G01 X-0.0891 Y2.9167  
G01 X-0.0930 Y2.9224  
G01 X-0.0979 Y2.9273  
G01 X-0.1036 Y2.9312  
G01 X-0.1101 Y2.9338  
G01 X-0.1168 Y2.9352  
G01 X-0.1832 Y2.9352  
G01 X-0.1899 Y2.9338  
G01 X-0.1964 Y2.9312  
G01 X-0.2021 Y2.9273  
G01 X-0.2070 Y2.9224  
G01 X-0.2076 Y2.9215  
G01 X-0.3010 Y2.9215  
G01 X-0.3039 Y2.9245  
G01 X-0.3091 Y2.9279  
G01 X-0.3148 Y2.9303  
G01 X-0.3209 Y2.9315  
G01 X-0.3791 Y2.9315  
G01 X-0.3852 Y2.9303  
G01 X-0.3909 Y2.9279  
G01 X-0.3961 Y2.9245  
G01 X-0.4005 Y2.9201  
G01 X-0.4039 Y2.9149  
G01 X-0.4063 Y2.9092  
G01 X-0.4075 Y2.9031  
G01 X-0.4075 Y2.8969  
G01 X-0.4063 Y2.8908  
G01 X-0.4039 Y2.8851  
G01 X-0.4005 Y2.8799  
G01 X-0.3961 Y2.8755  
G01 X-0.3909 Y2.8721  
G00 Z0.0500  
G00 X-0.8995 Y2.8799  
G01 Z-0.0035 F10    
G01 X-0.8961 Y2.8851  F20    
G01 X-0.8937 Y2.8908  
G01 X-0.8925 Y2.8969  
G01 X-0.8925 Y2.9031  
G01 X-0.8937 Y2.9092  
G01 X-0.8961 Y2.9149  
G01 X-0.8995 Y2.9201  
G01 X-0.9039 Y2.9245  
G01 X-0.9091 Y2.9279  
G01 X-0.9148 Y2.9303  
G01 X-0.9209 Y2.9315  
G01 X-0.9791 Y2.9315  
G01 X-0.9852 Y2.9303  
G01 X-0.9909 Y2.9279  
G01 X-0.9961 Y2.9245  
G01 X-0.9990 Y2.9215  
G01 X-1.1424 Y2.9215  
G01 X-1.1430 Y2.9224  
G01 X-1.1479 Y2.9273  
G01 X-1.1536 Y2.9312  
G01 X-1.1601 Y2.9338  
G01 X-1.1668 Y2.9352  
G01 X-1.2332 Y2.9352  
G01 X-1.2399 Y2.9338  
G01 X-1.2464 Y2.9312  
G01 X-1.2521 Y2.9273  
G01 X-1.2570 Y2.9224  
G01 X-1.2609 Y2.9167  
G01 X-1.2635 Y2.9103  
G01 X-1.2649 Y2.9035  
G01 X-1.2649 Y2.8965  
G01 X-1.2635 Y2.8897  
G01 X-1.2609 Y2.8833  
G01 X-1.2570 Y2.8776  
G01 X-1.2521 Y2.8727  
G01 X-1.2464 Y2.8688  
G01 X-1.2399 Y2.8662  
G01 X-1.2332 Y2.8648  
G01 X-1.1668 Y2.8648  
G01 X-1.1601 Y2.8662  
G01 X-1.1536 Y2.8688  
G01 X-1.1479 Y2.8727  
G01 X-1.1430 Y2.8776  
G01 X-1.1424 Y2.8785  
G01 X-0.9990 Y2.8785  
G01 X-0.9961 Y2.8755  
G01 X-0.9909 Y2.8721  
G01 X-0.9852 Y2.8697  
G01 X-0.9791 Y2.8685  
G01 X-0.9209 Y2.8685  
G01 X-0.9148 Y2.8697  
G01 X-0.9091 Y2.8721  
G01 X-0.9039 Y2.8755  
G01 X-0.8995 Y2.8799  
G00 Z0.0500  
G00 X-0.9039 Y2.8245  
G01 Z-0.0035 F10    
G01 X-0.9091 Y2.8279  F20    
G01 X-0.9148 Y2.8303  
G01 X-0.9209 Y2.8315  
G01 X-0.9791 Y2.8315  
G01 X-0.9852 Y2.8303  
G01 X-0.9909 Y2.8279  
G01 X-0.9961 Y2.8245  
G01 X-0.9990 Y2.8215  
G01 X-1.1424 Y2.8215  
G01 X-1.1430 Y2.8224  
G01 X-1.1479 Y2.8273  
G01 X-1.1536 Y2.8312  
G01 X-1.1601 Y2.8338  
G01 X-1.1668 Y2.8352  
G01 X-1.2332 Y2.8352  
G01 X-1.2399 Y2.8338  
G01 X-1.2464 Y2.8312  
G01 X-1.2521 Y2.8273  
G01 X-1.2570 Y2.8224  
G01 X-1.2609 Y2.8167  
G01 X-1.2635 Y2.8103  
G01 X-1.2649 Y2.8035  
G01 X-1.2649 Y2.7965  
G01 X-1.2635 Y2.7897  
G01 X-1.2609 Y2.7833  
G01 X-1.2570 Y2.7776  
G01 X-1.2521 Y2.7727  
G01 X-1.2464 Y2.7688  
G01 X-1.2399 Y2.7662  
G01 X-1.2332 Y2.7648  
G01 X-1.1668 Y2.7648  
G01 X-1.1601 Y2.7662  
G01 X-1.1536 Y2.7688  
G01 X-1.1479 Y2.7727  
G01 X-1.1430 Y2.7776  
G01 X-1.1424 Y2.7785  
G01 X-0.9990 Y2.7785  
G01 X-0.9961 Y2.7755  
G01 X-0.9909 Y2.7721  
G01 X-0.9852 Y2.7697  
G01 X-0.9791 Y2.7685  
G01 X-0.9209 Y2.7685  
G01 X-0.9148 Y2.7697  
G01 X-0.9091 Y2.7721  
G01 X-0.9039 Y2.7755  
G01 X-0.8995 Y2.7799  
G01 X-0.8961 Y2.7851  
G01 X-0.8937 Y2.7908  
G01 X-0.8925 Y2.7969  
G01 X-0.8925 Y2.8031  
G01 X-0.8937 Y2.8092  
G01 X-0.8961 Y2.8149  
G01 X-0.8995 Y2.8201  
G01 X-0.9039 Y2.8245  
G00 Z0.0500  
G00 X-0.9039 Y2.7245  
G01 Z-0.0035 F10    
G01 X-0.9091 Y2.7279  F20    
G01 X-0.9148 Y2.7303  
G01 X-0.9209 Y2.7315  
G01 X-0.9791 Y2.7315  
G01 X-0.9852 Y2.7303  
G01 X-0.9909 Y2.7279  
G01 X-0.9961 Y2.7245  
G01 X-0.9990 Y2.7215  
G01 X-1.1424 Y2.7215  
G01 X-1.1430 Y2.7224  
G01 X-1.1479 Y2.7273  
G01 X-1.1536 Y2.7312  
G01 X-1.1601 Y2.7338  
G01 X-1.1668 Y2.7352  
G01 X-1.2332 Y2.7352  
G01 X-1.2399 Y2.7338  
G01 X-1.2464 Y2.7312  
G01 X-1.2521 Y2.7273  
G01 X-1.2570 Y2.7224  
G01 X-1.2609 Y2.7167  
G01 X-1.2635 Y2.7103  
G01 X-1.2649 Y2.7035  
G01 X-1.2649 Y2.6965  
G01 X-1.2635 Y2.6897  
G01 X-1.2609 Y2.6833  
G01 X-1.2570 Y2.6776  
G01 X-1.2521 Y2.6727  
G01 X-1.2464 Y2.6688  
G01 X-1.2399 Y2.6662  
G01 X-1.2332 Y2.6648  
G01 X-1.1668 Y2.6648  
G01 X-1.1601 Y2.6662  
G01 X-1.1536 Y2.6688  
G01 X-1.1479 Y2.6727  
G01 X-1.1430 Y2.6776  
G01 X-1.1424 Y2.6785  
G01 X-0.9990 Y2.6785  
G01 X-0.9961 Y2.6755  
G01 X-0.9909 Y2.6721  
G01 X-0.9852 Y2.6697  
G01 X-0.9791 Y2.6685  
G01 X-0.9209 Y2.6685  
G01 X-0.9148 Y2.6697  
G01 X-0.9091 Y2.6721  
G01 X-0.9039 Y2.6755  
G01 X-0.8995 Y2.6799  
G01 X-0.8961 Y2.6851  
G01 X-0.8937 Y2.6908  
G01 X-0.8925 Y2.6969  
G01 X-0.8925 Y2.7031  
G01 X-0.8937 Y2.7092  
G01 X-0.8961 Y2.7149  
G01 X-0.8995 Y2.7201  
G01 X-0.9039 Y2.7245  
G00 Z0.0500  
G00 X-0.9039 Y2.6245  
G01 Z-0.0035 F10    
G01 X-0.9091 Y2.6279  F20    
G01 X-0.9148 Y2.6303  
G01 X-0.9209 Y2.6315  
G01 X-0.9791 Y2.6315  
G01 X-0.9852 Y2.6303  
G01 X-0.9909 Y2.6279  
G01 X-0.9961 Y2.6245  
G01 X-0.9990 Y2.6215  
G01 X-1.1424 Y2.6215  
G01 X-1.1430 Y2.6224  
G01 X-1.1479 Y2.6273  
G01 X-1.1536 Y2.6312  
G01 X-1.1601 Y2.6338  
G01 X-1.1668 Y2.6352  
G01 X-1.2332 Y2.6352  
G01 X-1.2399 Y2.6338  
G01 X-1.2464 Y2.6312  
G01 X-1.2521 Y2.6273  
G01 X-1.2570 Y2.6224  
G01 X-1.2609 Y2.6167  
G01 X-1.2635 Y2.6103  
G01 X-1.2649 Y2.6035  
G01 X-1.2649 Y2.5965  
G01 X-1.2635 Y2.5897  
G01 X-1.2609 Y2.5833  
G01 X-1.2570 Y2.5776  
G01 X-1.2521 Y2.5727  
G01 X-1.2464 Y2.5688  
G01 X-1.2399 Y2.5662  
G01 X-1.2332 Y2.5648  
G01 X-1.1668 Y2.5648  
G01 X-1.1601 Y2.5662  
G01 X-1.1536 Y2.5688  
G01 X-1.1479 Y2.5727  
G01 X-1.1430 Y2.5776  
G01 X-1.1424 Y2.5785  
G01 X-0.9990 Y2.5785  
G01 X-0.9961 Y2.5755  
G01 X-0.9909 Y2.5721  
G01 X-0.9852 Y2.5697  
G01 X-0.9791 Y2.5685  
G01 X-0.9209 Y2.5685  
G01 X-0.9148 Y2.5697  
G01 X-0.9091 Y2.5721  
G01 X-0.9039 Y2.5755  
G01 X-0.8995 Y2.5799  
G01 X-0.8961 Y2.5851  
G01 X-0.8937 Y2.5908  
G01 X-0.8925 Y2.5969  
G01 X-0.8925 Y2.6031  
G01 X-0.8937 Y2.6092  
G01 X-0.8961 Y2.6149  
G01 X-0.8995 Y2.6201  
G01 X-0.9039 Y2.6245  
G00 Z0.0500  
G00 X-0.9039 Y2.5245  
G01 Z-0.0035 F10    
G01 X-0.9091 Y2.5279  F20    
G01 X-0.9148 Y2.5303  
G01 X-0.9209 Y2.5315  
G01 X-0.9791 Y2.5315  
G01 X-0.9852 Y2.5303  
G01 X-0.9909 Y2.5279  
G01 X-0.9961 Y2.5245  
G01 X-0.9990 Y2.5215  
G01 X-1.1424 Y2.5215  
G01 X-1.1430 Y2.5224  
G01 X-1.1479 Y2.5273  
G01 X-1.1536 Y2.5312  
G01 X-1.1601 Y2.5338  
G01 X-1.1668 Y2.5352  
G01 X-1.2332 Y2.5352  
G01 X-1.2399 Y2.5338  
G01 X-1.2464 Y2.5312  
G01 X-1.2521 Y2.5273  
G01 X-1.2570 Y2.5224  
G01 X-1.2609 Y2.5167  
G01 X-1.2635 Y2.5103  
G01 X-1.2649 Y2.5035  
G01 X-1.2649 Y2.4965  
G01 X-1.2635 Y2.4897  
G01 X-1.2609 Y2.4833  
G01 X-1.2570 Y2.4776  
G01 X-1.2521 Y2.4727  
G01 X-1.2464 Y2.4688  
G01 X-1.2399 Y2.4662  
G01 X-1.2332 Y2.4648  
G01 X-1.1668 Y2.4648  
G01 X-1.1601 Y2.4662  
G01 X-1.1536 Y2.4688  
G01 X-1.1479 Y2.4727  
G01 X-1.1430 Y2.4776  
G01 X-1.1424 Y2.4785  
G01 X-0.9990 Y2.4785  
G01 X-0.9961 Y2.4755  
G01 X-0.9909 Y2.4721  
G01 X-0.9852 Y2.4697  
G01 X-0.9791 Y2.4685  
G01 X-0.9209 Y2.4685  
G01 X-0.9148 Y2.4697  
G01 X-0.9091 Y2.4721  
G01 X-0.9039 Y2.4755  
G01 X-0.8995 Y2.4799  
G01 X-0.8961 Y2.4851  
G01 X-0.8937 Y2.4908  
G01 X-0.8925 Y2.4969  
G01 X-0.8925 Y2.5031  
G01 X-0.8937 Y2.5092  
G01 X-0.8961 Y2.5149  
G01 X-0.8995 Y2.5201  
G01 X-0.9039 Y2.5245  
G00 Z0.0500  
G00 X-0.9039 Y2.4245  
G01 Z-0.0035 F10    
G01 X-0.9091 Y2.4279  F20    
G01 X-0.9148 Y2.4303  
G01 X-0.9209 Y2.4315  
G01 X-0.9791 Y2.4315  
G01 X-0.9852 Y2.4303  
G01 X-0.9909 Y2.4279  
G01 X-0.9961 Y2.4245  
G01 X-0.9990 Y2.4215  
G01 X-1.1424 Y2.4215  
G01 X-1.1430 Y2.4224  
G01 X-1.1479 Y2.4273  
G01 X-1.1536 Y2.4312  
G01 X-1.1601 Y2.4338  
G01 X-1.1668 Y2.4352  
G01 X-1.2332 Y2.4352  
G01 X-1.2399 Y2.4338  
G01 X-1.2464 Y2.4312  
G01 X-1.2521 Y2.4273  
G01 X-1.2570 Y2.4224  
G01 X-1.2609 Y2.4167  
G01 X-1.2635 Y2.4103  
G01 X-1.2649 Y2.4035  
G01 X-1.2649 Y2.3965  
G01 X-1.2635 Y2.3897  
G01 X-1.2609 Y2.3833  
G01 X-1.2570 Y2.3776  
G01 X-1.2521 Y2.3727  
G01 X-1.2464 Y2.3688  
G01 X-1.2399 Y2.3662  
G01 X-1.2332 Y2.3648  
G01 X-1.1668 Y2.3648  
G01 X-1.1601 Y2.3662  
G01 X-1.1536 Y2.3688  
G01 X-1.1479 Y2.3727  
G01 X-1.1430 Y2.3776  
G01 X-1.1424 Y2.3785  
G01 X-0.9990 Y2.3785  
G01 X-0.9961 Y2.3755  
G01 X-0.9909 Y2.3721  
G01 X-0.9852 Y2.3697  
G01 X-0.9791 Y2.3685  
G01 X-0.9209 Y2.3685  
G01 X-0.9148 Y2.3697  
G01 X-0.9091 Y2.3721  
G01 X-0.9039 Y2.3755  
G01 X-0.8995 Y2.3799  
G01 X-0.8961 Y2.3851  
G01 X-0.8937 Y2.3908  
G01 X-0.8925 Y2.3969  
G01 X-0.8925 Y2.4031  
G01 X-0.8937 Y2.4092  
G01 X-0.8961 Y2.4149  
G01 X-0.8995 Y2.4201  
G01 X-0.9039 Y2.4245  
G00 Z0.0500  
G00 X-0.9039 Y2.3245  
G01 Z-0.0035 F10    
G01 X-0.9091 Y2.3279  F20    
G01 X-0.9148 Y2.3303  
G01 X-0.9209 Y2.3315  
G01 X-0.9791 Y2.3315  
G01 X-0.9852 Y2.3303  
G01 X-0.9909 Y2.3279  
G01 X-0.9961 Y2.3245  
G01 X-0.9990 Y2.3215  
G01 X-1.1424 Y2.3215  
G01 X-1.1430 Y2.3224  
G01 X-1.1479 Y2.3273  
G01 X-1.1536 Y2.3312  
G01 X-1.1601 Y2.3338  
G01 X-1.1668 Y2.3352  
G01 X-1.2332 Y2.3352  
G01 X-1.2399 Y2.3338  
G01 X-1.2464 Y2.3312  
G01 X-1.2521 Y2.3273  
G01 X-1.2570 Y2.3224  
G01 X-1.2609 Y2.3167  
G01 X-1.2635 Y2.3103  
G01 X-1.2649 Y2.3035  
G01 X-1.2649 Y2.2965  
G01 X-1.2635 Y2.2897  
G01 X-1.2609 Y2.2833  
G01 X-1.2570 Y2.2776  
G01 X-1.2521 Y2.2727  
G01 X-1.2464 Y2.2688  
G01 X-1.2399 Y2.2662  
G01 X-1.2332 Y2.2648  
G01 X-1.1668 Y2.2648  
G01 X-1.1601 Y2.2662  
G01 X-1.1536 Y2.2688  
G01 X-1.1479 Y2.2727  
G01 X-1.1430 Y2.2776  
G01 X-1.1424 Y2.2785  
G01 X-0.9990 Y2.2785  
G01 X-0.9961 Y2.2755  
G01 X-0.9909 Y2.2721  
G01 X-0.9852 Y2.2697  
G01 X-0.9791 Y2.2685  
G01 X-0.9209 Y2.2685  
G01 X-0.9148 Y2.2697  
G01 X-0.9091 Y2.2721  
G01 X-0.9039 Y2.2755  
G01 X-0.8995 Y2.2799  
G01 X-0.8961 Y2.2851  
G01 X-0.8937 Y2.2908  
G01 X-0.8925 Y2.2969  
G01 X-0.8925 Y2.3031  
G01 X-0.8937 Y2.3092  
G01 X-0.8961 Y2.3149  
G01 X-0.8995 Y2.3201  
G01 X-0.9039 Y2.3245  
G00 Z0.0500  
G00 X-0.9039 Y2.2245  
G01 Z-0.0035 F10    
G01 X-0.9091 Y2.2279  F20    
G01 X-0.9148 Y2.2303  
G01 X-0.9209 Y2.2315  
G01 X-0.9791 Y2.2315  
G01 X-0.9852 Y2.2303  
G01 X-0.9909 Y2.2279  
G01 X-0.9961 Y2.2245  
G01 X-0.9990 Y2.2215  
G01 X-1.1424 Y2.2215  
G01 X-1.1430 Y2.2224  
G01 X-1.1479 Y2.2273  
G01 X-1.1536 Y2.2312  
G01 X-1.1601 Y2.2338  
G01 X-1.1668 Y2.2352  
G01 X-1.2332 Y2.2352  
G01 X-1.2399 Y2.2338  
G01 X-1.2464 Y2.2312  
G01 X-1.2521 Y2.2273  
G01 X-1.2570 Y2.2224  
G01 X-1.2609 Y2.2167  
G01 X-1.2635 Y2.2103  
G01 X-1.2649 Y2.2035  
G01 X-1.2649 Y2.1965  
G01 X-1.2635 Y2.1897  
G01 X-1.2609 Y2.1833  
G01 X-1.2570 Y2.1776  
G01 X-1.2521 Y2.1727  
G01 X-1.2464 Y2.1688  
G01 X-1.2399 Y2.1662  
G01 X-1.2332 Y2.1648  
G01 X-1.1668 Y2.1648  
G01 X-1.1601 Y2.1662  
G01 X-1.1536 Y2.1688  
G01 X-1.1479 Y2.1727  
G01 X-1.1430 Y2.1776  
G01 X-1.1424 Y2.1785  
G01 X-0.9990 Y2.1785  
G01 X-0.9961 Y2.1755  
G01 X-0.9909 Y2.1721  
G01 X-0.9852 Y2.1697  
G01 X-0.9791 Y2.1685  
G01 X-0.9209 Y2.1685  
G01 X-0.9148 Y2.1697  
G01 X-0.9091 Y2.1721  
G01 X-0.9039 Y2.1755  
G01 X-0.8995 Y2.1799  
G01 X-0.8961 Y2.1851  
G01 X-0.8937 Y2.1908  
G01 X-0.8925 Y2.1969  
G01 X-0.8925 Y2.2031  
G01 X-0.8937 Y2.2092  
G01 X-0.8961 Y2.2149  
G01 X-0.8995 Y2.2201  
G01 X-0.9039 Y2.2245  
G00 Z0.0500  
G00 X-0.9039 Y2.0245  
G01 Z-0.0035 F10    
G01 X-0.9091 Y2.0279  F20    
G01 X-0.9148 Y2.0303  
G01 X-0.9209 Y2.0315  
G01 X-0.9791 Y2.0315  
G01 X-0.9852 Y2.0303  
G01 X-0.9909 Y2.0279  
G01 X-0.9961 Y2.0245  
G01 X-1.0005 Y2.0201  
G01 X-1.0039 Y2.0149  
G01 X-1.0063 Y2.0092  
G01 X-1.0075 Y2.0031  
G01 X-1.0075 Y1.9969  
G01 X-1.0063 Y1.9908  
G01 X-1.0039 Y1.9851  
G01 X-1.0005 Y1.9799  
G01 X-0.9961 Y1.9755  
G01 X-0.9909 Y1.9721  
G01 X-0.9852 Y1.9697  
G01 X-0.9791 Y1.9685  
G01 X-0.9209 Y1.9685  
G01 X-0.9148 Y1.9697  
G01 X-0.9091 Y1.9721  
G01 X-0.9039 Y1.9755  
G01 X-0.9010 Y1.9785  
G01 X-0.8572 Y1.9785  
G01 X-0.6142 Y1.7938  
G01 X-0.6132 Y1.7928  
G01 X-0.6119 Y1.7921  
G01 X-0.6108 Y1.7912  
G01 X-0.6095 Y1.7907  
G01 X-0.6083 Y1.7900  
G01 X-0.6069 Y1.7896  
G01 X-0.6055 Y1.7890  
G01 X-0.6042 Y1.7889  
G01 X-0.6028 Y1.7885  
G01 X-0.6014 Y1.7885  
G01 X-0.5999 Y1.7883  
G01 X-0.5985 Y1.7885  
G01 X-0.2612 Y1.7885  
G01 X-0.2596 Y1.7883  
G01 X-0.2584 Y1.7885  
G01 X-0.2572 Y1.7885  
G01 X-0.2556 Y1.7889  
G01 X-0.2540 Y1.7892  
G01 X-0.2529 Y1.7897  
G01 X-0.2517 Y1.7900  
G01 X-0.2503 Y1.7908  
G01 X-0.2488 Y1.7914  
G01 X-0.2478 Y1.7922  
G01 X-0.2468 Y1.7928  
G01 X-0.2456 Y1.7940  
G01 X-0.2055 Y1.8261  
G01 X-0.2021 Y1.8227  
G01 X-0.1964 Y1.8188  
G01 X-0.1899 Y1.8162  
G01 X-0.1832 Y1.8148  
G01 X-0.1168 Y1.8148  
G01 X-0.1101 Y1.8162  
G01 X-0.1036 Y1.8188  
G01 X-0.0979 Y1.8227  
G01 X-0.0930 Y1.8276  
G01 X-0.0891 Y1.8333  
G01 X-0.0865 Y1.8397  
G01 X-0.0851 Y1.8465  
G01 X-0.0851 Y1.8535  
G01 X-0.0865 Y1.8603  
G01 X-0.0891 Y1.8667  
G01 X-0.0930 Y1.8724  
G01 X-0.0979 Y1.8773  
G01 X-0.1036 Y1.8812  
G01 X-0.1101 Y1.8838  
G01 X-0.1168 Y1.8852  
G01 X-0.1832 Y1.8852  
G01 X-0.1899 Y1.8838  
G01 X-0.1964 Y1.8812  
G01 X-0.2021 Y1.8773  
G01 X-0.2070 Y1.8724  
G01 X-0.2076 Y1.8715  
G01 X-0.2088 Y1.8715  
G01 X-0.2104 Y1.8717  
G01 X-0.2116 Y1.8715  
G01 X-0.2128 Y1.8715  
G01 X-0.2144 Y1.8711  
G01 X-0.2160 Y1.8708  
G01 X-0.2171 Y1.8703  
G01 X-0.2183 Y1.8700  
G01 X-0.2197 Y1.8692  
G01 X-0.2212 Y1.8686  
G01 X-0.2222 Y1.8678  
G01 X-0.2232 Y1.8672  
G01 X-0.2244 Y1.8660  
G01 X-0.2675 Y1.8315  
G01 X-0.5928 Y1.8315  
G01 X-0.8358 Y2.0162  
G01 X-0.8368 Y2.0172  
G01 X-0.8381 Y2.0179  
G01 X-0.8392 Y2.0188  
G01 X-0.8405 Y2.0193  
G01 X-0.8417 Y2.0200  
G01 X-0.8431 Y2.0204  
G01 X-0.8445 Y2.0210  
G01 X-0.8458 Y2.0211  
G01 X-0.8472 Y2.0215  
G01 X-0.8486 Y2.0215  
G01 X-0.8501 Y2.0217  
G01 X-0.8515 Y2.0215  
G01 X-0.9010 Y2.0215  
G01 X-0.9039 Y2.0245  
G00 Z0.0500  
G00 X-0.9039 Y1.9245  
G01 Z-0.0035 F10    
G01 X-0.9091 Y1.9279  F20    
G01 X-0.9148 Y1.9303  
G01 X-0.9209 Y1.9315  
G01 X-0.9791 Y1.9315  
G01 X-0.9852 Y1.9303  
G01 X-0.9909 Y1.9279  
G01 X-0.9961 Y1.9245  
G01 X-1.0005 Y1.9201  
G01 X-1.0039 Y1.9149  
G01 X-1.0063 Y1.9092  
G01 X-1.0075 Y1.9031  
G01 X-1.0075 Y1.8969  
G01 X-1.0063 Y1.8908  
G01 X-1.0039 Y1.8851  
G01 X-1.0005 Y1.8799  
G01 X-0.9961 Y1.8755  
G01 X-0.9909 Y1.8721  
G01 X-0.9852 Y1.8697  
G01 X-0.9791 Y1.8685  
G01 X-0.9438 Y1.8685  
G01 X-0.7641 Y1.7337  
G01 X-0.7632 Y1.7328  
G01 X-0.7619 Y1.7320  
G01 X-0.7606 Y1.7311  
G01 X-0.7594 Y1.7306  
G01 X-0.7583 Y1.7300  
G01 X-0.7568 Y1.7296  
G01 X-0.7554 Y1.7290  
G01 X-0.7541 Y1.7288  
G01 X-0.7528 Y1.7285  
G01 X-0.7513 Y1.7285  
G01 X-0.7498 Y1.7283  
G01 X-0.7485 Y1.7285  
G01 X-0.2076 Y1.7285  
G01 X-0.2070 Y1.7276  
G01 X-0.2021 Y1.7227  
G01 X-0.1964 Y1.7188  
G01 X-0.1899 Y1.7162  
G01 X-0.1832 Y1.7148  
G01 X-0.1168 Y1.7148  
G01 X-0.1101 Y1.7162  
G01 X-0.1036 Y1.7188  
G01 X-0.0979 Y1.7227  
G01 X-0.0930 Y1.7276  
G01 X-0.0891 Y1.7333  
G01 X-0.0865 Y1.7397  
G01 X-0.0851 Y1.7465  
G01 X-0.0851 Y1.7535  
G01 X-0.0865 Y1.7603  
G01 X-0.0891 Y1.7667  
G01 X-0.0930 Y1.7724  
G01 X-0.0979 Y1.7773  
G01 X-0.1036 Y1.7812  
G01 X-0.1101 Y1.7838  
G01 X-0.1168 Y1.7852  
G01 X-0.1832 Y1.7852  
G01 X-0.1899 Y1.7838  
G01 X-0.1964 Y1.7812  
G01 X-0.2021 Y1.7773  
G01 X-0.2070 Y1.7724  
G01 X-0.2076 Y1.7715  
G01 X-0.7428 Y1.7715  
G01 X-0.8957 Y1.8861  
G01 X-0.8937 Y1.8908  
G01 X-0.8925 Y1.8969  
G01 X-0.8925 Y1.9031  
G01 X-0.8937 Y1.9092  
G01 X-0.8961 Y1.9149  
G01 X-0.8995 Y1.9201  
G01 X-0.9039 Y1.9245  
G00 Z0.0500  
G00 X-1.4430 Y1.9276  
G01 Z-0.0035 F10    
G01 X-1.4391 Y1.9333  F20    
G01 X-1.4365 Y1.9397  
G01 X-1.4351 Y1.9465  
G01 X-1.4351 Y1.9535  
G01 X-1.4365 Y1.9603  
G01 X-1.4391 Y1.9667  
G01 X-1.4430 Y1.9724  
G01 X-1.4479 Y1.9773  
G01 X-1.4536 Y1.9812  
G01 X-1.4601 Y1.9838  
G01 X-1.4668 Y1.9852  
G01 X-1.5332 Y1.9852  
G01 X-1.5399 Y1.9838  
G01 X-1.5464 Y1.9812  
G01 X-1.5521 Y1.9773  
G01 X-1.5536 Y1.9758  
G01 X-1.6398 Y2.0189  
G01 X-1.6417 Y2.0200  
G01 X-1.6423 Y2.0202  
G01 X-1.6429 Y2.0205  
G01 X-1.6451 Y2.0209  
G01 X-1.6472 Y2.0215  
G01 X-1.6478 Y2.0215  
G01 X-1.6485 Y2.0216  
G01 X-1.6506 Y2.0215  
G01 X-1.6510 Y2.0215  
G01 X-1.6539 Y2.0245  
G01 X-1.6591 Y2.0279  
G01 X-1.6648 Y2.0303  
G01 X-1.6709 Y2.0315  
G01 X-1.7291 Y2.0315  
G01 X-1.7352 Y2.0303  
G01 X-1.7409 Y2.0279  
G01 X-1.7461 Y2.0245  
G01 X-1.7505 Y2.0201  
G01 X-1.7539 Y2.0149  
G01 X-1.7563 Y2.0092  
G01 X-1.7575 Y2.0031  
G01 X-1.7575 Y1.9969  
G01 X-1.7563 Y1.9908  
G01 X-1.7539 Y1.9851  
G01 X-1.7505 Y1.9799  
G01 X-1.7461 Y1.9755  
G01 X-1.7409 Y1.9721  
G01 X-1.7352 Y1.9697  
G01 X-1.7291 Y1.9685  
G01 X-1.6709 Y1.9685  
G01 X-1.6648 Y1.9697  
G01 X-1.6591 Y1.9721  
G01 X-1.6539 Y1.9755  
G01 X-1.6523 Y1.9771  
G01 X-1.5602 Y1.9311  
G01 X-1.5588 Y1.9303  
G01 X-1.5570 Y1.9276  
G01 X-1.5521 Y1.9227  
G01 X-1.5464 Y1.9188  
G01 X-1.5399 Y1.9162  
G01 X-1.5332 Y1.9148  
G01 X-1.4668 Y1.9148  
G01 X-1.4601 Y1.9162  
G01 X-1.4536 Y1.9188  
G01 X-1.4479 Y1.9227  
G01 X-1.4430 Y1.9276  
G00 Z0.0500  
G00 X-1.4479 Y1.8773  
G01 Z-0.0035 F10    
G01 X-1.4536 Y1.8812  F20    
G01 X-1.4601 Y1.8838  
G01 X-1.4668 Y1.8852  
G01 X-1.5332 Y1.8852  
G01 X-1.5399 Y1.8838  
G01 X-1.5464 Y1.8812  
G01 X-1.5521 Y1.8773  
G01 X-1.5570 Y1.8724  
G01 X-1.5576 Y1.8715  
G01 X-1.5988 Y1.8715  
G01 X-1.6004 Y1.8717  
G01 X-1.6016 Y1.8715  
G01 X-1.6028 Y1.8715  
G01 X-1.6044 Y1.8711  
G01 X-1.6060 Y1.8708  
G01 X-1.6071 Y1.8703  
G01 X-1.6083 Y1.8700  
G01 X-1.6097 Y1.8692  
G01 X-1.6112 Y1.8686  
G01 X-1.6122 Y1.8678  
G01 X-1.6132 Y1.8672  
G01 X-1.6144 Y1.8660  
G01 X-1.6575 Y1.8315  
G01 X-1.9428 Y1.8315  
G01 X-2.1858 Y2.0162  
G01 X-2.1868 Y2.0172  
G01 X-2.1881 Y2.0179  
G01 X-2.1892 Y2.0188  
G01 X-2.1905 Y2.0193  
G01 X-2.1917 Y2.0200  
G01 X-2.1931 Y2.0204  
G01 X-2.1945 Y2.0210  
G01 X-2.1958 Y2.0211  
G01 X-2.1972 Y2.0215  
G01 X-2.1986 Y2.0215  
G01 X-2.2001 Y2.0217  
G01 X-2.2015 Y2.0215  
G01 X-2.2510 Y2.0215  
G01 X-2.2539 Y2.0245  
G01 X-2.2591 Y2.0279  
G01 X-2.2648 Y2.0303  
G01 X-2.2709 Y2.0315  
G01 X-2.3291 Y2.0315  
G01 X-2.3352 Y2.0303  
G01 X-2.3409 Y2.0279  
G01 X-2.3461 Y2.0245  
G01 X-2.3505 Y2.0201  
G01 X-2.3539 Y2.0149  
G01 X-2.3563 Y2.0092  
G01 X-2.3575 Y2.0031  
G01 X-2.3575 Y1.9969  
G01 X-2.3563 Y1.9908  
G01 X-2.3539 Y1.9851  
G01 X-2.3505 Y1.9799  
G01 X-2.3461 Y1.9755  
G01 X-2.3409 Y1.9721  
G01 X-2.3352 Y1.9697  
G01 X-2.3291 Y1.9685  
G01 X-2.2709 Y1.9685  
G01 X-2.2648 Y1.9697  
G01 X-2.2591 Y1.9721  
G01 X-2.2539 Y1.9755  
G01 X-2.2510 Y1.9785  
G01 X-2.2072 Y1.9785  
G01 X-1.9642 Y1.7938  
G01 X-1.9632 Y1.7928  
G01 X-1.9619 Y1.7921  
G01 X-1.9608 Y1.7912  
G01 X-1.9595 Y1.7907  
G01 X-1.9583 Y1.7900  
G01 X-1.9569 Y1.7896  
G01 X-1.9555 Y1.7890  
G01 X-1.9542 Y1.7889  
G01 X-1.9528 Y1.7885  
G01 X-1.9514 Y1.7885  
G01 X-1.9499 Y1.7883  
G01 X-1.9485 Y1.7885  
G01 X-1.6512 Y1.7885  
G01 X-1.6496 Y1.7883  
G01 X-1.6484 Y1.7885  
G01 X-1.6472 Y1.7885  
G01 X-1.6456 Y1.7889  
G01 X-1.6440 Y1.7892  
G01 X-1.6429 Y1.7897  
G01 X-1.6417 Y1.7900  
G01 X-1.6403 Y1.7908  
G01 X-1.6388 Y1.7914  
G01 X-1.6378 Y1.7922  
G01 X-1.6368 Y1.7928  
G01 X-1.6356 Y1.7940  
G01 X-1.5925 Y1.8285  
G01 X-1.5576 Y1.8285  
G01 X-1.5570 Y1.8276  
G01 X-1.5521 Y1.8227  
G01 X-1.5464 Y1.8188  
G01 X-1.5399 Y1.8162  
G01 X-1.5332 Y1.8148  
G01 X-1.4668 Y1.8148  
G01 X-1.4601 Y1.8162  
G01 X-1.4536 Y1.8188  
G01 X-1.4479 Y1.8227  
G01 X-1.4430 Y1.8276  
G01 X-1.4391 Y1.8333  
G01 X-1.4365 Y1.8397  
G01 X-1.4351 Y1.8465  
G01 X-1.4351 Y1.8535  
G01 X-1.4365 Y1.8603  
G01 X-1.4391 Y1.8667  
G01 X-1.4430 Y1.8724  
G01 X-1.4479 Y1.8773  
G00 Z0.0500  
G00 X-1.4479 Y1.7773  
G01 Z-0.0035 F10    
G01 X-1.4536 Y1.7812  F20    
G01 X-1.4601 Y1.7838  
G01 X-1.4668 Y1.7852  
G01 X-1.5332 Y1.7852  
G01 X-1.5399 Y1.7838  
G01 X-1.5464 Y1.7812  
G01 X-1.5521 Y1.7773  
G01 X-1.5570 Y1.7724  
G01 X-1.5576 Y1.7715  
G01 X-2.0928 Y1.7715  
G01 X-2.2457 Y1.8861  
G01 X-2.2437 Y1.8908  
G01 X-2.2425 Y1.8969  
G01 X-2.2425 Y1.9031  
G01 X-2.2437 Y1.9092  
G01 X-2.2461 Y1.9149  
G01 X-2.2495 Y1.9201  
G01 X-2.2539 Y1.9245  
G01 X-2.2591 Y1.9279  
G01 X-2.2648 Y1.9303  
G01 X-2.2709 Y1.9315  
G01 X-2.3291 Y1.9315  
G01 X-2.3352 Y1.9303  
G01 X-2.3409 Y1.9279  
G01 X-2.3461 Y1.9245  
G01 X-2.3505 Y1.9201  
G01 X-2.3539 Y1.9149  
G01 X-2.3563 Y1.9092  
G01 X-2.3575 Y1.9031  
G01 X-2.3575 Y1.8969  
G01 X-2.3563 Y1.8908  
G01 X-2.3539 Y1.8851  
G01 X-2.3505 Y1.8799  
G01 X-2.3461 Y1.8755  
G01 X-2.3409 Y1.8721  
G01 X-2.3352 Y1.8697  
G01 X-2.3291 Y1.8685  
G01 X-2.2938 Y1.8685  
G01 X-2.1141 Y1.7337  
G01 X-2.1132 Y1.7328  
G01 X-2.1119 Y1.7320  
G01 X-2.1106 Y1.7311  
G01 X-2.1094 Y1.7306  
G01 X-2.1083 Y1.7300  
G01 X-2.1068 Y1.7296  
G01 X-2.1054 Y1.7290  
G01 X-2.1041 Y1.7288  
G01 X-2.1028 Y1.7285  
G01 X-2.1013 Y1.7285  
G01 X-2.0998 Y1.7283  
G01 X-2.0985 Y1.7285  
G01 X-1.5576 Y1.7285  
G01 X-1.5570 Y1.7276  
G01 X-1.5521 Y1.7227  
G01 X-1.5464 Y1.7188  
G01 X-1.5399 Y1.7162  
G01 X-1.5332 Y1.7148  
G01 X-1.4668 Y1.7148  
G01 X-1.4601 Y1.7162  
G01 X-1.4536 Y1.7188  
G01 X-1.4479 Y1.7227  
G01 X-1.4430 Y1.7276  
G01 X-1.4391 Y1.7333  
G01 X-1.4365 Y1.7397  
G01 X-1.4351 Y1.7465  
G01 X-1.4351 Y1.7535  
G01 X-1.4365 Y1.7603  
G01 X-1.4391 Y1.7667  
G01 X-1.4430 Y1.7724  
G01 X-1.4479 Y1.7773  
G00 Z0.0500  
G00 X-1.3989 Y1.6815  
G01 Z-0.0035 F10    
G01 X-1.6928 Y1.6815  F20    
G01 X-1.6983 Y1.6800  
G01 X-1.7032 Y1.6772  
G01 X-1.8132 Y1.5672  
G01 X-1.8172 Y1.5632  
G01 X-1.8200 Y1.5583  
G01 X-1.8215 Y1.5528  
G01 X-1.8215 Y1.4990  
G01 X-1.8245 Y1.4961  
G01 X-1.8279 Y1.4909  
G01 X-1.8303 Y1.4852  
G01 X-1.8315 Y1.4791  
G01 X-1.8315 Y1.4209  
G01 X-1.8303 Y1.4148  
G01 X-1.8279 Y1.4091  
G01 X-1.8245 Y1.4039  
G01 X-1.8201 Y1.3995  
G01 X-1.8149 Y1.3961  
G01 X-1.8092 Y1.3937  
G01 X-1.8031 Y1.3925  
G01 X-1.7969 Y1.3925  
G01 X-1.7908 Y1.3937  
G01 X-1.7851 Y1.3961  
G01 X-1.7799 Y1.3995  
G01 X-1.7755 Y1.4039  
G01 X-1.7721 Y1.4091  
G01 X-1.7697 Y1.4148  
G01 X-1.7685 Y1.4209  
G01 X-1.7685 Y1.4791  
G01 X-1.7697 Y1.4852  
G01 X-1.7721 Y1.4909  
G01 X-1.7755 Y1.4961  
G01 X-1.7785 Y1.4990  
G01 X-1.7785 Y1.5411  
G01 X-1.6811 Y1.6385  
G01 X-1.3872 Y1.6385  
G01 X-1.3817 Y1.6400  
G01 X-1.3768 Y1.6428  
G01 X-1.3728 Y1.6468  
G01 X-1.3328 Y1.6868  
G01 X-1.3300 Y1.6917  
G01 X-1.3285 Y1.6972  
G01 X-1.3285 Y2.9228  
G01 X-1.3300 Y2.9283  
G01 X-1.3328 Y2.9332  
G01 X-1.3368 Y2.9372  
G01 X-1.3868 Y2.9872  
G01 X-1.3917 Y2.9900  
G01 X-1.3972 Y2.9915  
G01 X-1.5811 Y2.9915  
G01 X-1.6068 Y3.0172  
G01 X-1.6117 Y3.0200  
G01 X-1.6172 Y3.0215  
G01 X-1.6510 Y3.0215  
G01 X-1.6539 Y3.0245  
G01 X-1.6591 Y3.0279  
G01 X-1.6648 Y3.0303  
G01 X-1.6709 Y3.0315  
G01 X-1.7291 Y3.0315  
G01 X-1.7352 Y3.0303  
G01 X-1.7409 Y3.0279  
G01 X-1.7461 Y3.0245  
G01 X-1.7505 Y3.0201  
G01 X-1.7539 Y3.0149  
G01 X-1.7563 Y3.0092  
G01 X-1.7575 Y3.0031  
G01 X-1.7575 Y2.9969  
G01 X-1.7563 Y2.9908  
G01 X-1.7539 Y2.9851  
G01 X-1.7505 Y2.9799  
G01 X-1.7461 Y2.9755  
G01 X-1.7409 Y2.9721  
G01 X-1.7352 Y2.9697  
G01 X-1.7291 Y2.9685  
G01 X-1.6709 Y2.9685  
G01 X-1.6648 Y2.9697  
G01 X-1.6591 Y2.9721  
G01 X-1.6539 Y2.9755  
G01 X-1.6510 Y2.9785  
G01 X-1.6289 Y2.9785  
G01 X-1.6072 Y2.9568  
G01 X-1.6032 Y2.9528  
G01 X-1.5983 Y2.9500  
G01 X-1.5928 Y2.9485  
G01 X-1.4089 Y2.9485  
G01 X-1.3715 Y2.9111  
G01 X-1.3715 Y1.7089  
G01 X-1.3989 Y1.6815  
G00 Z0.0500  
G00 X-1.5799 Y1.5005  
G01 Z-0.0035 F10    
G01 X-1.5851 Y1.5039  F20    
G01 X-1.5908 Y1.5063  
G01 X-1.5969 Y1.5075  
G01 X-1.6031 Y1.5075  
G01 X-1.6092 Y1.5063  
G01 X-1.6149 Y1.5039  
G01 X-1.6201 Y1.5005  
G01 X-1.6245 Y1.4961  
G01 X-1.6279 Y1.4909  
G01 X-1.6303 Y1.4852  
G01 X-1.6315 Y1.4791  
G01 X-1.6315 Y1.4209  
G01 X-1.6303 Y1.4148  
G01 X-1.6279 Y1.4091  
G01 X-1.6245 Y1.4039  
G01 X-1.6201 Y1.3995  
G01 X-1.6149 Y1.3961  
G01 X-1.6092 Y1.3937  
G01 X-1.6031 Y1.3925  
G01 X-1.5969 Y1.3925  
G01 X-1.5908 Y1.3937  
G01 X-1.5851 Y1.3961  
G01 X-1.5799 Y1.3995  
G01 X-1.5755 Y1.4039  
G01 X-1.5721 Y1.4091  
G01 X-1.5697 Y1.4148  
G01 X-1.5685 Y1.4209  
G01 X-1.5685 Y1.4791  
G01 X-1.5697 Y1.4852  
G01 X-1.5721 Y1.4909  
G01 X-1.5755 Y1.4961  
G01 X-1.5799 Y1.5005  
G00 Z0.0500  
G00 X-1.8785 Y1.4990  
G01 Z-0.0035 F10    
G01 X-1.8785 Y1.6328  F20    
G01 X-1.8800 Y1.6383  
G01 X-1.8828 Y1.6432  
G01 X-1.8868 Y1.6472  
G01 X-1.9368 Y1.6972  
G01 X-1.9417 Y1.7000  
G01 X-1.9472 Y1.7015  
G01 X-2.5211 Y1.7015  
G01 X-2.6285 Y1.8089  
G01 X-2.6285 Y2.9528  
G01 X-2.6300 Y2.9583  
G01 X-2.6328 Y2.9632  
G01 X-2.6368 Y2.9672  
G01 X-2.6868 Y3.0172  
G01 X-2.6917 Y3.0200  
G01 X-2.6972 Y3.0215  
G01 X-2.9510 Y3.0215  
G01 X-2.9539 Y3.0245  
G01 X-2.9591 Y3.0279  
G01 X-2.9648 Y3.0303  
G01 X-2.9709 Y3.0315  
G01 X-3.0291 Y3.0315  
G01 X-3.0352 Y3.0303  
G01 X-3.0409 Y3.0279  
G01 X-3.0461 Y3.0245  
G01 X-3.0505 Y3.0201  
G01 X-3.0539 Y3.0149  
G01 X-3.0563 Y3.0092  
G01 X-3.0575 Y3.0031  
G01 X-3.0575 Y2.9969  
G01 X-3.0563 Y2.9908  
G01 X-3.0539 Y2.9851  
G01 X-3.0505 Y2.9799  
G01 X-3.0461 Y2.9755  
G01 X-3.0409 Y2.9721  
G01 X-3.0352 Y2.9697  
G01 X-3.0291 Y2.9685  
G01 X-2.9709 Y2.9685  
G01 X-2.9648 Y2.9697  
G01 X-2.9591 Y2.9721  
G01 X-2.9539 Y2.9755  
G01 X-2.9510 Y2.9785  
G01 X-2.7089 Y2.9785  
G01 X-2.6715 Y2.9411  
G01 X-2.6715 Y1.7972  
G01 X-2.6700 Y1.7917  
G01 X-2.6672 Y1.7868  
G01 X-2.5472 Y1.6668  
G01 X-2.5432 Y1.6628  
G01 X-2.5383 Y1.6600  
G01 X-2.5328 Y1.6585  
G01 X-1.9589 Y1.6585  
G01 X-1.9215 Y1.6211  
G01 X-1.9215 Y1.4990  
G01 X-1.9245 Y1.4961  
G01 X-1.9279 Y1.4909  
G01 X-1.9303 Y1.4852  
G01 X-1.9315 Y1.4791  
G01 X-1.9315 Y1.4209  
G01 X-1.9303 Y1.4148  
G01 X-1.9279 Y1.4091  
G01 X-1.9245 Y1.4039  
G01 X-1.9201 Y1.3995  
G01 X-1.9149 Y1.3961  
G01 X-1.9092 Y1.3937  
G01 X-1.9031 Y1.3925  
G01 X-1.8969 Y1.3925  
G01 X-1.8908 Y1.3937  
G01 X-1.8851 Y1.3961  
G01 X-1.8799 Y1.3995  
G01 X-1.8755 Y1.4039  
G01 X-1.8721 Y1.4091  
G01 X-1.8697 Y1.4148  
G01 X-1.8685 Y1.4209  
G01 X-1.8685 Y1.4791  
G01 X-1.8697 Y1.4852  
G01 X-1.8721 Y1.4909  
G01 X-1.8755 Y1.4961  
G01 X-1.8785 Y1.4990  
G00 Z0.0500  
G00 X-1.9745 Y1.4945  
G01 Z-0.0035 F10    
G01 X-1.9745 Y1.5710  F20    
G01 X-1.9731 Y1.5716  
G01 X-1.9716 Y1.5731  
G01 X-1.9708 Y1.5752  
G01 X-1.9708 Y1.6248  
G01 X-1.9716 Y1.6269  
G01 X-1.9731 Y1.6284  
G01 X-1.9752 Y1.6292  
G01 X-2.0248 Y1.6292  
G01 X-2.0269 Y1.6284  
G01 X-2.0284 Y1.6269  
G01 X-2.0290 Y1.6255  
G01 X-2.4710 Y1.6255  
G01 X-2.4716 Y1.6269  
G01 X-2.4731 Y1.6284  
G01 X-2.4752 Y1.6292  
G01 X-2.5248 Y1.6292  
G01 X-2.5269 Y1.6284  
G01 X-2.5284 Y1.6269  
G01 X-2.5290 Y1.6255  
G01 X-3.4894 Y1.6255  
G01 X-3.6745 Y1.8106  
G01 X-3.6745 Y2.0394  
G01 X-3.6415 Y2.0725  
G01 X-3.6409 Y2.0721  
G01 X-3.6352 Y2.0697  
G01 X-3.6291 Y2.0685  
G01 X-3.5709 Y2.0685  
G01 X-3.5648 Y2.0697  
G01 X-3.5591 Y2.0721  
G01 X-3.5555 Y2.0745  
G01 X-3.5089 Y2.0745  
G01 X-3.2670 Y1.8810  
G01 X-3.2663 Y1.8802  
G01 X-3.2651 Y1.8794  
G01 X-3.2640 Y1.8785  
G01 X-3.2630 Y1.8780  
G01 X-3.2621 Y1.8774  
G01 X-3.2608 Y1.8769  
G01 X-3.2595 Y1.8762  
G01 X-3.2585 Y1.8759  
G01 X-3.2574 Y1.8755  
G01 X-3.2560 Y1.8752  
G01 X-3.2547 Y1.8748  
G01 X-3.2536 Y1.8747  
G01 X-3.2525 Y1.8745  
G01 X-3.2511 Y1.8745  
G01 X-3.2497 Y1.8744  
G01 X-3.2486 Y1.8745  
G01 X-3.0445 Y1.8745  
G01 X-3.0409 Y1.8721  
G01 X-3.0352 Y1.8697  
G01 X-3.0291 Y1.8685  
G01 X-2.9709 Y1.8685  
G01 X-2.9648 Y1.8697  
G01 X-2.9591 Y1.8721  
G01 X-2.9539 Y1.8755  
G01 X-2.9495 Y1.8799  
G01 X-2.9461 Y1.8851  
G01 X-2.9437 Y1.8908  
G01 X-2.9425 Y1.8969  
G01 X-2.9425 Y1.9031  
G01 X-2.9437 Y1.9092  
G01 X-2.9461 Y1.9149  
G01 X-2.9495 Y1.9201  
G01 X-2.9539 Y1.9245  
G01 X-2.9591 Y1.9279  
G01 X-2.9648 Y1.9303  
G01 X-2.9709 Y1.9315  
G01 X-3.0291 Y1.9315  
G01 X-3.0352 Y1.9303  
G01 X-3.0409 Y1.9279  
G01 X-3.0445 Y1.9255  
G01 X-3.2411 Y1.9255  
G01 X-3.4830 Y2.1190  
G01 X-3.4837 Y2.1198  
G01 X-3.4849 Y2.1206  
G01 X-3.4860 Y2.1215  
G01 X-3.4870 Y2.1220  
G01 X-3.4879 Y2.1226  
G01 X-3.4892 Y2.1231  
G01 X-3.4905 Y2.1238  
G01 X-3.4915 Y2.1241  
G01 X-3.4926 Y2.1245  
G01 X-3.4940 Y2.1248  
G01 X-3.4953 Y2.1252  
G01 X-3.4964 Y2.1253  
G01 X-3.4975 Y2.1255  
G01 X-3.4989 Y2.1255  
G01 X-3.5003 Y2.1256  
G01 X-3.5014 Y2.1255  
G01 X-3.5555 Y2.1255  
G01 X-3.5591 Y2.1279  
G01 X-3.5648 Y2.1303  
G01 X-3.5709 Y2.1315  
G01 X-3.6291 Y2.1315  
G01 X-3.6352 Y2.1303  
G01 X-3.6409 Y2.1279  
G01 X-3.6452 Y2.1250  
G01 X-3.6475 Y2.1255  
G01 X-3.6525 Y2.1255  
G01 X-3.6574 Y2.1245  
G01 X-3.6621 Y2.1226  
G01 X-3.6663 Y2.1198  
G01 X-3.7163 Y2.0698  
G01 X-3.7198 Y2.0663  
G01 X-3.7226 Y2.0621  
G01 X-3.7245 Y2.0574  
G01 X-3.7255 Y2.0525  
G01 X-3.7255 Y1.7975  
G01 X-3.7245 Y1.7926  
G01 X-3.7226 Y1.7879  
G01 X-3.7198 Y1.7837  
G01 X-3.5337 Y1.5976  
G01 X-3.8193 Y1.2167  
G01 X-3.8198 Y1.2163  
G01 X-3.8208 Y1.2147  
G01 X-3.8219 Y1.2133  
G01 X-3.8222 Y1.2127  
G01 X-3.8226 Y1.2121  
G01 X-3.8233 Y1.2104  
G01 X-3.8241 Y1.2088  
G01 X-3.8243 Y1.2081  
G01 X-3.8245 Y1.2074  
G01 X-3.8249 Y1.2057  
G01 X-3.8253 Y1.2039  
G01 X-3.8254 Y1.2032  
G01 X-3.8255 Y1.2025  
G01 X-3.8255 Y1.2007  
G01 X-3.8256 Y1.1989  
G01 X-3.8255 Y1.1982  
G01 X-3.8255 Y0.7365  
G01 X-3.8290 Y0.7339  
G01 X-3.8339 Y0.7290  
G01 X-3.8381 Y0.7233  
G01 X-3.8412 Y0.7171  
G01 X-3.8434 Y0.7104  
G01 X-3.8445 Y0.7035  
G01 X-3.8445 Y0.6965  
G01 X-3.8434 Y0.6896  
G01 X-3.8412 Y0.6829  
G01 X-3.8381 Y0.6767  
G01 X-3.8339 Y0.6710  
G01 X-3.8290 Y0.6661  
G01 X-3.8255 Y0.6635  
G01 X-3.8255 Y0.5365  
G01 X-3.8290 Y0.5339  
G01 X-3.8339 Y0.5290  
G01 X-3.8381 Y0.5233  
G01 X-3.8412 Y0.5171  
G01 X-3.8434 Y0.5104  
G01 X-3.8445 Y0.5035  
G01 X-3.8445 Y0.4965  
G01 X-3.8434 Y0.4896  
G01 X-3.8412 Y0.4829  
G01 X-3.8381 Y0.4767  
G01 X-3.8339 Y0.4710  
G01 X-3.8290 Y0.4661  
G01 X-3.8255 Y0.4635  
G01 X-3.8255 Y0.3975  
G01 X-3.8245 Y0.3926  
G01 X-3.8226 Y0.3879  
G01 X-3.8198 Y0.3837  
G01 X-3.6163 Y0.1802  
G01 X-3.6121 Y0.1774  
G01 X-3.6074 Y0.1755  
G01 X-3.6025 Y0.1745  
G01 X-3.3475 Y0.1745  
G01 X-3.3426 Y0.1755  
G01 X-3.3379 Y0.1774  
G01 X-3.3337 Y0.1802  
G01 X-3.2837 Y0.2302  
G01 X-3.2802 Y0.2337  
G01 X-3.2774 Y0.2379  
G01 X-3.2755 Y0.2426  
G01 X-3.2745 Y0.2475  
G01 X-3.2745 Y0.3626  
G01 X-3.2719 Y0.3652  
G01 X-3.1385 Y0.3259  
G01 X-3.1374 Y0.3255  
G01 X-3.1361 Y0.3252  
G01 X-3.1348 Y0.3248  
G01 X-3.1336 Y0.3247  
G01 X-3.1325 Y0.3245  
G01 X-3.1311 Y0.3245  
G01 X-3.1298 Y0.3244  
G01 X-3.1286 Y0.3245  
G01 X-3.1268 Y0.3245  
G01 X-3.1153 Y0.3130  
G01 X-3.0847 Y0.3130  
G01 X-3.0630 Y0.3347  
G01 X-3.0630 Y0.3653  
G01 X-3.0847 Y0.3870  
G01 X-3.1153 Y0.3870  
G01 X-3.1267 Y0.3756  
G01 X-3.2555 Y0.4135  
G01 X-3.2555 Y0.4184  
G01 X-3.2816 Y0.4445  
G01 X-3.3184 Y0.4445  
G01 X-3.3445 Y0.4184  
G01 X-3.3445 Y0.3816  
G01 X-3.3255 Y0.3626  
G01 X-3.3255 Y0.2606  
G01 X-3.3606 Y0.2255  
G01 X-3.5894 Y0.2255  
G01 X-3.7745 Y0.4106  
G01 X-3.7745 Y0.4635  
G01 X-3.7710 Y0.4661  
G01 X-3.7661 Y0.4710  
G01 X-3.7619 Y0.4767  
G01 X-3.7588 Y0.4829  
G01 X-3.7566 Y0.4896  
G01 X-3.7555 Y0.4965  
G01 X-3.7555 Y0.5035  
G01 X-3.7566 Y0.5104  
G01 X-3.7588 Y0.5171  
G01 X-3.7619 Y0.5233  
G01 X-3.7661 Y0.5290  
G01 X-3.7710 Y0.5339  
G01 X-3.7745 Y0.5365  
G01 X-3.7745 Y0.6635  
G01 X-3.7710 Y0.6661  
G01 X-3.7661 Y0.6710  
G01 X-3.7619 Y0.6767  
G01 X-3.7588 Y0.6829  
G01 X-3.7566 Y0.6896  
G01 X-3.7555 Y0.6965  
G01 X-3.7555 Y0.7035  
G01 X-3.7566 Y0.7104  
G01 X-3.7588 Y0.7171  
G01 X-3.7619 Y0.7233  
G01 X-3.7661 Y0.7290  
G01 X-3.7710 Y0.7339  
G01 X-3.7745 Y0.7365  
G01 X-3.7745 Y1.1915  
G01 X-3.4872 Y1.5745  
G01 X-2.5290 Y1.5745  
G01 X-2.5284 Y1.5731  
G01 X-2.5269 Y1.5716  
G01 X-2.5248 Y1.5708  
G01 X-2.4752 Y1.5708  
G01 X-2.4731 Y1.5716  
G01 X-2.4716 Y1.5731  
G01 X-2.4710 Y1.5745  
G01 X-2.0290 Y1.5745  
G01 X-2.0284 Y1.5731  
G01 X-2.0269 Y1.5716  
G01 X-2.0255 Y1.5710  
G01 X-2.0255 Y1.4945  
G01 X-2.0279 Y1.4909  
G01 X-2.0303 Y1.4852  
G01 X-2.0315 Y1.4791  
G01 X-2.0315 Y1.4209  
G01 X-2.0303 Y1.4148  
G01 X-2.0279 Y1.4091  
G01 X-2.0255 Y1.4055  
G01 X-2.0255 Y1.3906  
G01 X-2.1198 Y1.2963  
G01 X-2.1226 Y1.2921  
G01 X-2.1245 Y1.2874  
G01 X-2.1255 Y1.2825  
G01 X-2.1255 Y1.1945  
G01 X-2.1279 Y1.1909  
G01 X-2.1303 Y1.1852  
G01 X-2.1315 Y1.1791  
G01 X-2.1315 Y1.1209  
G01 X-2.1303 Y1.1148  
G01 X-2.1279 Y1.1091  
G01 X-2.1250 Y1.1048  
G01 X-2.1255 Y1.1025  
G01 X-2.1255 Y1.0290  
G01 X-2.1315 Y1.0230  
G01 X-2.1315 Y0.9970  
G01 X-2.1255 Y0.9910  
G01 X-2.1255 Y0.7406  
G01 X-2.1623 Y0.7038  
G01 X-2.1940 Y0.6985  
G01 X-2.1970 Y0.7015  
G01 X-2.2230 Y0.7015  
G01 X-2.2415 Y0.6830  
G01 X-2.2415 Y0.6570  
G01 X-2.2355 Y0.6510  
G01 X-2.2355 Y0.6506  
G01 X-2.2663 Y0.6198  
G01 X-2.2698 Y0.6163  
G01 X-2.2726 Y0.6121  
G01 X-2.2745 Y0.6074  
G01 X-2.2755 Y0.6025  
G01 X-2.2755 Y0.4539  
G01 X-2.2773 Y0.4521  
G01 X-2.2812 Y0.4464  
G01 X-2.2838 Y0.4399  
G01 X-2.2852 Y0.4332  
G01 X-2.2852 Y0.4009  
G01 X-2.3106 Y0.3755  
G01 X-2.4210 Y0.3755  
G01 X-2.4216 Y0.3769  
G01 X-2.4231 Y0.3784  
G01 X-2.4252 Y0.3792  
G01 X-2.4748 Y0.3792  
G01 X-2.4769 Y0.3784  
G01 X-2.4784 Y0.3769  
G01 X-2.4790 Y0.3755  
G01 X-2.6232 Y0.3755  
G01 X-2.6347 Y0.3870  
G01 X-2.6653 Y0.3870  
G01 X-2.6668 Y0.3855  
G01 X-2.7863 Y0.4163  
G01 X-2.7034 Y0.5614  
G01 X-2.6639 Y0.6185  
G01 X-2.6570 Y0.6185  
G01 X-2.6385 Y0.6370  
G01 X-2.6385 Y0.6630  
G01 X-2.6570 Y0.6815  
G01 X-2.6830 Y0.6815  
G01 X-2.7015 Y0.6630  
G01 X-2.7015 Y0.6537  
G01 X-2.7452 Y0.5907  
G01 X-2.7459 Y0.5898  
G01 X-2.7466 Y0.5886  
G01 X-2.7474 Y0.5874  
G01 X-2.7478 Y0.5864  
G01 X-2.8364 Y0.4315  
G01 X-2.8380 Y0.4315  
G01 X-2.8565 Y0.4130  
G01 X-2.8565 Y0.3870  
G01 X-2.8380 Y0.3685  
G01 X-2.8120 Y0.3685  
G01 X-2.8105 Y0.3699  
G01 X-2.6870 Y0.3381  
G01 X-2.6870 Y0.3347  
G01 X-2.6653 Y0.3130  
G01 X-2.6347 Y0.3130  
G01 X-2.6232 Y0.3245  
G01 X-2.4790 Y0.3245  
G01 X-2.4784 Y0.3231  
G01 X-2.4769 Y0.3216  
G01 X-2.4748 Y0.3208  
G01 X-2.4252 Y0.3208  
G01 X-2.4231 Y0.3216  
G01 X-2.4216 Y0.3231  
G01 X-2.4210 Y0.3245  
G01 X-2.2975 Y0.3245  
G01 X-2.2926 Y0.3255  
G01 X-2.2879 Y0.3274  
G01 X-2.2837 Y0.3302  
G01 X-2.2715 Y0.3424  
G01 X-2.2667 Y0.3391  
G01 X-2.2603 Y0.3365  
G01 X-2.2535 Y0.3351  
G01 X-2.2465 Y0.3351  
G01 X-2.2397 Y0.3365  
G01 X-2.2333 Y0.3391  
G01 X-2.2276 Y0.3430  
G01 X-2.2227 Y0.3479  
G01 X-2.2188 Y0.3536  
G01 X-2.2162 Y0.3601  
G01 X-2.2148 Y0.3668  
G01 X-2.2148 Y0.4332  
G01 X-2.2162 Y0.4399  
G01 X-2.2188 Y0.4464  
G01 X-2.2227 Y0.4521  
G01 X-2.2245 Y0.4539  
G01 X-2.2245 Y0.5894  
G01 X-2.1902 Y0.6237  
G01 X-2.1874 Y0.6279  
G01 X-2.1855 Y0.6326  
G01 X-2.1845 Y0.6375  
G01 X-2.1845 Y0.6484  
G01 X-2.1479 Y0.6545  
G01 X-2.1475 Y0.6545  
G01 X-2.1454 Y0.6549  
G01 X-2.1433 Y0.6553  
G01 X-2.1430 Y0.6554  
G01 X-2.1426 Y0.6555  
G01 X-2.1406 Y0.6563  
G01 X-2.1386 Y0.6570  
G01 X-2.1383 Y0.6572  
G01 X-2.1379 Y0.6574  
G01 X-2.1362 Y0.6586  
G01 X-2.1344 Y0.6597  
G01 X-2.1341 Y0.6600  
G01 X-2.1337 Y0.6602  
G01 X-2.1323 Y0.6617  
G01 X-2.1307 Y0.6631  
G01 X-2.1305 Y0.6635  
G01 X-2.0837 Y0.7102  
G01 X-2.0802 Y0.7137  
G01 X-2.0774 Y0.7179  
G01 X-2.0755 Y0.7226  
G01 X-2.0745 Y0.7275  
G01 X-2.0745 Y0.9910  
G01 X-2.0685 Y0.9970  
G01 X-2.0685 Y1.0230  
G01 X-2.0745 Y1.0290  
G01 X-2.0745 Y1.1025  
G01 X-2.0750 Y1.1048  
G01 X-2.0721 Y1.1091  
G01 X-2.0697 Y1.1148  
G01 X-2.0685 Y1.1209  
G01 X-2.0685 Y1.1791  
G01 X-2.0697 Y1.1852  
G01 X-2.0721 Y1.1909  
G01 X-2.0745 Y1.1945  
G01 X-2.0745 Y1.2694  
G01 X-1.9837 Y1.3602  
G01 X-1.9802 Y1.3637  
G01 X-1.9774 Y1.3679  
G01 X-1.9755 Y1.3726  
G01 X-1.9745 Y1.3775  
G01 X-1.9745 Y1.4055  
G01 X-1.9721 Y1.4091  
G01 X-1.9697 Y1.4148  
G01 X-1.9685 Y1.4209  
G01 X-1.9685 Y1.4791  
G01 X-1.9697 Y1.4852  
G01 X-1.9721 Y1.4909  
G01 X-1.9745 Y1.4945  
G00 Z0.0500  
G00 X-2.0721 Y1.4909  
G01 Z-0.0035 F10    
G01 X-2.0755 Y1.4961  F20    
G01 X-2.0799 Y1.5005  
G01 X-2.0851 Y1.5039  
G01 X-2.0908 Y1.5063  
G01 X-2.0969 Y1.5075  
G01 X-2.1031 Y1.5075  
G01 X-2.1092 Y1.5063  
G01 X-2.1149 Y1.5039  
G01 X-2.1201 Y1.5005  
G01 X-2.1245 Y1.4961  
G01 X-2.1279 Y1.4909  
G01 X-2.1303 Y1.4852  
G01 X-2.1315 Y1.4791  
G01 X-2.1315 Y1.4209  
G01 X-2.1303 Y1.4148  
G01 X-2.1279 Y1.4091  
G01 X-2.1245 Y1.4039  
G01 X-2.1201 Y1.3995  
G01 X-2.1149 Y1.3961  
G01 X-2.1092 Y1.3937  
G01 X-2.1031 Y1.3925  
G01 X-2.0969 Y1.3925  
G01 X-2.0908 Y1.3937  
G01 X-2.0851 Y1.3961  
G01 X-2.0799 Y1.3995  
G01 X-2.0755 Y1.4039  
G01 X-2.0721 Y1.4091  
G01 X-2.0697 Y1.4148  
G01 X-2.0685 Y1.4209  
G01 X-2.0685 Y1.4791  
G01 X-2.0697 Y1.4852  
G01 X-2.0721 Y1.4909  
G00 Z0.0500  
G00 X-2.1721 Y1.4909  
G01 Z-0.0035 F10    
G01 X-2.1755 Y1.4961  F20    
G01 X-2.1799 Y1.5005  
G01 X-2.1851 Y1.5039  
G01 X-2.1908 Y1.5063  
G01 X-2.1969 Y1.5075  
G01 X-2.2031 Y1.5075  
G01 X-2.2092 Y1.5063  
G01 X-2.2149 Y1.5039  
G01 X-2.2201 Y1.5005  
G01 X-2.2245 Y1.4961  
G01 X-2.2279 Y1.4909  
G01 X-2.2303 Y1.4852  
G01 X-2.2315 Y1.4791  
G01 X-2.2315 Y1.4209  
G01 X-2.2303 Y1.4148  
G01 X-2.2279 Y1.4091  
G01 X-2.2245 Y1.4039  
G01 X-2.2201 Y1.3995  
G01 X-2.2149 Y1.3961  
G01 X-2.2092 Y1.3937  
G01 X-2.2031 Y1.3925  
G01 X-2.1969 Y1.3925  
G01 X-2.1908 Y1.3937  
G01 X-2.1851 Y1.3961  
G01 X-2.1799 Y1.3995  
G01 X-2.1755 Y1.4039  
G01 X-2.1721 Y1.4091  
G01 X-2.1697 Y1.4148  
G01 X-2.1685 Y1.4209  
G01 X-2.1685 Y1.4791  
G01 X-2.1697 Y1.4852  
G01 X-2.1721 Y1.4909  
G00 Z0.0500  
G00 X-2.2721 Y1.4909  
G01 Z-0.0035 F10    
G01 X-2.2755 Y1.4961  F20    
G01 X-2.2799 Y1.5005  
G01 X-2.2851 Y1.5039  
G01 X-2.2908 Y1.5063  
G01 X-2.2969 Y1.5075  
G01 X-2.3031 Y1.5075  
G01 X-2.3092 Y1.5063  
G01 X-2.3149 Y1.5039  
G01 X-2.3201 Y1.5005  
G01 X-2.3245 Y1.4961  
G01 X-2.3279 Y1.4909  
G01 X-2.3303 Y1.4852  
G01 X-2.3315 Y1.4791  
G01 X-2.3315 Y1.4209  
G01 X-2.3303 Y1.4148  
G01 X-2.3279 Y1.4091  
G01 X-2.3245 Y1.4039  
G01 X-2.3201 Y1.3995  
G01 X-2.3149 Y1.3961  
G01 X-2.3092 Y1.3937  
G01 X-2.3031 Y1.3925  
G01 X-2.2969 Y1.3925  
G01 X-2.2908 Y1.3937  
G01 X-2.2851 Y1.3961  
G01 X-2.2799 Y1.3995  
G01 X-2.2755 Y1.4039  
G01 X-2.2721 Y1.4091  
G01 X-2.2697 Y1.4148  
G01 X-2.2685 Y1.4209  
G01 X-2.2685 Y1.4791  
G01 X-2.2697 Y1.4852  
G01 X-2.2721 Y1.4909  
G00 Z0.0500  
G00 X-2.3721 Y1.4909  
G01 Z-0.0035 F10    
G01 X-2.3755 Y1.4961  F20    
G01 X-2.3799 Y1.5005  
G01 X-2.3851 Y1.5039  
G01 X-2.3908 Y1.5063  
G01 X-2.3969 Y1.5075  
G01 X-2.4031 Y1.5075  
G01 X-2.4092 Y1.5063  
G01 X-2.4149 Y1.5039  
G01 X-2.4201 Y1.5005  
G01 X-2.4245 Y1.4961  
G01 X-2.4279 Y1.4909  
G01 X-2.4303 Y1.4852  
G01 X-2.4315 Y1.4791  
G01 X-2.4315 Y1.4209  
G01 X-2.4303 Y1.4148  
G01 X-2.4279 Y1.4091  
G01 X-2.4245 Y1.4039  
G01 X-2.4201 Y1.3995  
G01 X-2.4149 Y1.3961  
G01 X-2.4092 Y1.3937  
G01 X-2.4031 Y1.3925  
G01 X-2.3969 Y1.3925  
G01 X-2.3908 Y1.3937  
G01 X-2.3851 Y1.3961  
G01 X-2.3799 Y1.3995  
G01 X-2.3755 Y1.4039  
G01 X-2.3721 Y1.4091  
G01 X-2.3697 Y1.4148  
G01 X-2.3685 Y1.4209  
G01 X-2.3685 Y1.4791  
G01 X-2.3697 Y1.4852  
G01 X-2.3721 Y1.4909  
G00 Z0.0500  
G00 X-2.4721 Y1.4909  
G01 Z-0.0035 F10    
G01 X-2.4755 Y1.4961  F20    
G01 X-2.4799 Y1.5005  
G01 X-2.4851 Y1.5039  
G01 X-2.4908 Y1.5063  
G01 X-2.4969 Y1.5075  
G01 X-2.5031 Y1.5075  
G01 X-2.5092 Y1.5063  
G01 X-2.5149 Y1.5039  
G01 X-2.5201 Y1.5005  
G01 X-2.5245 Y1.4961  
G01 X-2.5279 Y1.4909  
G01 X-2.5303 Y1.4852  
G01 X-2.5315 Y1.4791  
G01 X-2.5315 Y1.4209  
G01 X-2.5303 Y1.4148  
G01 X-2.5279 Y1.4091  
G01 X-2.5245 Y1.4039  
G01 X-2.5215 Y1.4010  
G01 X-2.5215 Y1.3589  
G01 X-2.6089 Y1.2715  
G01 X-2.8528 Y1.2715  
G01 X-2.8583 Y1.2700  
G01 X-2.8632 Y1.2672  
G01 X-2.8672 Y1.2632  
G01 X-2.9510 Y1.1794  
G01 X-2.9536 Y1.1812  
G01 X-2.9601 Y1.1838  
G01 X-2.9668 Y1.1852  
G01 X-3.0332 Y1.1852  
G01 X-3.0399 Y1.1838  
G01 X-3.0464 Y1.1812  
G01 X-3.0521 Y1.1773  
G01 X-3.0570 Y1.1724  
G01 X-3.0609 Y1.1667  
G01 X-3.0635 Y1.1603  
G01 X-3.0649 Y1.1535  
G01 X-3.0649 Y1.1465  
G01 X-3.0635 Y1.1397  
G01 X-3.0609 Y1.1333  
G01 X-3.0570 Y1.1276  
G01 X-3.0521 Y1.1227  
G01 X-3.0464 Y1.1188  
G01 X-3.0399 Y1.1162  
G01 X-3.0332 Y1.1148  
G01 X-2.9668 Y1.1148  
G01 X-2.9601 Y1.1162  
G01 X-2.9536 Y1.1188  
G01 X-2.9479 Y1.1227  
G01 X-2.9430 Y1.1276  
G01 X-2.9412 Y1.1303  
G01 X-2.9368 Y1.1328  
G01 X-2.8411 Y1.2285  
G01 X-2.5972 Y1.2285  
G01 X-2.5917 Y1.2300  
G01 X-2.5868 Y1.2328  
G01 X-2.4868 Y1.3328  
G01 X-2.4828 Y1.3368  
G01 X-2.4800 Y1.3417  
G01 X-2.4785 Y1.3472  
G01 X-2.4785 Y1.4010  
G01 X-2.4755 Y1.4039  
G01 X-2.4721 Y1.4091  
G01 X-2.4697 Y1.4148  
G01 X-2.4685 Y1.4209  
G01 X-2.4685 Y1.4791  
G01 X-2.4697 Y1.4852  
G01 X-2.4721 Y1.4909  
G00 Z0.0500  
G00 X-2.5721 Y1.4909  
G01 Z-0.0035 F10    
G01 X-2.5755 Y1.4961  F20    
G01 X-2.5799 Y1.5005  
G01 X-2.5851 Y1.5039  
G01 X-2.5908 Y1.5063  
G01 X-2.5969 Y1.5075  
G01 X-2.6031 Y1.5075  
G01 X-2.6092 Y1.5063  
G01 X-2.6149 Y1.5039  
G01 X-2.6201 Y1.5005  
G01 X-2.6245 Y1.4961  
G01 X-2.6279 Y1.4909  
G01 X-2.6303 Y1.4852  
G01 X-2.6315 Y1.4791  
G01 X-2.6315 Y1.4209  
G01 X-2.6303 Y1.4148  
G01 X-2.6279 Y1.4091  
G01 X-2.6253 Y1.4051  
G01 X-2.6589 Y1.3715  
G01 X-2.8528 Y1.3715  
G01 X-2.8583 Y1.3700  
G01 X-2.8632 Y1.3672  
G01 X-2.9510 Y1.2794  
G01 X-2.9536 Y1.2812  
G01 X-2.9601 Y1.2838  
G01 X-2.9668 Y1.2852  
G01 X-3.0332 Y1.2852  
G01 X-3.0399 Y1.2838  
G01 X-3.0464 Y1.2812  
G01 X-3.0521 Y1.2773  
G01 X-3.0570 Y1.2724  
G01 X-3.0609 Y1.2667  
G01 X-3.0635 Y1.2603  
G01 X-3.0649 Y1.2535  
G01 X-3.0649 Y1.2465  
G01 X-3.0635 Y1.2397  
G01 X-3.0609 Y1.2333  
G01 X-3.0570 Y1.2276  
G01 X-3.0521 Y1.2227  
G01 X-3.0464 Y1.2188  
G01 X-3.0399 Y1.2162  
G01 X-3.0332 Y1.2148  
G01 X-2.9668 Y1.2148  
G01 X-2.9601 Y1.2162  
G01 X-2.9536 Y1.2188  
G01 X-2.9479 Y1.2227  
G01 X-2.9430 Y1.2276  
G01 X-2.9412 Y1.2303  
G01 X-2.9368 Y1.2328  
G01 X-2.9328 Y1.2368  
G01 X-2.8411 Y1.3285  
G01 X-2.6472 Y1.3285  
G01 X-2.6417 Y1.3300  
G01 X-2.6368 Y1.3328  
G01 X-2.6328 Y1.3368  
G01 X-2.5828 Y1.3868  
G01 X-2.5800 Y1.3917  
G01 X-2.5785 Y1.3972  
G01 X-2.5785 Y1.4010  
G01 X-2.5755 Y1.4039  
G01 X-2.5721 Y1.4091  
G01 X-2.5697 Y1.4148  
G01 X-2.5685 Y1.4209  
G01 X-2.5685 Y1.4791  
G01 X-2.5697 Y1.4852  
G01 X-2.5721 Y1.4909  
G00 Z0.0500  
G00 X-2.6721 Y1.4909  
G01 Z-0.0035 F10    
G01 X-2.6755 Y1.4961  F20    
G01 X-2.6799 Y1.5005  
G01 X-2.6851 Y1.5039  
G01 X-2.6908 Y1.5063  
G01 X-2.6969 Y1.5075  
G01 X-2.7031 Y1.5075  
G01 X-2.7092 Y1.5063  
G01 X-2.7149 Y1.5039  
G01 X-2.7201 Y1.5005  
G01 X-2.7245 Y1.4961  
G01 X-2.7279 Y1.4909  
G01 X-2.7303 Y1.4852  
G01 X-2.7315 Y1.4791  
G01 X-2.7315 Y1.4715  
G01 X-2.8528 Y1.4715  
G01 X-2.8583 Y1.4700  
G01 X-2.8632 Y1.4672  
G01 X-2.9510 Y1.3794  
G01 X-2.9536 Y1.3812  
G01 X-2.9601 Y1.3838  
G01 X-2.9668 Y1.3852  
G01 X-3.0332 Y1.3852  
G01 X-3.0399 Y1.3838  
G01 X-3.0464 Y1.3812  
G01 X-3.0521 Y1.3773  
G01 X-3.0570 Y1.3724  
G01 X-3.0609 Y1.3667  
G01 X-3.0635 Y1.3603  
G01 X-3.0649 Y1.3535  
G01 X-3.0649 Y1.3465  
G01 X-3.0635 Y1.3397  
G01 X-3.0609 Y1.3333  
G01 X-3.0570 Y1.3276  
G01 X-3.0521 Y1.3227  
G01 X-3.0464 Y1.3188  
G01 X-3.0399 Y1.3162  
G01 X-3.0332 Y1.3148  
G01 X-2.9668 Y1.3148  
G01 X-2.9601 Y1.3162  
G01 X-2.9536 Y1.3188  
G01 X-2.9479 Y1.3227  
G01 X-2.9430 Y1.3276  
G01 X-2.9412 Y1.3303  
G01 X-2.9368 Y1.3328  
G01 X-2.9328 Y1.3368  
G01 X-2.8411 Y1.4285  
G01 X-2.7315 Y1.4285  
G01 X-2.7315 Y1.4209  
G01 X-2.7303 Y1.4148  
G01 X-2.7279 Y1.4091  
G01 X-2.7245 Y1.4039  
G01 X-2.7201 Y1.3995  
G01 X-2.7149 Y1.3961  
G01 X-2.7092 Y1.3937  
G01 X-2.7031 Y1.3925  
G01 X-2.6969 Y1.3925  
G01 X-2.6908 Y1.3937  
G01 X-2.6851 Y1.3961  
G01 X-2.6799 Y1.3995  
G01 X-2.6755 Y1.4039  
G01 X-2.6721 Y1.4091  
G01 X-2.6697 Y1.4148  
G01 X-2.6685 Y1.4209  
G01 X-2.6685 Y1.4791  
G01 X-2.6697 Y1.4852  
G01 X-2.6721 Y1.4909  
G00 Z0.0500  
G00 X-2.9479 Y1.4773  
G01 Z-0.0035 F10    
G01 X-2.9536 Y1.4812  F20    
G01 X-2.9601 Y1.4838  
G01 X-2.9668 Y1.4852  
G01 X-3.0332 Y1.4852  
G01 X-3.0399 Y1.4838  
G01 X-3.0464 Y1.4812  
G01 X-3.0521 Y1.4773  
G01 X-3.0570 Y1.4724  
G01 X-3.0588 Y1.4697  
G01 X-3.0632 Y1.4672  
G01 X-3.1132 Y1.4172  
G01 X-3.1172 Y1.4132  
G01 X-3.1200 Y1.4083  
G01 X-3.1215 Y1.4028  
G01 X-3.1215 Y1.1013  
G01 X-3.1217 Y1.0998  
G01 X-3.1215 Y1.0985  
G01 X-3.1215 Y1.0972  
G01 X-3.1211 Y1.0957  
G01 X-3.1209 Y1.0942  
G01 X-3.1204 Y1.0930  
G01 X-3.1200 Y1.0917  
G01 X-3.1193 Y1.0904  
G01 X-3.1187 Y1.0890  
G01 X-3.1179 Y1.0879  
G01 X-3.1172 Y1.0868  
G01 X-3.1161 Y1.0857  
G01 X-3.1152 Y1.0845  
G01 X-3.1141 Y1.0837  
G01 X-3.1132 Y1.0828  
G01 X-3.1119 Y1.0820  
G01 X-3.0741 Y1.0537  
G01 X-3.0732 Y1.0528  
G01 X-3.0719 Y1.0520  
G01 X-3.0706 Y1.0511  
G01 X-3.0694 Y1.0506  
G01 X-3.0683 Y1.0500  
G01 X-3.0668 Y1.0496  
G01 X-3.0654 Y1.0490  
G01 X-3.0641 Y1.0488  
G01 X-3.0628 Y1.0485  
G01 X-3.0613 Y1.0485  
G01 X-3.0598 Y1.0483  
G01 X-3.0585 Y1.0485  
G01 X-2.9406 Y1.0485  
G01 X-2.9384 Y1.0484  
G01 X-2.9378 Y1.0485  
G01 X-2.9372 Y1.0485  
G01 X-2.9350 Y1.0491  
G01 X-2.9329 Y1.0495  
G01 X-2.9323 Y1.0498  
G01 X-2.9317 Y1.0500  
G01 X-2.9298 Y1.0511  
G01 X-2.9278 Y1.0521  
G01 X-2.9274 Y1.0525  
G01 X-2.9268 Y1.0528  
G01 X-2.9252 Y1.0544  
G01 X-2.8418 Y1.1285  
G01 X-2.7315 Y1.1285  
G01 X-2.7315 Y1.1209  
G01 X-2.7303 Y1.1148  
G01 X-2.7279 Y1.1091  
G01 X-2.7245 Y1.1039  
G01 X-2.7201 Y1.0995  
G01 X-2.7149 Y1.0961  
G01 X-2.7092 Y1.0937  
G01 X-2.7031 Y1.0925  
G01 X-2.6969 Y1.0925  
G01 X-2.6908 Y1.0937  
G01 X-2.6851 Y1.0961  
G01 X-2.6799 Y1.0995  
G01 X-2.6755 Y1.1039  
G01 X-2.6721 Y1.1091  
G01 X-2.6697 Y1.1148  
G01 X-2.6685 Y1.1209  
G01 X-2.6685 Y1.1791  
G01 X-2.6697 Y1.1852  
G01 X-2.6721 Y1.1909  
G01 X-2.6755 Y1.1961  
G01 X-2.6799 Y1.2005  
G01 X-2.6851 Y1.2039  
G01 X-2.6908 Y1.2063  
G01 X-2.6969 Y1.2075  
G01 X-2.7031 Y1.2075  
G01 X-2.7092 Y1.2063  
G01 X-2.7149 Y1.2039  
G01 X-2.7201 Y1.2005  
G01 X-2.7245 Y1.1961  
G01 X-2.7279 Y1.1909  
G01 X-2.7303 Y1.1852  
G01 X-2.7315 Y1.1791  
G01 X-2.7315 Y1.1715  
G01 X-2.8494 Y1.1715  
G01 X-2.8516 Y1.1716  
G01 X-2.8522 Y1.1715  
G01 X-2.8528 Y1.1715  
G01 X-2.8550 Y1.1709  
G01 X-2.8571 Y1.1705  
G01 X-2.8577 Y1.1702  
G01 X-2.8583 Y1.1700  
G01 X-2.8602 Y1.1689  
G01 X-2.8622 Y1.1679  
G01 X-2.8626 Y1.1675  
G01 X-2.8632 Y1.1672  
G01 X-2.8648 Y1.1656  
G01 X-2.9482 Y1.0915  
G01 X-3.0528 Y1.0915  
G01 X-3.0785 Y1.1107  
G01 X-3.0785 Y1.3911  
G01 X-3.0490 Y1.4206  
G01 X-3.0464 Y1.4188  
G01 X-3.0399 Y1.4162  
G01 X-3.0332 Y1.4148  
G01 X-2.9668 Y1.4148  
G01 X-2.9601 Y1.4162  
G01 X-2.9536 Y1.4188  
G01 X-2.9479 Y1.4227  
G01 X-2.9430 Y1.4276  
G01 X-2.9391 Y1.4333  
G01 X-2.9365 Y1.4397  
G01 X-2.9351 Y1.4465  
G01 X-2.9351 Y1.4535  
G01 X-2.9365 Y1.4603  
G01 X-2.9391 Y1.4667  
G01 X-2.9430 Y1.4724  
G01 X-2.9479 Y1.4773  
G00 Z0.0500  
G00 X-2.8922 Y1.6985  
G01 Z-0.0035 F10    
G01 X-2.8915 Y1.6984  F20    
G01 X-2.8894 Y1.6985  
G01 X-2.8872 Y1.6985  
G01 X-2.8865 Y1.6987  
G01 X-2.8859 Y1.6987  
G01 X-2.8838 Y1.6994  
G01 X-2.8817 Y1.7000  
G01 X-2.8811 Y1.7003  
G01 X-2.8359 Y1.7154  
G01 X-2.8332 Y1.7148  
G01 X-2.7668 Y1.7148  
G01 X-2.7601 Y1.7162  
G01 X-2.7536 Y1.7188  
G01 X-2.7479 Y1.7227  
G01 X-2.7430 Y1.7276  
G01 X-2.7391 Y1.7333  
G01 X-2.7365 Y1.7397  
G01 X-2.7351 Y1.7465  
G01 X-2.7351 Y1.7535  
G01 X-2.7365 Y1.7603  
G01 X-2.7391 Y1.7667  
G01 X-2.7430 Y1.7724  
G01 X-2.7479 Y1.7773  
G01 X-2.7536 Y1.7812  
G01 X-2.7601 Y1.7838  
G01 X-2.7668 Y1.7852  
G01 X-2.8332 Y1.7852  
G01 X-2.8399 Y1.7838  
G01 X-2.8464 Y1.7812  
G01 X-2.8521 Y1.7773  
G01 X-2.8570 Y1.7724  
G01 X-2.8609 Y1.7667  
