(.../pcb-gcode-3.6.2.4/pcb-gcode.ulp)
(Copyright 2005 - 2012 by John Johnson)
(See readme.txt for licensing terms.)
(This file generated from the board:)
(.../atmega_midi_pg800/eagle/atmega_midi_pg800.brd)
(Current profile is .../pcb-gcode-3.6.2.4/profiles/mach.pp  )
(This file generated 11/17/16 11:02 PM)
(Settings from pcb-machine.h)
(spindle on time = 0.0000)
(spindle speed = 20000.0000)
(tool change at 0.0000  0.0000  1.5000  )
(feed rate xy = F0     )
(feed rate z  = F20    )
(Z Axis Settings)
(  High     Up        Down     Drill)
(0.2500  	0.0500  	-0.0035 	-0.0710 )
(Settings from pcb-defaults.h)
(isolate min = 0.0040)
(isolate max = 0.0200)
(isolate step = 0.0025)
(Generated bottom outlines, bottom drill, )
(Unit of measure: inch)
( Tool|       Size       |  Min Sub |  Max Sub |   Count )
( T01 | 0.800mm 0.0315in | 0.0000in | 0.0000in |       0 )
( T02 | 0.813mm 0.0320in | 0.0000in | 0.0000in |       0 )
( T03 | 0.900mm 0.0354in | 0.0000in | 0.0000in |       0 )
( T04 | 1.000mm 0.0394in | 0.0000in | 0.0000in |       0 )
( T05 | 1.321mm 0.0520in | 0.0000in | 0.0000in |       0 )
( T06 | 2.794mm 0.1100in | 0.0000in | 0.0000in |       0 )
(Inch Mode)
G20
(Absolute Coordinates)
G90
S20000
G00 Z0.2500  
G00 X0.0000  Y0.0000  
M03
G04 P0.000000
M05
G00 Z1.5000  
M06 T01  ; 0.0315  
G01 Z0.0000  F20    
M06 
G00 Z0.0500  
M03
G04 P0.000000
G82 X-1.2500 Y1.7000  Z-0.0710 F20    R0.0500  P0.250000
G82 X-2.0000 Y1.6000  
G82 X-2.5000 Y1.6000  
G82 X-2.5000 Y1.8000  
G82 X-2.4500 Y0.3500  
G82 X-2.4500 Y0.1500  
M05
G00 Z1.5000  
G00 X0.0000  Y0.0000  
M06 T02  ; 0.0320  
G01 Z0.0000  F20    
M06 
G00 Z0.0500  
M03
G04 P0.000000
G82 X-0.3200 Y0.7400  Z-0.0710 F20    R0.0500  P0.250000
G82 X-0.3250 Y0.9250  
G82 X-0.3250 Y1.0250  
G82 X-0.3250 Y1.1250  
G82 X-0.3250 Y1.2250  
G82 X-0.6250 Y1.2250  
G82 X-0.6250 Y1.1250  
G82 X-0.6250 Y1.0250  
G82 X-0.6250 Y0.9250  
G82 X-0.7800 Y1.0200  
G82 X-0.9000 Y1.0200  
G82 X-0.9000 Y1.3200  
G82 X-0.7800 Y1.3200  
G82 X-0.6200 Y0.7400  
G82 X-1.4000 Y1.1500  
G82 X-1.5000 Y1.1500  
G82 X-1.6000 Y1.1500  
G82 X-1.7000 Y1.1500  
G82 X-1.8000 Y1.1500  
G82 X-1.9000 Y1.1500  
G82 X-2.0000 Y1.1500  
G82 X-2.1000 Y1.1500  
G82 X-2.2000 Y1.1500  
G82 X-2.3000 Y1.1500  
G82 X-2.4000 Y1.1500  
G82 X-2.5000 Y1.1500  
G82 X-2.6000 Y1.1500  
G82 X-2.7000 Y1.1500  
G82 X-2.7000 Y1.4500  
G82 X-2.6000 Y1.4500  
G82 X-2.5000 Y1.4500  
G82 X-2.4000 Y1.4500  
G82 X-2.3000 Y1.4500  
G82 X-2.2000 Y1.4500  
G82 X-2.1000 Y1.4500  
G82 X-2.0000 Y1.4500  
G82 X-1.9000 Y1.4500  
G82 X-1.8000 Y1.4500  
G82 X-1.7000 Y1.4500  
G82 X-1.6000 Y1.4500  
G82 X-1.5000 Y1.4500  
G82 X-1.4000 Y1.4500  
G82 X-1.7000 Y1.9000  
G82 X-1.7000 Y2.0000  
G82 X-1.7000 Y2.1000  
G82 X-1.7000 Y2.2000  
G82 X-1.7000 Y2.3000  
G82 X-1.7000 Y2.4000  
G82 X-1.7000 Y2.5000  
G82 X-1.7000 Y2.6000  
G82 X-1.7000 Y2.7000  
G82 X-1.7000 Y2.8000  
G82 X-1.7000 Y2.9000  
G82 X-1.7000 Y3.0000  
G82 X-2.3000 Y3.0000  
G82 X-2.3000 Y2.9000  
G82 X-2.3000 Y2.8000  
G82 X-2.3000 Y2.7000  
G82 X-2.3000 Y2.6000  
G82 X-2.3000 Y2.5000  
G82 X-2.3000 Y2.4000  
G82 X-2.3000 Y2.3000  
G82 X-2.3000 Y2.2000  
G82 X-2.3000 Y2.1000  
G82 X-2.3000 Y2.0000  
G82 X-2.3000 Y1.9000  
G82 X-3.0000 Y1.9000  
G82 X-3.0000 Y2.0000  
G82 X-3.0000 Y2.1000  
G82 X-3.0000 Y2.2000  
G82 X-3.0000 Y2.3000  
G82 X-3.0000 Y2.4000  
G82 X-3.0000 Y2.5000  
G82 X-3.0000 Y2.6000  
G82 X-3.0000 Y2.7000  
G82 X-3.0000 Y2.8000  
G82 X-3.0000 Y2.9000  
G82 X-3.0000 Y3.0000  
G82 X-3.6000 Y3.0000  
G82 X-3.6000 Y2.9000  
G82 X-3.6000 Y2.8000  
G82 X-3.6000 Y2.7000  
G82 X-3.6000 Y2.6000  
G82 X-3.6000 Y2.5000  
G82 X-3.6000 Y2.4000  
G82 X-3.6000 Y2.3000  
G82 X-3.6000 Y2.2000  
G82 X-3.6000 Y2.1000  
G82 X-3.6000 Y2.0000  
G82 X-3.6000 Y1.9000  
G82 X-2.6700 Y0.7500  
G82 X-2.6700 Y0.6500  
G82 X-2.5500 Y0.5500  
G82 X-2.4000 Y0.6550  
G82 X-2.4000 Y0.8450  
G82 X-2.5500 Y0.8500  
G82 X-2.2100 Y0.7700  
G82 X-2.2100 Y0.6700  
G82 X-2.0000 Y0.7500  
G82 X-2.0000 Y1.0100  
G82 X-2.1000 Y1.0100  
G82 X-1.6000 Y0.7500  
G82 X-2.6500 Y0.3500  
G82 X-2.6500 Y0.2500  
G82 X-2.8250 Y0.4000  
G82 X-2.9000 Y0.4500  
G82 X-2.9000 Y0.3500  
G82 X-3.1000 Y0.3500  
G82 X-3.1000 Y0.4500  
G82 X-0.9500 Y1.9000  
G82 X-0.9500 Y2.0000  
G82 X-0.9500 Y2.1000  
G82 X-0.9500 Y2.2000  
G82 X-0.9500 Y2.3000  
G82 X-0.9500 Y2.4000  
G82 X-0.9500 Y2.5000  
G82 X-0.9500 Y2.6000  
G82 X-0.9500 Y2.7000  
G82 X-0.9500 Y2.8000  
G82 X-0.9500 Y2.9000  
G82 X-0.9500 Y3.0000  
G82 X-0.3500 Y3.0000  
G82 X-0.3500 Y2.9000  
G82 X-0.3500 Y2.8000  
G82 X-0.3500 Y2.7000  
G82 X-0.3500 Y2.6000  
G82 X-0.3500 Y2.5000  
G82 X-0.3500 Y2.4000  
G82 X-0.3500 Y2.3000  
G82 X-0.3500 Y2.2000  
G82 X-0.3500 Y2.1000  
G82 X-0.3500 Y2.0000  
G82 X-0.3500 Y1.9000  
M05
G00 Z1.5000  
G00 X0.0000  Y0.0000  
M06 T03  ; 0.0354  
G01 Z0.0000  F20    
M06 
G00 Z0.0500  
M03
G04 P0.000000
G82 X-0.1750 Y0.8750  Z-0.0710 F20    R0.0500  P0.250000
G82 X-0.1750 Y1.1750  
M05
G00 Z1.5000  
G00 X0.0000  Y0.0000  
M06 T04  ; 0.0394  
G01 Z0.0000  F20    
M06 
G00 Z0.0500  
M03
G04 P0.000000
G82 X-0.1500 Y1.7500  Z-0.0710 F20    R0.0500  P0.250000
G82 X-0.1500 Y1.8500  
G82 X-0.1500 Y1.9500  
G82 X-0.1500 Y2.0500  
G82 X-0.1500 Y2.2000  
G82 X-0.1500 Y2.3000  
G82 X-0.1500 Y2.4000  
G82 X-0.1500 Y2.5000  
G82 X-0.1500 Y2.6000  
G82 X-0.1500 Y2.7000  
G82 X-0.1500 Y2.8000  
G82 X-0.1500 Y2.9000  
G82 X-1.2000 Y2.9000  
G82 X-1.2000 Y2.8000  
G82 X-1.2000 Y2.7000  
G82 X-1.2000 Y2.6000  
G82 X-1.2000 Y2.5000  
G82 X-1.2000 Y2.4000  
G82 X-1.2000 Y2.3000  
G82 X-1.2000 Y2.2000  
G82 X-1.5000 Y2.2000  
G82 X-1.5000 Y2.3000  
G82 X-1.5000 Y2.4000  
G82 X-1.5000 Y2.5000  
G82 X-1.5000 Y2.6000  
G82 X-1.5000 Y2.7000  
G82 X-1.5000 Y2.8000  
G82 X-1.5000 Y2.9000  
G82 X-1.5000 Y2.0500  
G82 X-1.5000 Y1.9500  
G82 X-1.5000 Y1.8500  
G82 X-1.5000 Y1.7500  
G82 X-1.2000 Y0.9800  
G82 X-1.2000 Y0.8800  
G82 X-1.8500 Y0.4000  
G82 X-1.9500 Y0.4000  
G82 X-2.0500 Y0.4000  
G82 X-2.1500 Y0.4000  
G82 X-2.2500 Y0.4000  
G82 X-3.0000 Y1.1500  
G82 X-3.0000 Y1.2500  
G82 X-3.0000 Y1.3500  
G82 X-3.0000 Y1.4500  
G82 X-2.8000 Y1.7500  
G82 X-2.8000 Y1.8500  
G82 X-2.8000 Y1.9500  
G82 X-2.8000 Y2.0500  
G82 X-2.8000 Y2.2000  
G82 X-2.8000 Y2.3000  
G82 X-2.8000 Y2.4000  
G82 X-2.8000 Y2.5000  
G82 X-2.8000 Y2.6000  
G82 X-2.8000 Y2.7000  
G82 X-2.8000 Y2.8000  
G82 X-2.8000 Y2.9000  
G82 X-2.5000 Y2.9000  
G82 X-2.5000 Y2.8000  
G82 X-2.5000 Y2.7000  
G82 X-2.5000 Y2.6000  
G82 X-2.5000 Y2.5000  
G82 X-2.5000 Y2.4000  
G82 X-2.5000 Y2.3000  
G82 X-2.5000 Y2.2000  
G82 X-3.8000 Y2.2000  
G82 X-3.8000 Y2.3000  
G82 X-3.8000 Y2.4000  
G82 X-3.8000 Y2.5000  
G82 X-3.8000 Y2.6000  
G82 X-3.8000 Y2.7000  
G82 X-3.8000 Y2.8000  
G82 X-3.8000 Y2.9000  
G82 X-0.5500 Y1.4500  
G82 X-0.4500 Y1.4500  
G82 X-0.3500 Y1.4500  
G82 X-0.2500 Y1.4500  
M05
G00 Z1.5000  
G00 X0.0000  Y0.0000  
M06 T05  ; 0.0520  
G01 Z0.0000  F20    
M06 
G00 Z0.0500  
M03
G04 P0.000000
G82 X-0.2039 Y0.4953  Z-0.0710 F20    R0.0500  P0.250000
G82 X-0.3000 Y0.5913  
G82 X-0.5000 Y0.4992  
G82 X-0.7000 Y0.5913  
G82 X-0.8000 Y0.4953  
G82 X-1.0539 Y0.4953  
G82 X-1.1500 Y0.5913  
G82 X-1.3500 Y0.4992  
G82 X-1.5500 Y0.5913  
G82 X-1.6500 Y0.4953  
G82 X-1.5500 Y0.1031  
G82 X-1.4500 Y0.1031  
G82 X-1.2500 Y0.1031  
G82 X-1.1500 Y0.1031  
G82 X-0.7000 Y0.1031  
G82 X-0.6000 Y0.1031  
G82 X-0.4000 Y0.1031  
G82 X-0.3000 Y0.1031  
G82 X-3.2000 Y0.6000  
G82 X-3.4000 Y0.6000  
G82 X-3.3000 Y0.4000  
G82 X-3.4000 Y0.3000  
G82 X-3.8000 Y0.5000  
G82 X-3.8000 Y0.7000  
G82 X-3.4000 Y0.9000  
G82 X-3.3000 Y0.8000  
M05
G00 Z1.5000  
G00 X0.0000  Y0.0000  
M06 T06  ; 0.1100  
G01 Z0.0000  F20    
M06 
G00 Z0.0500  
M03
G04 P0.000000
G82 X-3.6000 Y0.3000  Z-0.0710 F20    R0.0500  P0.250000
G82 X-3.6000 Y0.9000  
T01 
G00 Z0.2500  
M05
M02
