(.../pcb-gcode-3.6.2.4/pcb-gcode.ulp)
(Copyright 2005 - 2012 by John Johnson)
(See readme.txt for licensing terms.)
(This file generated from the board:)
(.../atmega_midi_pg800/eagle/atmega_midi_pg800.brd)
(Current profile is .../pcb-gcode-3.6.2.4/profiles/mach.pp  )
(This file generated 11/15/16 11:33 PM)
(Settings from pcb-machine.h)
(spindle on time = 0.0000)
(  Tool Size)
(0.0030  )
(spindle speed = 30000.0000)
(tool change at 0.0000  0.0000  1.5000  )
(feed rate xy = F20    )
(feed rate z  = F10    )
(Z Axis Settings)
(  High     Up        Down     Drill)
(0.2500  	0.0500  	-0.0035 	-0.0710 )
(Settings from pcb-defaults.h)
(isolate min = 0.0040)
(isolate max = 0.0200)
(isolate step = 0.0025)
(Generated bottom outlines, bottom drill, )
(Unit of measure: inch)
(Inch Mode)
G20
(Absolute Coordinates)
G90
S30000
G00 Z0.2500  
G00 X0.0000  Y0.0000  
M03
G04 P0.000000
G00 Z0.0500  
G00 X-0.2515 Y0.0831  
G01 Z-0.0035 F10    
G01 X-0.2515 Y0.1232  F20    
G01 X-0.2799 Y0.1516  
G01 X-0.3201 Y0.1516  
G01 X-0.3412 Y0.1305  
G01 X-0.3588 Y0.1305  
G01 X-0.3799 Y0.1516  
G01 X-0.4201 Y0.1516  
G01 X-0.4412 Y0.1305  
G01 X-0.5588 Y0.1305  
G01 X-0.5799 Y0.1516  
G01 X-0.6201 Y0.1516  
G01 X-0.6412 Y0.1305  
G01 X-0.6588 Y0.1305  
G01 X-0.6799 Y0.1516  
G01 X-0.7201 Y0.1516  
G01 X-0.7412 Y0.1305  
G01 X-0.8015 Y0.1305  
G01 X-0.9203 Y0.5819  
G01 X-0.9207 Y0.5839  
G01 X-0.9210 Y0.5848  
G01 X-0.9213 Y0.5857  
G01 X-0.9222 Y0.5875  
G01 X-0.9230 Y0.5895  
G01 X-0.9235 Y0.5902  
G01 X-0.9239 Y0.5911  
G01 X-0.9252 Y0.5927  
G01 X-0.9263 Y0.5945  
G01 X-0.9270 Y0.5951  
G01 X-0.9275 Y0.5959  
G01 X-0.9291 Y0.5972  
G01 X-0.9306 Y0.5987  
G01 X-0.9313 Y0.5992  
G01 X-0.9320 Y0.5998  
G01 X-0.9338 Y0.6009  
G01 X-1.0966 Y0.7094  
G01 X-1.2255 Y0.8192  
G01 X-1.2445 Y0.8572  
G01 X-1.2445 Y0.9530  
G01 X-1.2146 Y0.9630  
G01 X-1.1995 Y0.9630  
G01 X-1.0685 Y0.8757  
G01 X-1.0677 Y0.8750  
G01 X-1.0660 Y0.8740  
G01 X-1.0644 Y0.8730  
G01 X-1.0634 Y0.8725  
G01 X-1.0625 Y0.8720  
G01 X-1.0607 Y0.8714  
G01 X-1.0589 Y0.8707  
G01 X-1.0578 Y0.8705  
G01 X-0.9998 Y0.8511  
G01 X-0.9964 Y0.8488  
G01 X-0.9899 Y0.8462  
G01 X-0.9832 Y0.8448  
G01 X-0.9794 Y0.8448  
G01 X-0.9758 Y0.8444  
G01 X-0.9698 Y0.8448  
G01 X-0.9168 Y0.8448  
G01 X-0.9101 Y0.8462  
G01 X-0.9036 Y0.8488  
G01 X-0.8979 Y0.8527  
G01 X-0.8949 Y0.8556  
G01 X-0.6298 Y0.8935  
G01 X-0.6219 Y0.8935  
G01 X-0.6158 Y0.8947  
G01 X-0.6101 Y0.8971  
G01 X-0.6049 Y0.9005  
G01 X-0.6005 Y0.9049  
G01 X-0.5971 Y0.9101  
G01 X-0.5947 Y0.9158  
G01 X-0.5935 Y0.9219  
G01 X-0.5935 Y0.9281  
G01 X-0.5947 Y0.9342  
G01 X-0.5971 Y0.9399  
G01 X-0.6005 Y0.9451  
G01 X-0.6049 Y0.9495  
G01 X-0.6101 Y0.9529  
G01 X-0.6158 Y0.9553  
G01 X-0.6219 Y0.9565  
G01 X-0.6801 Y0.9565  
G01 X-0.6862 Y0.9553  
G01 X-0.6919 Y0.9529  
G01 X-0.6971 Y0.9495  
G01 X-0.7015 Y0.9451  
G01 X-0.7016 Y0.9449  
G01 X-0.9137 Y0.9146  
G01 X-0.9168 Y0.9152  
G01 X-0.9832 Y0.9152  
G01 X-0.9899 Y0.9138  
G01 X-0.9922 Y0.9129  
G01 X-1.0365 Y0.9276  
G01 X-1.1630 Y1.0120  
G01 X-1.1630 Y1.0153  
G01 X-1.1847 Y1.0370  
G01 X-1.2153 Y1.0370  
G01 X-1.2303 Y1.0221  
G01 X-1.2828 Y1.0045  
G01 X-1.2839 Y1.0043  
G01 X-1.2857 Y1.0036  
G01 X-1.2875 Y1.0030  
G01 X-1.2884 Y1.0024  
G01 X-1.2894 Y1.0020  
G01 X-1.2910 Y1.0010  
G01 X-1.2927 Y1.0000  
G01 X-1.2935 Y0.9993  
G01 X-1.2944 Y0.9987  
G01 X-1.2958 Y0.9973  
G01 X-1.2973 Y0.9961  
G01 X-1.2979 Y0.9952  
G01 X-1.2987 Y0.9944  
G01 X-1.2998 Y0.9928  
G01 X-1.3009 Y0.9913  
G01 X-1.3014 Y0.9904  
G01 X-1.3020 Y0.9894  
G01 X-1.3028 Y0.9877  
G01 X-1.3036 Y0.9860  
G01 X-1.3039 Y0.9849  
G01 X-1.3043 Y0.9839  
G01 X-1.3047 Y0.9820  
G01 X-1.3052 Y0.9802  
G01 X-1.3053 Y0.9791  
G01 X-1.3055 Y0.9780  
G01 X-1.3055 Y0.9761  
G01 X-1.3056 Y0.9742  
G01 X-1.3055 Y0.9731  
G01 X-1.3055 Y0.8519  
G01 X-1.3056 Y0.8508  
G01 X-1.3055 Y0.8489  
G01 X-1.3055 Y0.8470  
G01 X-1.3053 Y0.8459  
G01 X-1.3052 Y0.8448  
G01 X-1.3047 Y0.8430  
G01 X-1.3043 Y0.8411  
G01 X-1.3039 Y0.8401  
G01 X-1.3036 Y0.8390  
G01 X-1.3028 Y0.8373  
G01 X-1.3020 Y0.8356  
G01 X-1.3014 Y0.8346  
G01 X-1.2786 Y0.7889  
G01 X-1.2785 Y0.7888  
G01 X-1.2772 Y0.7862  
G01 X-1.2759 Y0.7837  
G01 X-1.2759 Y0.7836  
G01 X-1.2758 Y0.7834  
G01 X-1.2740 Y0.7812  
G01 X-1.2723 Y0.7789  
G01 X-1.2721 Y0.7788  
G01 X-1.2721 Y0.7787  
G01 X-1.2699 Y0.7769  
G01 X-1.2677 Y0.7750  
G01 X-1.2676 Y0.7749  
G01 X-1.1357 Y0.6626  
G01 X-1.1344 Y0.6613  
G01 X-1.1334 Y0.6606  
G01 X-1.1325 Y0.6598  
G01 X-1.1309 Y0.6590  
G01 X-0.9765 Y0.5560  
G01 X-0.8646 Y0.1305  
G01 X-1.1088 Y0.1305  
G01 X-1.1299 Y0.1516  
G01 X-1.1701 Y0.1516  
G01 X-1.1912 Y0.1305  
G01 X-1.2088 Y0.1305  
G01 X-1.2299 Y0.1516  
G01 X-1.2701 Y0.1516  
G01 X-1.2912 Y0.1305  
G01 X-1.3195 Y0.1305  
G01 X-1.3195 Y0.4278  
G01 X-1.3161 Y0.4312  
G01 X-1.3119 Y0.4369  
G01 X-1.3088 Y0.4431  
G01 X-1.3066 Y0.4498  
G01 X-1.3055 Y0.4567  
G01 X-1.3055 Y0.5417  
G01 X-1.3066 Y0.5486  
G01 X-1.3088 Y0.5553  
G01 X-1.3119 Y0.5615  
G01 X-1.3161 Y0.5672  
G01 X-1.3210 Y0.5722  
G01 X-1.3267 Y0.5763  
G01 X-1.3329 Y0.5795  
G01 X-1.3396 Y0.5816  
G01 X-1.3465 Y0.5827  
G01 X-1.3535 Y0.5827  
G01 X-1.3604 Y0.5816  
G01 X-1.3671 Y0.5795  
G01 X-1.3733 Y0.5763  
G01 X-1.3790 Y0.5722  
G01 X-1.3839 Y0.5672  
G01 X-1.3881 Y0.5615  
G01 X-1.3912 Y0.5553  
G01 X-1.3934 Y0.5486  
G01 X-1.3945 Y0.5417  
G01 X-1.3945 Y0.4567  
G01 X-1.3934 Y0.4498  
G01 X-1.3912 Y0.4431  
G01 X-1.3881 Y0.4369  
G01 X-1.3839 Y0.4312  
G01 X-1.3805 Y0.4278  
G01 X-1.3805 Y0.1305  
G01 X-1.4088 Y0.1305  
G01 X-1.4299 Y0.1516  
G01 X-1.4701 Y0.1516  
G01 X-1.4912 Y0.1305  
G01 X-1.5088 Y0.1305  
G01 X-1.5299 Y0.1516  
G01 X-1.5350 Y0.1516  
G01 X-1.5355 Y0.1520  
G01 X-1.5411 Y0.1543  
G01 X-1.5470 Y0.1555  
G01 X-1.5530 Y0.1555  
G01 X-1.5589 Y0.1543  
G01 X-1.5644 Y0.1520  
G01 X-1.5650 Y0.1516  
G01 X-1.5701 Y0.1516  
G01 X-1.5802 Y0.1415  
G01 X-1.6395 Y0.1020  
G01 X-1.6395 Y0.3230  
G01 X-1.6407 Y0.3289  
G01 X-1.6430 Y0.3344  
G01 X-1.6463 Y0.3394  
G01 X-1.7274 Y0.4205  
G01 X-1.7284 Y0.4217  
G01 X-1.7295 Y0.4227  
G01 X-1.7306 Y0.4237  
G01 X-1.7318 Y0.4246  
G01 X-1.7331 Y0.4255  
G01 X-1.7343 Y0.4262  
G01 X-1.7356 Y0.4270  
G01 X-1.7370 Y0.4276  
G01 X-1.7384 Y0.4284  
G01 X-1.7398 Y0.4288  
G01 X-1.7411 Y0.4293  
G01 X-1.7426 Y0.4296  
G01 X-1.8636 Y0.4659  
G01 X-1.8847 Y0.4870  
G01 X-1.9153 Y0.4870  
G01 X-1.9233 Y0.4790  
G01 X-2.0354 Y0.6181  
G01 X-2.0363 Y0.6194  
G01 X-2.0373 Y0.6204  
G01 X-2.0381 Y0.6215  
G01 X-2.0394 Y0.6225  
G01 X-2.0406 Y0.6237  
G01 X-2.0417 Y0.6245  
G01 X-2.0428 Y0.6253  
G01 X-2.0442 Y0.6261  
G01 X-2.0456 Y0.6270  
G01 X-2.0468 Y0.6276  
G01 X-2.0480 Y0.6282  
G01 X-2.0496 Y0.6287  
G01 X-2.0511 Y0.6293  
G01 X-2.0525 Y0.6296  
G01 X-2.0538 Y0.6300  
G01 X-2.0554 Y0.6302  
G01 X-2.0570 Y0.6305  
G01 X-2.0584 Y0.6305  
G01 X-2.0597 Y0.6306  
G01 X-2.0614 Y0.6305  
G01 X-2.2264 Y0.6305  
G01 X-2.1513 Y0.7056  
G01 X-2.1480 Y0.7106  
G01 X-2.1457 Y0.7161  
G01 X-2.1445 Y0.7220  
G01 X-2.1445 Y0.7656  
G01 X-2.0739 Y0.8695  
G01 X-1.8970 Y0.8695  
G01 X-1.8911 Y0.8707  
G01 X-1.8905 Y0.8709  
G01 X-1.8880 Y0.8685  
G01 X-1.8620 Y0.8685  
G01 X-1.8435 Y0.8870  
G01 X-1.8435 Y0.9130  
G01 X-1.8620 Y0.9315  
G01 X-1.8880 Y0.9315  
G01 X-1.8905 Y0.9291  
G01 X-1.8911 Y0.9293  
G01 X-1.8922 Y0.9295  
G01 X-2.0459 Y1.1019  
G01 X-2.0685 Y1.1277  
G01 X-2.0685 Y1.1687  
G01 X-1.9721 Y1.3385  
G01 X-1.2730 Y1.3385  
G01 X-1.2630 Y1.3285  
G01 X-1.2370 Y1.3285  
G01 X-1.2185 Y1.3470  
G01 X-1.2185 Y1.3730  
G01 X-1.2370 Y1.3915  
G01 X-1.2630 Y1.3915  
G01 X-1.2730 Y1.3815  
G01 X-1.9661 Y1.3815  
G01 X-1.9689 Y1.4187  
G01 X-1.9685 Y1.4209  
G01 X-1.9685 Y1.4791  
G01 X-1.9695 Y1.4841  
G01 X-1.9695 Y1.6026  
G01 X-1.9688 Y1.6036  
G01 X-1.9662 Y1.6101  
G01 X-1.9648 Y1.6168  
G01 X-1.9648 Y1.6832  
G01 X-1.9662 Y1.6899  
G01 X-1.9688 Y1.6964  
G01 X-1.9727 Y1.7021  
G01 X-1.9776 Y1.7070  
G01 X-1.9833 Y1.7109  
G01 X-1.9897 Y1.7135  
G01 X-1.9965 Y1.7149  
G01 X-2.0035 Y1.7149  
G01 X-2.0103 Y1.7135  
G01 X-2.0167 Y1.7109  
G01 X-2.0224 Y1.7070  
G01 X-2.0273 Y1.7021  
G01 X-2.0312 Y1.6964  
G01 X-2.0338 Y1.6899  
G01 X-2.0352 Y1.6832  
G01 X-2.0352 Y1.6168  
G01 X-2.0338 Y1.6101  
G01 X-2.0312 Y1.6036  
G01 X-2.0305 Y1.6026  
G01 X-2.0305 Y1.4841  
G01 X-2.0315 Y1.4791  
G01 X-2.0315 Y1.4209  
G01 X-2.0303 Y1.4148  
G01 X-2.0297 Y1.4134  
G01 X-2.0261 Y1.3670  
G01 X-2.1213 Y1.1992  
G01 X-2.1245 Y1.1961  
G01 X-2.1279 Y1.1909  
G01 X-2.1303 Y1.1852  
G01 X-2.1315 Y1.1791  
G01 X-2.1315 Y1.1209  
G01 X-2.1303 Y1.1148  
G01 X-2.1279 Y1.1091  
G01 X-2.1245 Y1.1039  
G01 X-2.1201 Y1.0995  
G01 X-2.1149 Y1.0961  
G01 X-2.1092 Y1.0937  
G01 X-2.1059 Y1.0931  
G01 X-2.0858 Y1.0700  
G01 X-2.0857 Y1.0699  
G01 X-2.0841 Y1.0681  
G01 X-2.0825 Y1.0663  
G01 X-1.9614 Y0.9305  
G01 X-2.0760 Y0.9305  
G01 X-2.0770 Y0.9315  
G01 X-2.1030 Y0.9315  
G01 X-2.1215 Y0.9130  
G01 X-2.1215 Y0.9079  
G01 X-2.1973 Y0.7965  
G01 X-2.6599 Y0.7965  
G01 X-2.6914 Y0.8840  
G01 X-2.6885 Y0.8870  
G01 X-2.6885 Y0.9130  
G01 X-2.7070 Y0.9315  
G01 X-2.7330 Y0.9315  
G01 X-2.7515 Y0.9130  
G01 X-2.7515 Y0.8870  
G01 X-2.7330 Y0.8685  
G01 X-2.7315 Y0.8685  
G01 X-2.6955 Y0.7686  
G01 X-2.6950 Y0.7667  
G01 X-2.6946 Y0.7659  
G01 X-2.6943 Y0.7651  
G01 X-2.6932 Y0.7635  
G01 X-2.6922 Y0.7618  
G01 X-2.6916 Y0.7612  
G01 X-2.6910 Y0.7604  
G01 X-2.6896 Y0.7592  
G01 X-2.6882 Y0.7578  
G01 X-2.6874 Y0.7573  
G01 X-2.6867 Y0.7568  
G01 X-2.6850 Y0.7559  
G01 X-2.6833 Y0.7550  
G01 X-2.6824 Y0.7547  
G01 X-2.6816 Y0.7543  
G01 X-2.6797 Y0.7540  
G01 X-2.6778 Y0.7535  
G01 X-2.6769 Y0.7535  
G01 X-2.6760 Y0.7533  
G01 X-2.6741 Y0.7535  
G01 X-2.2055 Y0.7535  
G01 X-2.2055 Y0.7376  
G01 X-2.2986 Y0.6445  
G01 X-2.3184 Y0.6445  
G01 X-2.3445 Y0.6184  
G01 X-2.3445 Y0.5816  
G01 X-2.3184 Y0.5555  
G01 X-2.2816 Y0.5555  
G01 X-2.2676 Y0.5695  
G01 X-2.0746 Y0.5695  
G01 X-1.9569 Y0.4235  
G01 X-1.9522 Y0.4197  
G01 X-1.9470 Y0.4168  
G01 X-1.9412 Y0.4150  
G01 X-1.9353 Y0.4144  
G01 X-1.9293 Y0.4149  
G01 X-1.9235 Y0.4166  
G01 X-1.9205 Y0.4182  
G01 X-1.9153 Y0.4130  
G01 X-1.8995 Y0.4130  
G01 X-1.7661 Y0.3730  
G01 X-1.7005 Y0.3074  
G01 X-1.7005 Y0.0755  
G01 X-2.3324 Y0.0755  
G01 X-2.3555 Y0.0986  
G01 X-2.3555 Y0.1035  
G01 X-2.3566 Y0.1104  
G01 X-2.3588 Y0.1171  
G01 X-2.3619 Y0.1233  
G01 X-2.3661 Y0.1290  
G01 X-2.3710 Y0.1339  
G01 X-2.3767 Y0.1381  
G01 X-2.3829 Y0.1412  
G01 X-2.3896 Y0.1434  
G01 X-2.3965 Y0.1445  
G01 X-2.4035 Y0.1445  
G01 X-2.4104 Y0.1434  
G01 X-2.4171 Y0.1412  
G01 X-2.4233 Y0.1381  
G01 X-2.4290 Y0.1339  
G01 X-2.4324 Y0.1305  
G01 X-2.5676 Y0.1305  
G01 X-2.5710 Y0.1339  
G01 X-2.5767 Y0.1381  
G01 X-2.5829 Y0.1412  
G01 X-2.5896 Y0.1434  
G01 X-2.5965 Y0.1445  
G01 X-2.6035 Y0.1445  
G01 X-2.6104 Y0.1434  
G01 X-2.6171 Y0.1412  
G01 X-2.6233 Y0.1381  
G01 X-2.6290 Y0.1339  
G01 X-2.6339 Y0.1290  
G01 X-2.6381 Y0.1233  
G01 X-2.6412 Y0.1171  
G01 X-2.6434 Y0.1104  
G01 X-2.6445 Y0.1035  
G01 X-2.6445 Y0.0965  
G01 X-2.6434 Y0.0896  
G01 X-2.6412 Y0.0829  
G01 X-2.6381 Y0.0767  
G01 X-2.6339 Y0.0710  
G01 X-2.6290 Y0.0661  
G01 X-2.6233 Y0.0619  
G01 X-2.6171 Y0.0588  
G01 X-2.6104 Y0.0566  
G01 X-2.6035 Y0.0555  
G01 X-2.5965 Y0.0555  
G01 X-2.5896 Y0.0566  
G01 X-2.5829 Y0.0588  
G01 X-2.5767 Y0.0619  
G01 X-2.5710 Y0.0661  
G01 X-2.5676 Y0.0695  
G01 X-2.4324 Y0.0695  
G01 X-2.4290 Y0.0661  
G01 X-2.4233 Y0.0619  
G01 X-2.4171 Y0.0588  
G01 X-2.4104 Y0.0566  
G01 X-2.4035 Y0.0555  
G01 X-2.3986 Y0.0555  
G01 X-2.3687 Y0.0256  
G01 X-2.3644 Y0.0213  
G01 X-2.3594 Y0.0180  
G01 X-2.3539 Y0.0157  
G01 X-2.3480 Y0.0145  
G01 X-1.6700 Y0.0145  
G01 X-1.6670 Y0.0145  
G01 X-1.6641 Y0.0151  
G01 X-1.6611 Y0.0157  
G01 X-1.6583 Y0.0168  
G01 X-1.6556 Y0.0180  
G01 X-1.6530 Y0.0197  
G01 X-1.5823 Y0.0668  
G01 X-1.5701 Y0.0546  
G01 X-1.5299 Y0.0546  
G01 X-1.5151 Y0.0695  
G01 X-1.4849 Y0.0695  
G01 X-1.4701 Y0.0546  
G01 X-1.4299 Y0.0546  
G01 X-1.4151 Y0.0695  
G01 X-1.2849 Y0.0695  
G01 X-1.2701 Y0.0546  
G01 X-1.2299 Y0.0546  
G01 X-1.2151 Y0.0695  
G01 X-1.1849 Y0.0695  
G01 X-1.1701 Y0.0546  
G01 X-1.1299 Y0.0546  
G01 X-1.1151 Y0.0695  
G01 X-0.8271 Y0.0695  
G01 X-0.8261 Y0.0694  
G01 X-0.8241 Y0.0695  
G01 X-0.7349 Y0.0695  
G01 X-0.7201 Y0.0546  
G01 X-0.6799 Y0.0546  
G01 X-0.6651 Y0.0695  
G01 X-0.6349 Y0.0695  
G01 X-0.6201 Y0.0546  
G01 X-0.5799 Y0.0546  
G01 X-0.5651 Y0.0695  
G01 X-0.4349 Y0.0695  
G01 X-0.4201 Y0.0546  
G01 X-0.3799 Y0.0546  
G01 X-0.3651 Y0.0695  
G01 X-0.3349 Y0.0695  
G01 X-0.3201 Y0.0546  
G01 X-0.2799 Y0.0546  
G01 X-0.2515 Y0.0831  
G00 Z0.0500  
G00 X-0.2240 Y0.4468  
G01 Z-0.0035 F10    
G01 X-0.1838 Y0.4468  F20    
G01 X-0.1554 Y0.4752  
G01 X-0.1554 Y0.5154  
G01 X-0.1838 Y0.5438  
G01 X-0.2240 Y0.5438  
G01 X-0.2524 Y0.5154  
G01 X-0.2524 Y0.4752  
G01 X-0.2240 Y0.4468  
G00 Z0.0500  
G00 X-0.2515 Y0.5712  
G01 Z-0.0035 F10    
G01 X-0.2515 Y0.6114  F20    
G01 X-0.2785 Y0.6384  
G01 X-0.2785 Y0.8285  
G01 X-0.1972 Y0.8285  
G01 X-0.1917 Y0.8300  
G01 X-0.1868 Y0.8328  
G01 X-0.1858 Y0.8338  
G01 X-0.1850 Y0.8335  
G01 X-0.1783 Y0.8325  
G01 X-0.1717 Y0.8325  
G01 X-0.1650 Y0.8335  
G01 X-0.1587 Y0.8356  
G01 X-0.1527 Y0.8387  
G01 X-0.1473 Y0.8426  
G01 X-0.1426 Y0.8473  
G01 X-0.1387 Y0.8527  
G01 X-0.1356 Y0.8587  
G01 X-0.1335 Y0.8650  
G01 X-0.1325 Y0.8717  
G01 X-0.1325 Y0.8783  
G01 X-0.1335 Y0.8850  
G01 X-0.1356 Y0.8913  
G01 X-0.1387 Y0.8973  
G01 X-0.1426 Y0.9027  
G01 X-0.1473 Y0.9074  
G01 X-0.1527 Y0.9113  
G01 X-0.1535 Y0.9117  
G01 X-0.1535 Y0.9244  
G01 X-0.1534 Y0.9266  
G01 X-0.1535 Y0.9272  
G01 X-0.1535 Y0.9278  
G01 X-0.1541 Y0.9300  
G01 X-0.1545 Y0.9322  
G01 X-0.1548 Y0.9327  
G01 X-0.1550 Y0.9333  
G01 X-0.1561 Y0.9352  
G01 X-0.1571 Y0.9372  
G01 X-0.1575 Y0.9377  
G01 X-0.1578 Y0.9382  
G01 X-0.1594 Y0.9398  
G01 X-0.2424 Y1.0326  
G01 X-0.2427 Y1.0342  
G01 X-0.2451 Y1.0399  
G01 X-0.2485 Y1.0451  
G01 X-0.2529 Y1.0495  
G01 X-0.2581 Y1.0529  
G01 X-0.2638 Y1.0553  
G01 X-0.2699 Y1.0565  
G01 X-0.3281 Y1.0565  
G01 X-0.3342 Y1.0553  
G01 X-0.3399 Y1.0529  
G01 X-0.3451 Y1.0495  
G01 X-0.3495 Y1.0451  
G01 X-0.3529 Y1.0399  
G01 X-0.3553 Y1.0342  
G01 X-0.3565 Y1.0281  
G01 X-0.3565 Y1.0219  
G01 X-0.3553 Y1.0158  
G01 X-0.3529 Y1.0101  
G01 X-0.3495 Y1.0049  
G01 X-0.3451 Y1.0005  
G01 X-0.3399 Y0.9971  
G01 X-0.3342 Y0.9947  
G01 X-0.3281 Y0.9935  
G01 X-0.2699 Y0.9935  
G01 X-0.2659 Y0.9943  
G01 X-0.1965 Y0.9168  
G01 X-0.1965 Y0.9117  
G01 X-0.1973 Y0.9113  
G01 X-0.2027 Y0.9074  
G01 X-0.2074 Y0.9027  
G01 X-0.2113 Y0.8973  
G01 X-0.2144 Y0.8913  
G01 X-0.2165 Y0.8850  
G01 X-0.2175 Y0.8783  
G01 X-0.2175 Y0.8717  
G01 X-0.2175 Y0.8715  
G01 X-0.3028 Y0.8715  
G01 X-0.3083 Y0.8700  
G01 X-0.3132 Y0.8672  
G01 X-0.3172 Y0.8632  
G01 X-0.3200 Y0.8583  
G01 X-0.3215 Y0.8528  
G01 X-0.3215 Y0.6384  
G01 X-0.3485 Y0.6114  
G01 X-0.3485 Y0.5712  
G01 X-0.3201 Y0.5428  
G01 X-0.2799 Y0.5428  
G01 X-0.2515 Y0.5712  
G00 Z0.0500  
G00 X-0.4661 Y0.5672  
G01 Z-0.0035 F10    
G01 X-0.4710 Y0.5722  F20    
G01 X-0.4767 Y0.5763  
G01 X-0.4829 Y0.5795  
G01 X-0.4896 Y0.5816  
G01 X-0.4965 Y0.5827  
G01 X-0.5035 Y0.5827  
G01 X-0.5104 Y0.5816  
G01 X-0.5171 Y0.5795  
G01 X-0.5233 Y0.5763  
G01 X-0.5290 Y0.5722  
G01 X-0.5339 Y0.5672  
G01 X-0.5381 Y0.5615  
G01 X-0.5412 Y0.5553  
G01 X-0.5434 Y0.5486  
G01 X-0.5445 Y0.5417  
G01 X-0.5445 Y0.4567  
G01 X-0.5434 Y0.4498  
G01 X-0.5412 Y0.4431  
G01 X-0.5381 Y0.4369  
G01 X-0.5339 Y0.4312  
G01 X-0.5290 Y0.4263  
G01 X-0.5233 Y0.4222  
G01 X-0.5171 Y0.4190  
G01 X-0.5104 Y0.4168  
G01 X-0.5035 Y0.4157  
G01 X-0.4965 Y0.4157  
G01 X-0.4896 Y0.4168  
G01 X-0.4829 Y0.4190  
G01 X-0.4767 Y0.4222  
G01 X-0.4710 Y0.4263  
G01 X-0.4661 Y0.4312  
G01 X-0.4619 Y0.4369  
G01 X-0.4588 Y0.4431  
G01 X-0.4566 Y0.4498  
G01 X-0.4555 Y0.4567  
G01 X-0.4555 Y0.5417  
G01 X-0.4566 Y0.5486  
G01 X-0.4588 Y0.5553  
G01 X-0.4619 Y0.5615  
G01 X-0.4661 Y0.5672  
G00 Z0.0500  
G00 X-0.6515 Y0.5712  
G01 Z-0.0035 F10    
G01 X-0.6515 Y0.6114  F20    
G01 X-0.6785 Y0.6384  
G01 X-0.6785 Y0.7270  
G01 X-0.6685 Y0.7370  
G01 X-0.6685 Y0.7630  
G01 X-0.6870 Y0.7815  
G01 X-0.7130 Y0.7815  
G01 X-0.7315 Y0.7630  
G01 X-0.7315 Y0.7370  
G01 X-0.7215 Y0.7270  
G01 X-0.7215 Y0.6384  
G01 X-0.7485 Y0.6114  
G01 X-0.7485 Y0.5712  
G01 X-0.7201 Y0.5428  
G01 X-0.6799 Y0.5428  
G01 X-0.6515 Y0.5712  
G00 Z0.0500  
G00 X-0.7799 Y0.5438  
G01 Z-0.0035 F10    
G01 X-0.8201 Y0.5438  F20    
G01 X-0.8485 Y0.5154  
G01 X-0.8485 Y0.4752  
G01 X-0.8201 Y0.4468  
G01 X-0.7799 Y0.4468  
G01 X-0.7515 Y0.4752  
G01 X-0.7515 Y0.5154  
G01 X-0.7799 Y0.5438  
G00 Z0.0500  
G00 X-0.8260 Y0.7486  
G01 Z-0.0035 F10    
G01 X-0.7427 Y0.8087  F20    
G01 X-0.6044 Y0.8135  
G01 X-0.6018 Y0.8136  
G01 X-0.6016 Y0.8136  
G01 X-0.6014 Y0.8136  
G01 X-0.5989 Y0.8144  
G01 X-0.5964 Y0.8151  
G01 X-0.5962 Y0.8152  
G01 X-0.5960 Y0.8153  
G01 X-0.5938 Y0.8167  
G01 X-0.5191 Y0.8615  
G01 X-0.5168 Y0.8628  
G01 X-0.5167 Y0.8629  
G01 X-0.5165 Y0.8630  
G01 X-0.5147 Y0.8649  
G01 X-0.5128 Y0.8668  
G01 X-0.5127 Y0.8670  
G01 X-0.5126 Y0.8671  
G01 X-0.5113 Y0.8694  
G01 X-0.5100 Y0.8717  
G01 X-0.5099 Y0.8719  
G01 X-0.5098 Y0.8720  
G01 X-0.5092 Y0.8746  
G01 X-0.5085 Y0.8772  
G01 X-0.5085 Y0.8774  
G01 X-0.5085 Y0.8775  
G01 X-0.5085 Y0.8802  
G01 X-0.5085 Y1.1835  
G01 X-0.5083 Y1.1849  
G01 X-0.5085 Y1.1863  
G01 X-0.5085 Y1.1878  
G01 X-0.5089 Y1.1891  
G01 X-0.5090 Y1.1905  
G01 X-0.5096 Y1.1919  
G01 X-0.5100 Y1.1933  
G01 X-0.5106 Y1.1945  
G01 X-0.5112 Y1.1957  
G01 X-0.5121 Y1.1969  
G01 X-0.5128 Y1.1982  
G01 X-0.5138 Y1.1992  
G01 X-0.5146 Y1.2002  
G01 X-0.5157 Y1.2012  
G01 X-0.5168 Y1.2022  
G01 X-0.5180 Y1.2029  
G01 X-0.5190 Y1.2037  
G01 X-0.5204 Y1.2043  
G01 X-0.5217 Y1.2050  
G01 X-0.5230 Y1.2054  
G01 X-0.5954 Y1.2359  
G01 X-0.5971 Y1.2399  
G01 X-0.6005 Y1.2451  
G01 X-0.6049 Y1.2495  
G01 X-0.6101 Y1.2529  
G01 X-0.6158 Y1.2553  
G01 X-0.6219 Y1.2565  
G01 X-0.6261 Y1.2565  
G01 X-0.7185 Y1.3489  
G01 X-0.7185 Y1.3630  
G01 X-0.7370 Y1.3815  
G01 X-0.7630 Y1.3815  
G01 X-0.7664 Y1.3781  
G01 X-0.8685 Y1.4122  
G01 X-0.8685 Y1.4130  
G01 X-0.8870 Y1.4315  
G01 X-0.9130 Y1.4315  
G01 X-0.9271 Y1.4174  
G01 X-1.1285 Y1.3852  
G01 X-1.1285 Y1.3974  
G01 X-1.1285 Y1.3975  
G01 X-1.1285 Y1.4002  
G01 X-1.1285 Y1.4028  
G01 X-1.1285 Y1.4030  
G01 X-1.1286 Y1.4032  
G01 X-1.1293 Y1.4057  
G01 X-1.1300 Y1.4083  
G01 X-1.1301 Y1.4085  
G01 X-1.1301 Y1.4086  
G01 X-1.1315 Y1.4109  
G01 X-1.1328 Y1.4132  
G01 X-1.1329 Y1.4133  
G01 X-1.2648 Y1.6331  
G01 X-1.2648 Y1.6832  
G01 X-1.2662 Y1.6899  
G01 X-1.2688 Y1.6964  
G01 X-1.2727 Y1.7021  
G01 X-1.2776 Y1.7070  
G01 X-1.2833 Y1.7109  
G01 X-1.2897 Y1.7135  
G01 X-1.2965 Y1.7149  
G01 X-1.3035 Y1.7149  
G01 X-1.3103 Y1.7135  
G01 X-1.3167 Y1.7109  
G01 X-1.3224 Y1.7070  
G01 X-1.3273 Y1.7021  
G01 X-1.3312 Y1.6964  
G01 X-1.3338 Y1.6899  
G01 X-1.3352 Y1.6832  
G01 X-1.3352 Y1.6168  
G01 X-1.3338 Y1.6101  
G01 X-1.3312 Y1.6036  
G01 X-1.3273 Y1.5979  
G01 X-1.3224 Y1.5930  
G01 X-1.3167 Y1.5891  
G01 X-1.3103 Y1.5865  
G01 X-1.3035 Y1.5851  
G01 X-1.2965 Y1.5851  
G01 X-1.2897 Y1.5865  
G01 X-1.2875 Y1.5874  
G01 X-1.1715 Y1.3940  
G01 X-1.1715 Y1.3830  
G01 X-1.1815 Y1.3730  
G01 X-1.1815 Y1.3470  
G01 X-1.1813 Y1.3468  
G01 X-1.2079 Y1.2965  
G01 X-1.2694 Y1.2965  
G01 X-1.3094 Y1.3187  
G01 X-1.3117 Y1.3200  
G01 X-1.3119 Y1.3201  
G01 X-1.3120 Y1.3202  
G01 X-1.3146 Y1.3208  
G01 X-1.3172 Y1.3215  
G01 X-1.3173 Y1.3215  
G01 X-1.3175 Y1.3215  
G01 X-1.3202 Y1.3215  
G01 X-1.9332 Y1.3215  
G01 X-1.9341 Y1.3217  
G01 X-1.9360 Y1.3215  
G01 X-1.9378 Y1.3215  
G01 X-1.9388 Y1.3212  
G01 X-1.9398 Y1.3212  
G01 X-1.9415 Y1.3205  
G01 X-1.9433 Y1.3200  
G01 X-1.9442 Y1.3195  
G01 X-1.9451 Y1.3192  
G01 X-1.9466 Y1.3181  
G01 X-1.9482 Y1.3172  
G01 X-1.9489 Y1.3165  
G01 X-1.9497 Y1.3159  
G01 X-1.9509 Y1.3145  
G01 X-1.9522 Y1.3132  
G01 X-1.9527 Y1.3123  
G01 X-1.9533 Y1.3116  
G01 X-1.9541 Y1.3099  
G01 X-1.9550 Y1.3083  
G01 X-1.9553 Y1.3073  
G01 X-2.0014 Y1.2075  
G01 X-2.0031 Y1.2075  
G01 X-2.0092 Y1.2063  
G01 X-2.0149 Y1.2039  
G01 X-2.0201 Y1.2005  
G01 X-2.0245 Y1.1961  
G01 X-2.0279 Y1.1909  
G01 X-2.0303 Y1.1852  
G01 X-2.0315 Y1.1791  
G01 X-2.0315 Y1.1209  
G01 X-2.0303 Y1.1148  
G01 X-2.0279 Y1.1091  
G01 X-2.0245 Y1.1039  
G01 X-2.0201 Y1.0995  
G01 X-2.0149 Y1.0961  
G01 X-2.0092 Y1.0937  
G01 X-2.0031 Y1.0925  
G01 X-1.9979 Y1.0925  
G01 X-1.9418 Y1.0363  
G01 X-1.9414 Y1.0358  
G01 X-1.9398 Y1.0344  
G01 X-1.9382 Y1.0328  
G01 X-1.9376 Y1.0325  
G01 X-1.8957 Y0.9952  
G01 X-1.8952 Y0.9945  
G01 X-1.8936 Y0.9933  
G01 X-1.8922 Y0.9921  
G01 X-1.8914 Y0.9916  
G01 X-1.8315 Y0.9467  
G01 X-1.8315 Y0.9370  
G01 X-1.8130 Y0.9185  
G01 X-1.7870 Y0.9185  
G01 X-1.7685 Y0.9370  
G01 X-1.7685 Y0.9630  
G01 X-1.7870 Y0.9815  
G01 X-1.8062 Y0.9815  
G01 X-1.8664 Y1.0267  
G01 X-1.9102 Y1.0656  
G01 X-1.9685 Y1.1239  
G01 X-1.9685 Y1.1761  
G01 X-1.9212 Y1.2785  
G01 X-1.3256 Y1.2785  
G01 X-1.2856 Y1.2563  
G01 X-1.2833 Y1.2550  
G01 X-1.2831 Y1.2549  
G01 X-1.2830 Y1.2548  
G01 X-1.2804 Y1.2542  
G01 X-1.2778 Y1.2535  
G01 X-1.2777 Y1.2535  
G01 X-1.2775 Y1.2535  
G01 X-1.2748 Y1.2535  
G01 X-1.1974 Y1.2535  
G01 X-1.1970 Y1.2534  
G01 X-1.1946 Y1.2535  
G01 X-1.1922 Y1.2535  
G01 X-1.1918 Y1.2536  
G01 X-1.1914 Y1.2536  
G01 X-1.1891 Y1.2543  
G01 X-1.1867 Y1.2550  
G01 X-1.1864 Y1.2552  
G01 X-1.1860 Y1.2553  
G01 X-1.1839 Y1.2566  
G01 X-1.1818 Y1.2578  
G01 X-1.1815 Y1.2581  
G01 X-1.1812 Y1.2583  
G01 X-1.1795 Y1.2601  
G01 X-1.1778 Y1.2618  
G01 X-1.1776 Y1.2621  
G01 X-1.1773 Y1.2624  
G01 X-1.1762 Y1.2646  
G01 X-1.1750 Y1.2667  
G01 X-1.1749 Y1.2671  
G01 X-1.1423 Y1.3285  
G01 X-1.1370 Y1.3285  
G01 X-1.1229 Y1.3426  
G01 X-0.9196 Y1.3751  
G01 X-0.9130 Y1.3685  
G01 X-0.8870 Y1.3685  
G01 X-0.8836 Y1.3719  
G01 X-0.7815 Y1.3378  
G01 X-0.7815 Y1.3370  
G01 X-0.7630 Y1.3185  
G01 X-0.7489 Y1.3185  
G01 X-0.6858 Y1.2554  
G01 X-0.6862 Y1.2553  
G01 X-0.6919 Y1.2529  
G01 X-0.6971 Y1.2495  
G01 X-0.7015 Y1.2451  
G01 X-0.7049 Y1.2399  
G01 X-0.7073 Y1.2342  
G01 X-0.7085 Y1.2281  
G01 X-0.7085 Y1.2219  
G01 X-0.7073 Y1.2158  
G01 X-0.7049 Y1.2101  
G01 X-0.7015 Y1.2049  
G01 X-0.6971 Y1.2005  
G01 X-0.6919 Y1.1971  
G01 X-0.6862 Y1.1947  
G01 X-0.6801 Y1.1935  
G01 X-0.6219 Y1.1935  
G01 X-0.6158 Y1.1947  
G01 X-0.6121 Y1.1962  
G01 X-0.5515 Y1.1707  
G01 X-0.5515 Y0.8922  
G01 X-0.6113 Y0.8563  
G01 X-0.7486 Y0.8516  
G01 X-0.7494 Y0.8517  
G01 X-0.7515 Y0.8515  
G01 X-0.7536 Y0.8514  
G01 X-0.7543 Y0.8512  
G01 X-0.7550 Y0.8511  
G01 X-0.7570 Y0.8504  
G01 X-0.7590 Y0.8497  
G01 X-0.7596 Y0.8493  
G01 X-0.7603 Y0.8491  
G01 X-0.7620 Y0.8479  
G01 X-0.7638 Y0.8467  
G01 X-0.7643 Y0.8462  
G01 X-0.8470 Y0.7865  
G01 X-0.9846 Y0.7865  
G01 X-0.9871 Y0.7866  
G01 X-0.9874 Y0.7865  
G01 X-0.9878 Y0.7865  
G01 X-0.9902 Y0.7859  
G01 X-1.0317 Y0.7763  
G01 X-1.0370 Y0.7815  
G01 X-1.0511 Y0.7815  
G01 X-1.1635 Y0.8939  
G01 X-1.1630 Y0.8964  
G01 X-1.1630 Y0.9036  
G01 X-1.1644 Y0.9108  
G01 X-1.1672 Y0.9175  
G01 X-1.1713 Y0.9236  
G01 X-1.1764 Y0.9287  
G01 X-1.1825 Y0.9328  
G01 X-1.1892 Y0.9356  
G01 X-1.1964 Y0.9370  
G01 X-1.2036 Y0.9370  
G01 X-1.2108 Y0.9356  
G01 X-1.2175 Y0.9328  
G01 X-1.2236 Y0.9287  
G01 X-1.2287 Y0.9236  
G01 X-1.2328 Y0.9175  
G01 X-1.2356 Y0.9108  
G01 X-1.2370 Y0.9036  
G01 X-1.2370 Y0.8964  
G01 X-1.2356 Y0.8892  
G01 X-1.2328 Y0.8825  
G01 X-1.2287 Y0.8764  
G01 X-1.2236 Y0.8713  
G01 X-1.2175 Y0.8672  
G01 X-1.2108 Y0.8644  
G01 X-1.2036 Y0.8630  
G01 X-1.1964 Y0.8630  
G01 X-1.1939 Y0.8635  
G01 X-1.0815 Y0.7511  
G01 X-1.0815 Y0.7370  
G01 X-1.0630 Y0.7185  
G01 X-1.0370 Y0.7185  
G01 X-1.0208 Y0.7347  
G01 X-0.9826 Y0.7435  
G01 X-0.8417 Y0.7435  
G01 X-0.8406 Y0.7433  
G01 X-0.8389 Y0.7435  
G01 X-0.8372 Y0.7435  
G01 X-0.8361 Y0.7438  
G01 X-0.8350 Y0.7439  
G01 X-0.8334 Y0.7445  
G01 X-0.8317 Y0.7450  
G01 X-0.8307 Y0.7455  
G01 X-0.8297 Y0.7459  
G01 X-0.8283 Y0.7469  
G01 X-0.8268 Y0.7478  
G01 X-0.8260 Y0.7486  
G00 Z0.0500  
G00 X-0.8930 Y0.9576  
G01 Z-0.0035 F10    
G01 X-0.8891 Y0.9633  F20    
G01 X-0.8865 Y0.9697  
G01 X-0.8851 Y0.9765  
G01 X-0.8851 Y0.9835  
G01 X-0.8865 Y0.9903  
G01 X-0.8891 Y0.9967  
G01 X-0.8930 Y1.0024  
G01 X-0.8951 Y1.0045  
G01 X-0.8828 Y1.0168  
G01 X-0.8800 Y1.0217  
G01 X-0.8785 Y1.0272  
G01 X-0.8785 Y1.0770  
G01 X-0.8685 Y1.0870  
G01 X-0.8685 Y1.1130  
G01 X-0.8870 Y1.1315  
G01 X-0.9130 Y1.1315  
G01 X-0.9230 Y1.1215  
G01 X-1.2949 Y1.1215  
G01 X-1.3685 Y1.1583  
G01 X-1.3685 Y1.1791  
G01 X-1.3697 Y1.1852  
G01 X-1.3721 Y1.1909  
G01 X-1.3755 Y1.1961  
G01 X-1.3799 Y1.2005  
G01 X-1.3851 Y1.2039  
G01 X-1.3908 Y1.2063  
G01 X-1.3969 Y1.2075  
G01 X-1.4031 Y1.2075  
G01 X-1.4092 Y1.2063  
G01 X-1.4149 Y1.2039  
G01 X-1.4201 Y1.2005  
G01 X-1.4245 Y1.1961  
G01 X-1.4279 Y1.1909  
G01 X-1.4303 Y1.1852  
G01 X-1.4315 Y1.1791  
G01 X-1.4315 Y1.1209  
G01 X-1.4303 Y1.1148  
G01 X-1.4279 Y1.1091  
G01 X-1.4245 Y1.1039  
G01 X-1.4201 Y1.0995  
G01 X-1.4149 Y1.0961  
G01 X-1.4092 Y1.0937  
G01 X-1.4031 Y1.0925  
G01 X-1.3969 Y1.0925  
G01 X-1.3908 Y1.0937  
G01 X-1.3851 Y1.0961  
G01 X-1.3799 Y1.0995  
G01 X-1.3755 Y1.1039  
G01 X-1.3721 Y1.1091  
G01 X-1.3711 Y1.1115  
G01 X-1.3102 Y1.0811  
G01 X-1.3083 Y1.0800  
G01 X-1.3077 Y1.0798  
G01 X-1.3071 Y1.0795  
G01 X-1.3049 Y1.0791  
G01 X-1.3028 Y1.0785  
G01 X-1.3022 Y1.0785  
G01 X-1.3015 Y1.0784  
G01 X-1.2994 Y1.0785  
G01 X-0.9230 Y1.0785  
G01 X-0.9215 Y1.0770  
G01 X-0.9215 Y1.0389  
G01 X-0.9452 Y1.0152  
G01 X-0.9832 Y1.0152  
G01 X-0.9899 Y1.0138  
G01 X-0.9964 Y1.0112  
G01 X-1.0021 Y1.0073  
G01 X-1.0070 Y1.0024  
G01 X-1.0109 Y0.9967  
G01 X-1.0135 Y0.9903  
G01 X-1.0149 Y0.9835  
G01 X-1.0149 Y0.9765  
G01 X-1.0135 Y0.9697  
G01 X-1.0109 Y0.9633  
G01 X-1.0070 Y0.9576  
G01 X-1.0021 Y0.9527  
G01 X-0.9964 Y0.9488  
G01 X-0.9899 Y0.9462  
G01 X-0.9832 Y0.9448  
G01 X-0.9168 Y0.9448  
G01 X-0.9101 Y0.9462  
G01 X-0.9036 Y0.9488  
G01 X-0.8979 Y0.9527  
G01 X-0.8930 Y0.9576  
G00 Z0.0500  
G00 X-0.7630 Y1.0185  
G01 Z-0.0035 F10    
G01 X-0.7370 Y1.0185  F20    
G01 X-0.7352 Y1.0203  
G01 X-0.7023 Y1.0062  
G01 X-0.7015 Y1.0049  
G01 X-0.6971 Y1.0005  
G01 X-0.6919 Y0.9971  
G01 X-0.6862 Y0.9947  
G01 X-0.6801 Y0.9935  
G01 X-0.6219 Y0.9935  
G01 X-0.6158 Y0.9947  
G01 X-0.6101 Y0.9971  
G01 X-0.6049 Y1.0005  
G01 X-0.6005 Y1.0049  
G01 X-0.5971 Y1.0101  
G01 X-0.5947 Y1.0158  
G01 X-0.5935 Y1.0219  
G01 X-0.5935 Y1.0281  
G01 X-0.5947 Y1.0342  
G01 X-0.5971 Y1.0399  
G01 X-0.6005 Y1.0451  
G01 X-0.6049 Y1.0495  
G01 X-0.6101 Y1.0529  
G01 X-0.6158 Y1.0553  
G01 X-0.6219 Y1.0565  
G01 X-0.6801 Y1.0565  
G01 X-0.6862 Y1.0553  
G01 X-0.6919 Y1.0529  
G01 X-0.6959 Y1.0502  
G01 X-0.7185 Y1.0599  
G01 X-0.7185 Y1.0630  
G01 X-0.7370 Y1.0815  
G01 X-0.7486 Y1.0815  
G01 X-0.8474 Y1.1974  
G01 X-0.8478 Y1.1982  
G01 X-0.8492 Y1.1996  
G01 X-0.8505 Y1.2011  
G01 X-0.8512 Y1.2016  
G01 X-0.8518 Y1.2022  
G01 X-0.8535 Y1.2032  
G01 X-0.8551 Y1.2043  
G01 X-0.8559 Y1.2046  
G01 X-0.8567 Y1.2050  
G01 X-0.8586 Y1.2055  
G01 X-0.8605 Y1.2062  
G01 X-0.8613 Y1.2063  
G01 X-0.8622 Y1.2065  
G01 X-0.8641 Y1.2065  
G01 X-0.8661 Y1.2067  
G01 X-0.8670 Y1.2065  
G01 X-1.2630 Y1.2065  
G01 X-1.3310 Y1.2564  
G01 X-1.3318 Y1.2572  
G01 X-1.3332 Y1.2580  
G01 X-1.3346 Y1.2590  
G01 X-1.3357 Y1.2594  
G01 X-1.3367 Y1.2600  
G01 X-1.3383 Y1.2605  
G01 X-1.3398 Y1.2611  
G01 X-1.3410 Y1.2612  
G01 X-1.3422 Y1.2615  
G01 X-1.3438 Y1.2615  
G01 X-1.3455 Y1.2617  
G01 X-1.3466 Y1.2615  
G01 X-1.4583 Y1.2615  
G01 X-1.4594 Y1.2617  
G01 X-1.4611 Y1.2615  
G01 X-1.4628 Y1.2615  
G01 X-1.4639 Y1.2612  
G01 X-1.4651 Y1.2611  
G01 X-1.4667 Y1.2605  
G01 X-1.4683 Y1.2600  
G01 X-1.4693 Y1.2595  
G01 X-1.4704 Y1.2591  
G01 X-1.4717 Y1.2581  
G01 X-1.4732 Y1.2572  
G01 X-1.4740 Y1.2564  
G01 X-1.4749 Y1.2557  
G01 X-1.4760 Y1.2544  
G01 X-1.4772 Y1.2532  
G01 X-1.4778 Y1.2522  
G01 X-1.4785 Y1.2513  
G01 X-1.4792 Y1.2498  
G01 X-1.4800 Y1.2483  
G01 X-1.4803 Y1.2472  
G01 X-1.4980 Y1.2075  
G01 X-1.5031 Y1.2075  
G01 X-1.5092 Y1.2063  
G01 X-1.5149 Y1.2039  
G01 X-1.5201 Y1.2005  
G01 X-1.5245 Y1.1961  
G01 X-1.5279 Y1.1909  
G01 X-1.5303 Y1.1852  
G01 X-1.5315 Y1.1791  
G01 X-1.5315 Y1.1209  
G01 X-1.5303 Y1.1148  
G01 X-1.5279 Y1.1091  
G01 X-1.5245 Y1.1039  
G01 X-1.5201 Y1.0995  
G01 X-1.5149 Y1.0961  
G01 X-1.5092 Y1.0937  
G01 X-1.5031 Y1.0925  
G01 X-1.4969 Y1.0925  
G01 X-1.4908 Y1.0937  
G01 X-1.4851 Y1.0961  
G01 X-1.4799 Y1.0995  
G01 X-1.4755 Y1.1039  
G01 X-1.4721 Y1.1091  
G01 X-1.4697 Y1.1148  
G01 X-1.4685 Y1.1209  
G01 X-1.4685 Y1.1679  
G01 X-1.4460 Y1.2185  
G01 X-1.3520 Y1.2185  
G01 X-1.2840 Y1.1686  
G01 X-1.2832 Y1.1678  
G01 X-1.2818 Y1.1670  
G01 X-1.2804 Y1.1660  
G01 X-1.2793 Y1.1656  
G01 X-1.2783 Y1.1650  
G01 X-1.2767 Y1.1645  
G01 X-1.2752 Y1.1639  
G01 X-1.2740 Y1.1638  
G01 X-1.2728 Y1.1635  
G01 X-1.2712 Y1.1635  
G01 X-1.2695 Y1.1633  
G01 X-1.2684 Y1.1635  
G01 X-0.8749 Y1.1635  
G01 X-0.7815 Y1.0538  
G01 X-0.7815 Y1.0370  
G01 X-0.7630 Y1.0185  
G00 Z0.0500  
G00 X-0.6971 Y1.1005  
G01 Z-0.0035 F10    
G01 X-0.6919 Y1.0971  F20    
G01 X-0.6862 Y1.0947  
G01 X-0.6801 Y1.0935  
G01 X-0.6219 Y1.0935  
G01 X-0.6158 Y1.0947  
G01 X-0.6101 Y1.0971  
G01 X-0.6049 Y1.1005  
G01 X-0.6005 Y1.1049  
G01 X-0.5971 Y1.1101  
G01 X-0.5947 Y1.1158  
G01 X-0.5935 Y1.1219  
G01 X-0.5935 Y1.1281  
G01 X-0.5947 Y1.1342  
G01 X-0.5971 Y1.1399  
G01 X-0.6005 Y1.1451  
G01 X-0.6049 Y1.1495  
G01 X-0.6101 Y1.1529  
G01 X-0.6158 Y1.1553  
G01 X-0.6219 Y1.1565  
G01 X-0.6801 Y1.1565  
G01 X-0.6862 Y1.1553  
G01 X-0.6919 Y1.1529  
G01 X-0.6971 Y1.1495  
G01 X-0.7015 Y1.1451  
G01 X-0.7049 Y1.1399  
G01 X-0.7073 Y1.1342  
G01 X-0.7085 Y1.1281  
G01 X-0.7085 Y1.1219  
G01 X-0.7073 Y1.1158  
G01 X-0.7049 Y1.1101  
G01 X-0.7015 Y1.1049  
G01 X-0.6971 Y1.1005  
G00 Z0.0500  
G00 X-0.4209 Y1.1009  
G01 Z-0.0035 F10    
G01 X-0.4211 Y1.0993  F20    
G01 X-0.4215 Y1.0978  
G01 X-0.4215 Y1.0965  
G01 X-0.4217 Y1.0953  
G01 X-0.4215 Y1.0937  
G01 X-0.4215 Y0.7730  
G01 X-0.4315 Y0.7630  
G01 X-0.4315 Y0.7370  
G01 X-0.4130 Y0.7185  
G01 X-0.3870 Y0.7185  
G01 X-0.3685 Y0.7370  
G01 X-0.3685 Y0.7630  
G01 X-0.3785 Y0.7730  
G01 X-0.3785 Y1.0804  
G01 X-0.3384 Y1.0965  
G01 X-0.3342 Y1.0947  
G01 X-0.3281 Y1.0935  
G01 X-0.2699 Y1.0935  
G01 X-0.2638 Y1.0947  
G01 X-0.2581 Y1.0971  
G01 X-0.2529 Y1.1005  
G01 X-0.2485 Y1.1049  
G01 X-0.2451 Y1.1101  
G01 X-0.2427 Y1.1158  
G01 X-0.2419 Y1.1197  
G01 X-0.2227 Y1.1235  
G01 X-0.2218 Y1.1236  
G01 X-0.2199 Y1.1241  
G01 X-0.2180 Y1.1245  
G01 X-0.2172 Y1.1249  
G01 X-0.2164 Y1.1251  
G01 X-0.2147 Y1.1261  
G01 X-0.2129 Y1.1270  
G01 X-0.2123 Y1.1276  
G01 X-0.1954 Y1.1377  
G01 X-0.1913 Y1.1356  
G01 X-0.1850 Y1.1335  
G01 X-0.1783 Y1.1325  
G01 X-0.1717 Y1.1325  
G01 X-0.1650 Y1.1335  
G01 X-0.1587 Y1.1356  
G01 X-0.1527 Y1.1387  
G01 X-0.1473 Y1.1426  
G01 X-0.1426 Y1.1473  
G01 X-0.1387 Y1.1527  
G01 X-0.1356 Y1.1587  
G01 X-0.1335 Y1.1650  
G01 X-0.1325 Y1.1717  
G01 X-0.1325 Y1.1783  
G01 X-0.1335 Y1.1850  
G01 X-0.1356 Y1.1913  
G01 X-0.1387 Y1.1973  
G01 X-0.1426 Y1.2027  
G01 X-0.1473 Y1.2074  
G01 X-0.1527 Y1.2113  
G01 X-0.1587 Y1.2144  
G01 X-0.1650 Y1.2165  
G01 X-0.1717 Y1.2175  
G01 X-0.1783 Y1.2175  
G01 X-0.1850 Y1.2165  
G01 X-0.1913 Y1.2144  
G01 X-0.1973 Y1.2113  
G01 X-0.2027 Y1.2074  
G01 X-0.2074 Y1.2027  
G01 X-0.2113 Y1.1973  
G01 X-0.2144 Y1.1913  
G01 X-0.2165 Y1.1850  
G01 X-0.2175 Y1.1783  
G01 X-0.2175 Y1.1746  
G01 X-0.2329 Y1.1654  
G01 X-0.2771 Y1.1565  
G01 X-0.3281 Y1.1565  
G01 X-0.3342 Y1.1553  
G01 X-0.3399 Y1.1529  
G01 X-0.3451 Y1.1495  
G01 X-0.3495 Y1.1451  
G01 X-0.3529 Y1.1399  
G01 X-0.3544 Y1.1364  
G01 X-0.4068 Y1.1154  
G01 X-0.4083 Y1.1150  
G01 X-0.4094 Y1.1144  
G01 X-0.4106 Y1.1139  
G01 X-0.4119 Y1.1130  
G01 X-0.4132 Y1.1122  
G01 X-0.4141 Y1.1113  
G01 X-0.4151 Y1.1105  
G01 X-0.4161 Y1.1093  
G01 X-0.4172 Y1.1082  
G01 X-0.4178 Y1.1071  
G01 X-0.4186 Y1.1061  
G01 X-0.4193 Y1.1046  
G01 X-0.4200 Y1.1033  
G01 X-0.4204 Y1.1021  
G01 X-0.4209 Y1.1009  
G00 Z0.0500  
G00 X-0.3451 Y1.2005  
G01 Z-0.0035 F10    
G01 X-0.3399 Y1.1971  F20    
G01 X-0.3342 Y1.1947  
G01 X-0.3281 Y1.1935  
G01 X-0.2699 Y1.1935  
G01 X-0.2638 Y1.1947  
G01 X-0.2581 Y1.1971  
G01 X-0.2529 Y1.2005  
G01 X-0.2485 Y1.2049  
G01 X-0.2451 Y1.2101  
G01 X-0.2427 Y1.2158  
G01 X-0.2415 Y1.2219  
G01 X-0.2415 Y1.2281  
G01 X-0.2427 Y1.2342  
G01 X-0.2451 Y1.2399  
G01 X-0.2485 Y1.2451  
G01 X-0.2529 Y1.2495  
G01 X-0.2581 Y1.2529  
G01 X-0.2638 Y1.2553  
G01 X-0.2699 Y1.2565  
G01 X-0.3281 Y1.2565  
G01 X-0.3342 Y1.2553  
G01 X-0.3399 Y1.2529  
G01 X-0.3451 Y1.2495  
G01 X-0.3495 Y1.2451  
G01 X-0.3529 Y1.2399  
G01 X-0.3553 Y1.2342  
G01 X-0.3565 Y1.2281  
G01 X-0.3565 Y1.2219  
G01 X-0.3553 Y1.2158  
G01 X-0.3529 Y1.2101  
G01 X-0.3495 Y1.2049  
G01 X-0.3451 Y1.2005  
G00 Z0.0500  
G00 X-0.3451 Y0.9495  
G01 Z-0.0035 F10    
G01 X-0.3495 Y0.9451  F20    
G01 X-0.3529 Y0.9399  
G01 X-0.3553 Y0.9342  
G01 X-0.3565 Y0.9281  
G01 X-0.3565 Y0.9219  
G01 X-0.3553 Y0.9158  
G01 X-0.3529 Y0.9101  
G01 X-0.3495 Y0.9049  
G01 X-0.3451 Y0.9005  
G01 X-0.3399 Y0.8971  
G01 X-0.3342 Y0.8947  
G01 X-0.3281 Y0.8935  
G01 X-0.2699 Y0.8935  
G01 X-0.2638 Y0.8947  
G01 X-0.2581 Y0.8971  
G01 X-0.2529 Y0.9005  
G01 X-0.2485 Y0.9049  
G01 X-0.2451 Y0.9101  
G01 X-0.2427 Y0.9158  
G01 X-0.2415 Y0.9219  
G01 X-0.2415 Y0.9281  
G01 X-0.2427 Y0.9342  
G01 X-0.2451 Y0.9399  
G01 X-0.2485 Y0.9451  
G01 X-0.2529 Y0.9495  
G01 X-0.2581 Y0.9529  
G01 X-0.2638 Y0.9553  
G01 X-0.2699 Y0.9565  
G01 X-0.3281 Y0.9565  
G01 X-0.3342 Y0.9553  
G01 X-0.3399 Y0.9529  
G01 X-0.3451 Y0.9495  
G00 Z0.0500  
G00 X-1.3605 Y0.8911  
G01 Z-0.0035 F10    
G01 X-1.3606 Y0.8912  F20    
G01 X-1.3607 Y0.8913  
G01 X-1.3630 Y0.8928  
G01 X-1.3652 Y0.8943  
G01 X-1.3653 Y0.8944  
G01 X-1.5785 Y1.0365  
G01 X-1.5785 Y1.1010  
G01 X-1.5755 Y1.1039  
G01 X-1.5721 Y1.1091  
G01 X-1.5697 Y1.1148  
G01 X-1.5685 Y1.1209  
G01 X-1.5685 Y1.1791  
G01 X-1.5697 Y1.1852  
G01 X-1.5721 Y1.1909  
G01 X-1.5755 Y1.1961  
G01 X-1.5799 Y1.2005  
G01 X-1.5851 Y1.2039  
G01 X-1.5908 Y1.2063  
G01 X-1.5969 Y1.2075  
G01 X-1.6031 Y1.2075  
G01 X-1.6092 Y1.2063  
G01 X-1.6149 Y1.2039  
G01 X-1.6201 Y1.2005  
G01 X-1.6245 Y1.1961  
G01 X-1.6279 Y1.1909  
G01 X-1.6303 Y1.1852  
G01 X-1.6315 Y1.1791  
G01 X-1.6315 Y1.1209  
G01 X-1.6303 Y1.1148  
G01 X-1.6279 Y1.1091  
G01 X-1.6245 Y1.1039  
G01 X-1.6215 Y1.1010  
G01 X-1.6215 Y1.0257  
G01 X-1.6216 Y1.0236  
G01 X-1.6215 Y1.0229  
G01 X-1.6215 Y1.0222  
G01 X-1.6209 Y1.0201  
G01 X-1.6205 Y1.0180  
G01 X-1.6202 Y1.0174  
G01 X-1.6200 Y1.0167  
G01 X-1.6190 Y1.0148  
G01 X-1.6180 Y1.0129  
G01 X-1.6176 Y1.0124  
G01 X-1.6172 Y1.0118  
G01 X-1.6157 Y1.0103  
G01 X-1.6143 Y1.0087  
G01 X-1.6137 Y1.0083  
G01 X-1.6132 Y1.0078  
G01 X-1.6113 Y1.0067  
G01 X-1.3918 Y0.8604  
G01 X-1.2850 Y0.6369  
G01 X-1.2845 Y0.6355  
G01 X-1.2838 Y0.6344  
G01 X-1.2832 Y0.6332  
G01 X-1.2822 Y0.6320  
G01 X-1.2814 Y0.6308  
G01 X-1.2804 Y0.6299  
G01 X-1.2795 Y0.6289  
G01 X-1.2783 Y0.6280  
G01 X-1.2771 Y0.6270  
G01 X-1.2759 Y0.6264  
G01 X-1.2748 Y0.6257  
G01 X-1.2734 Y0.6252  
G01 X-1.2358 Y0.6063  
G01 X-1.2345 Y0.6055  
G01 X-1.2332 Y0.6051  
G01 X-1.2321 Y0.6045  
G01 X-1.2306 Y0.6042  
G01 X-1.1985 Y0.5935  
G01 X-1.1985 Y0.5712  
G01 X-1.1701 Y0.5428  
G01 X-1.1299 Y0.5428  
G01 X-1.1015 Y0.5712  
G01 X-1.1015 Y0.6114  
G01 X-1.1299 Y0.6398  
G01 X-1.1701 Y0.6398  
G01 X-1.1779 Y0.6320  
G01 X-1.2168 Y0.6449  
G01 X-1.2488 Y0.6609  
G01 X-1.3544 Y0.8819  
G01 X-1.3545 Y0.8820  
G01 X-1.3557 Y0.8844  
G01 X-1.3568 Y0.8868  
G01 X-1.3569 Y0.8869  
G01 X-1.3570 Y0.8871  
G01 X-1.3588 Y0.8891  
G01 X-1.3605 Y0.8911  
G00 Z0.0500  
G00 X-1.4370 Y0.7815  
G01 Z-0.0035 F10    
G01 X-1.4630 Y0.7815  F20    
G01 X-1.4815 Y0.7630  
G01 X-1.4815 Y0.7370  
G01 X-1.4802 Y0.7357  
G01 X-1.5179 Y0.6538  
G01 X-1.5319 Y0.6398  
G01 X-1.5701 Y0.6398  
G01 X-1.5985 Y0.6114  
G01 X-1.5985 Y0.5712  
G01 X-1.5701 Y0.5428  
G01 X-1.5299 Y0.5428  
G01 X-1.5015 Y0.5712  
G01 X-1.5015 Y0.6094  
G01 X-1.4861 Y0.6248  
G01 X-1.4853 Y0.6254  
G01 X-1.4841 Y0.6268  
G01 X-1.4828 Y0.6281  
G01 X-1.4823 Y0.6290  
G01 X-1.4817 Y0.6298  
G01 X-1.4809 Y0.6314  
G01 X-1.4800 Y0.6330  
G01 X-1.4797 Y0.6340  
G01 X-1.4408 Y0.7185  
G01 X-1.4370 Y0.7185  
G01 X-1.4185 Y0.7370  
G01 X-1.4185 Y0.7630  
G01 X-1.4370 Y0.7815  
G00 Z0.0500  
G00 X-1.7685 Y0.8370  
G01 Z-0.0035 F10    
G01 X-1.7685 Y0.8630  F20    
G01 X-1.7870 Y0.8815  
G01 X-1.8130 Y0.8815  
G01 X-1.8315 Y0.8630  
G01 X-1.8315 Y0.8489  
G01 X-1.9384 Y0.7420  
G01 X-1.9398 Y0.7424  
G01 X-1.9466 Y0.7435  
G01 X-1.9534 Y0.7435  
G01 X-1.9602 Y0.7424  
G01 X-1.9667 Y0.7403  
G01 X-1.9728 Y0.7372  
G01 X-1.9783 Y0.7332  
G01 X-1.9832 Y0.7283  
G01 X-1.9872 Y0.7228  
G01 X-1.9903 Y0.7167  
G01 X-1.9924 Y0.7102  
G01 X-1.9935 Y0.7034  
G01 X-1.9935 Y0.6966  
G01 X-1.9924 Y0.6898  
G01 X-1.9903 Y0.6833  
G01 X-1.9872 Y0.6772  
G01 X-1.9832 Y0.6717  
G01 X-1.9783 Y0.6668  
G01 X-1.9728 Y0.6628  
G01 X-1.9667 Y0.6597  
G01 X-1.9602 Y0.6576  
G01 X-1.9584 Y0.6573  
G01 X-1.9299 Y0.5718  
G01 X-1.9328 Y0.5675  
G01 X-1.9356 Y0.5608  
G01 X-1.9370 Y0.5536  
G01 X-1.9370 Y0.5464  
G01 X-1.9356 Y0.5392  
G01 X-1.9328 Y0.5325  
G01 X-1.9287 Y0.5264  
G01 X-1.9236 Y0.5213  
G01 X-1.9175 Y0.5172  
G01 X-1.9108 Y0.5144  
G01 X-1.9036 Y0.5130  
G01 X-1.8964 Y0.5130  
G01 X-1.8892 Y0.5144  
G01 X-1.8825 Y0.5172  
G01 X-1.8764 Y0.5213  
G01 X-1.8713 Y0.5264  
G01 X-1.8672 Y0.5325  
G01 X-1.8644 Y0.5392  
G01 X-1.8630 Y0.5464  
G01 X-1.8630 Y0.5536  
G01 X-1.8644 Y0.5608  
G01 X-1.8672 Y0.5675  
G01 X-1.8713 Y0.5736  
G01 X-1.8764 Y0.5787  
G01 X-1.8825 Y0.5828  
G01 X-1.8892 Y0.5856  
G01 X-1.9176 Y0.6709  
G01 X-1.9168 Y0.6717  
G01 X-1.9128 Y0.6772  
G01 X-1.9097 Y0.6833  
G01 X-1.9076 Y0.6898  
G01 X-1.9065 Y0.6966  
G01 X-1.9065 Y0.7034  
G01 X-1.9076 Y0.7102  
G01 X-1.9080 Y0.7116  
G01 X-1.8011 Y0.8185  
G01 X-1.7870 Y0.8185  
G01 X-1.7685 Y0.8370  
G00 Z0.0500  
G00 X-1.7755 Y1.1039  
G01 Z-0.0035 F10    
G01 X-1.7721 Y1.1091  F20    
G01 X-1.7697 Y1.1148  
G01 X-1.7685 Y1.1209  
G01 X-1.7685 Y1.1791  
G01 X-1.7697 Y1.1852  
G01 X-1.7721 Y1.1909  
G01 X-1.7755 Y1.1961  
G01 X-1.7799 Y1.2005  
G01 X-1.7851 Y1.2039  
G01 X-1.7908 Y1.2063  
G01 X-1.7969 Y1.2075  
G01 X-1.8031 Y1.2075  
G01 X-1.8092 Y1.2063  
G01 X-1.8149 Y1.2039  
G01 X-1.8201 Y1.2005  
G01 X-1.8245 Y1.1961  
G01 X-1.8279 Y1.1909  
G01 X-1.8303 Y1.1852  
G01 X-1.8315 Y1.1791  
G01 X-1.8315 Y1.1209  
G01 X-1.8303 Y1.1148  
G01 X-1.8279 Y1.1091  
G01 X-1.8245 Y1.1039  
G01 X-1.8201 Y1.0995  
G01 X-1.8149 Y1.0961  
G01 X-1.8092 Y1.0937  
G01 X-1.8031 Y1.0925  
G01 X-1.7969 Y1.0925  
G01 X-1.7908 Y1.0937  
G01 X-1.7851 Y1.0961  
G01 X-1.7799 Y1.0995  
G01 X-1.7755 Y1.1039  
G00 Z0.0500  
G00 X-1.7245 Y1.1039  
G01 Z-0.0035 F10    
G01 X-1.7201 Y1.0995  F20    
G01 X-1.7149 Y1.0961  
G01 X-1.7092 Y1.0937  
G01 X-1.7031 Y1.0925  
G01 X-1.6969 Y1.0925  
G01 X-1.6908 Y1.0937  
G01 X-1.6851 Y1.0961  
G01 X-1.6799 Y1.0995  
G01 X-1.6755 Y1.1039  
G01 X-1.6721 Y1.1091  
G01 X-1.6697 Y1.1148  
G01 X-1.6685 Y1.1209  
G01 X-1.6685 Y1.1791  
G01 X-1.6697 Y1.1852  
G01 X-1.6721 Y1.1909  
G01 X-1.6755 Y1.1961  
G01 X-1.6799 Y1.2005  
G01 X-1.6851 Y1.2039  
G01 X-1.6908 Y1.2063  
G01 X-1.6969 Y1.2075  
G01 X-1.7031 Y1.2075  
G01 X-1.7092 Y1.2063  
G01 X-1.7149 Y1.2039  
G01 X-1.7201 Y1.2005  
G01 X-1.7245 Y1.1961  
G01 X-1.7279 Y1.1909  
G01 X-1.7303 Y1.1852  
G01 X-1.7315 Y1.1791  
G01 X-1.7315 Y1.1209  
G01 X-1.7303 Y1.1148  
G01 X-1.7279 Y1.1091  
G01 X-1.7245 Y1.1039  
G00 Z0.0500  
G00 X-1.8755 Y1.1039  
G01 Z-0.0035 F10    
G01 X-1.8721 Y1.1091  F20    
G01 X-1.8697 Y1.1148  
G01 X-1.8685 Y1.1209  
G01 X-1.8685 Y1.1791  
G01 X-1.8697 Y1.1852  
G01 X-1.8721 Y1.1909  
G01 X-1.8755 Y1.1961  
G01 X-1.8799 Y1.2005  
G01 X-1.8851 Y1.2039  
G01 X-1.8908 Y1.2063  
G01 X-1.8969 Y1.2075  
G01 X-1.9031 Y1.2075  
G01 X-1.9092 Y1.2063  
G01 X-1.9149 Y1.2039  
G01 X-1.9201 Y1.2005  
G01 X-1.9245 Y1.1961  
G01 X-1.9279 Y1.1909  
G01 X-1.9303 Y1.1852  
G01 X-1.9315 Y1.1791  
G01 X-1.9315 Y1.1209  
G01 X-1.9303 Y1.1148  
G01 X-1.9279 Y1.1091  
G01 X-1.9245 Y1.1039  
G01 X-1.9201 Y1.0995  
G01 X-1.9149 Y1.0961  
G01 X-1.9092 Y1.0937  
G01 X-1.9031 Y1.0925  
G01 X-1.8969 Y1.0925  
G01 X-1.8908 Y1.0937  
G01 X-1.8851 Y1.0961  
G01 X-1.8799 Y1.0995  
G01 X-1.8755 Y1.1039  
G00 Z0.0500  
G00 X-2.0770 Y1.0315  
G01 Z-0.0035 F10    
G01 X-2.1030 Y1.0315  F20    
G01 X-2.1130 Y1.0215  
G01 X-2.1785 Y1.0215  
G01 X-2.1785 Y1.1010  
G01 X-2.1755 Y1.1039  
G01 X-2.1721 Y1.1091  
G01 X-2.1697 Y1.1148  
G01 X-2.1685 Y1.1209  
G01 X-2.1685 Y1.1791  
G01 X-2.1697 Y1.1852  
G01 X-2.1721 Y1.1909  
G01 X-2.1755 Y1.1961  
G01 X-2.1799 Y1.2005  
G01 X-2.1851 Y1.2039  
G01 X-2.1908 Y1.2063  
G01 X-2.1969 Y1.2075  
G01 X-2.2031 Y1.2075  
G01 X-2.2092 Y1.2063  
G01 X-2.2149 Y1.2039  
G01 X-2.2201 Y1.2005  
G01 X-2.2245 Y1.1961  
G01 X-2.2279 Y1.1909  
G01 X-2.2303 Y1.1852  
G01 X-2.2315 Y1.1791  
G01 X-2.2315 Y1.1209  
G01 X-2.2303 Y1.1148  
G01 X-2.2279 Y1.1091  
G01 X-2.2245 Y1.1039  
G01 X-2.2215 Y1.1010  
G01 X-2.2215 Y1.0215  
G01 X-2.2820 Y1.0215  
G01 X-2.2849 Y1.0245  
G01 X-2.2901 Y1.0279  
G01 X-2.2958 Y1.0303  
G01 X-2.3019 Y1.0315  
G01 X-2.3081 Y1.0315  
G01 X-2.3142 Y1.0303  
G01 X-2.3199 Y1.0279  
G01 X-2.3251 Y1.0245  
G01 X-2.3295 Y1.0201  
G01 X-2.3329 Y1.0149  
G01 X-2.3353 Y1.0092  
G01 X-2.3365 Y1.0031  
G01 X-2.3365 Y0.9969  
G01 X-2.3353 Y0.9908  
G01 X-2.3329 Y0.9851  
G01 X-2.3295 Y0.9799  
G01 X-2.3265 Y0.9770  
G01 X-2.3265 Y0.9022  
G01 X-2.3250 Y0.8967  
G01 X-2.3222 Y0.8918  
G01 X-2.2815 Y0.8511  
G01 X-2.2815 Y0.8370  
G01 X-2.2630 Y0.8185  
G01 X-2.2370 Y0.8185  
G01 X-2.2185 Y0.8370  
G01 X-2.2185 Y0.8630  
G01 X-2.2370 Y0.8815  
G01 X-2.2511 Y0.8815  
G01 X-2.2835 Y0.9139  
G01 X-2.2835 Y0.9770  
G01 X-2.2820 Y0.9785  
G01 X-2.1130 Y0.9785  
G01 X-2.1030 Y0.9685  
G01 X-2.0770 Y0.9685  
G01 X-2.0585 Y0.9870  
G01 X-2.0585 Y1.0130  
G01 X-2.0770 Y1.0315  
G00 Z0.0500  
G00 X-2.3247 Y1.0546  
G01 Z-0.0035 F10    
G01 X-2.3234 Y1.0563  F20    
G01 X-2.3220 Y1.0579  
G01 X-2.3217 Y1.0585  
G01 X-2.3213 Y1.0591  
G01 X-2.3204 Y1.0610  
G01 X-2.3046 Y1.0928  
G01 X-2.3031 Y1.0925  
G01 X-2.2969 Y1.0925  
G01 X-2.2908 Y1.0937  
G01 X-2.2851 Y1.0961  
G01 X-2.2799 Y1.0995  
G01 X-2.2755 Y1.1039  
G01 X-2.2721 Y1.1091  
G01 X-2.2697 Y1.1148  
G01 X-2.2685 Y1.1209  
G01 X-2.2685 Y1.1791  
G01 X-2.2697 Y1.1852  
G01 X-2.2721 Y1.1909  
G01 X-2.2755 Y1.1961  
G01 X-2.2799 Y1.2005  
G01 X-2.2851 Y1.2039  
G01 X-2.2908 Y1.2063  
G01 X-2.2969 Y1.2075  
G01 X-2.3031 Y1.2075  
G01 X-2.3092 Y1.2063  
G01 X-2.3149 Y1.2039  
G01 X-2.3201 Y1.2005  
G01 X-2.3245 Y1.1961  
G01 X-2.3279 Y1.1909  
G01 X-2.3303 Y1.1852  
G01 X-2.3315 Y1.1791  
G01 X-2.3315 Y1.1351  
G01 X-2.3556 Y1.0868  
G01 X-2.4575 Y1.0452  
G01 X-2.4991 Y1.0313  
G01 X-2.5042 Y1.0303  
G01 X-2.5099 Y1.0279  
G01 X-2.5106 Y1.0275  
G01 X-2.5285 Y1.0215  
G01 X-2.6970 Y1.0215  
G01 X-2.7070 Y1.0315  
G01 X-2.7330 Y1.0315  
G01 X-2.7515 Y1.0130  
G01 X-2.7515 Y0.9870  
G01 X-2.7330 Y0.9685  
G01 X-2.7070 Y0.9685  
G01 X-2.6970 Y0.9785  
G01 X-2.5272 Y0.9785  
G01 X-2.5265 Y0.9784  
G01 X-2.5244 Y0.9785  
G01 X-2.5215 Y0.9785  
G01 X-2.5215 Y0.9089  
G01 X-2.5489 Y0.8815  
G01 X-2.5630 Y0.8815  
G01 X-2.5815 Y0.8630  
G01 X-2.5815 Y0.8370  
G01 X-2.5630 Y0.8185  
G01 X-2.5370 Y0.8185  
G01 X-2.5185 Y0.8370  
G01 X-2.5185 Y0.8511  
G01 X-2.4868 Y0.8828  
G01 X-2.4828 Y0.8868  
G01 X-2.4800 Y0.8917  
G01 X-2.4785 Y0.8972  
G01 X-2.4785 Y0.9731  
G01 X-2.4749 Y0.9755  
G01 X-2.4705 Y0.9799  
G01 X-2.4671 Y0.9851  
G01 X-2.4647 Y0.9908  
G01 X-2.4635 Y0.9969  
G01 X-2.4635 Y0.9978  
G01 X-2.4452 Y1.0039  
G01 X-2.4445 Y1.0040  
G01 X-2.4425 Y1.0048  
G01 X-2.4405 Y1.0055  
G01 X-2.4399 Y1.0059  
G01 X-2.3325 Y1.0498  
G01 X-2.3305 Y1.0505  
G01 X-2.3299 Y1.0509  
G01 X-2.3292 Y1.0512  
G01 X-2.3276 Y1.0525  
G01 X-2.3258 Y1.0536  
G01 X-2.3253 Y1.0542  
G01 X-2.3247 Y1.0546  
G00 Z0.0500  
G00 X-2.3755 Y1.1039  
G01 Z-0.0035 F10    
G01 X-2.3721 Y1.1091  F20    
G01 X-2.3697 Y1.1148  
G01 X-2.3685 Y1.1209  
G01 X-2.3685 Y1.1791  
G01 X-2.3697 Y1.1852  
G01 X-2.3721 Y1.1909  
G01 X-2.3755 Y1.1961  
G01 X-2.3799 Y1.2005  
G01 X-2.3851 Y1.2039  
G01 X-2.3908 Y1.2063  
G01 X-2.3969 Y1.2075  
G01 X-2.4031 Y1.2075  
G01 X-2.4092 Y1.2063  
G01 X-2.4149 Y1.2039  
G01 X-2.4201 Y1.2005  
G01 X-2.4245 Y1.1961  
G01 X-2.4279 Y1.1909  
G01 X-2.4303 Y1.1852  
G01 X-2.4315 Y1.1791  
G01 X-2.4315 Y1.1209  
G01 X-2.4303 Y1.1148  
G01 X-2.4279 Y1.1091  
G01 X-2.4245 Y1.1039  
G01 X-2.4201 Y1.0995  
G01 X-2.4149 Y1.0961  
G01 X-2.4092 Y1.0937  
G01 X-2.4031 Y1.0925  
G01 X-2.3969 Y1.0925  
G01 X-2.3908 Y1.0937  
G01 X-2.3851 Y1.0961  
G01 X-2.3799 Y1.0995  
G01 X-2.3755 Y1.1039  
G00 Z0.0500  
G00 X-2.4755 Y1.1039  
G01 Z-0.0035 F10    
G01 X-2.4721 Y1.1091  F20    
G01 X-2.4697 Y1.1148  
G01 X-2.4685 Y1.1209  
G01 X-2.4685 Y1.1791  
G01 X-2.4697 Y1.1852  
G01 X-2.4721 Y1.1909  
G01 X-2.4755 Y1.1961  
G01 X-2.4799 Y1.2005  
G01 X-2.4851 Y1.2039  
G01 X-2.4908 Y1.2063  
G01 X-2.4969 Y1.2075  
G01 X-2.5031 Y1.2075  
G01 X-2.5092 Y1.2063  
G01 X-2.5149 Y1.2039  
G01 X-2.5201 Y1.2005  
G01 X-2.5245 Y1.1961  
G01 X-2.5279 Y1.1909  
G01 X-2.5303 Y1.1852  
G01 X-2.5315 Y1.1791  
G01 X-2.5315 Y1.1209  
G01 X-2.5303 Y1.1148  
G01 X-2.5279 Y1.1091  
G01 X-2.5245 Y1.1039  
G01 X-2.5201 Y1.0995  
G01 X-2.5149 Y1.0961  
G01 X-2.5092 Y1.0937  
G01 X-2.5031 Y1.0925  
G01 X-2.4969 Y1.0925  
G01 X-2.4908 Y1.0937  
G01 X-2.4851 Y1.0961  
G01 X-2.4799 Y1.0995  
G01 X-2.4755 Y1.1039  
G00 Z0.0500  
G00 X-2.5755 Y1.1039  
G01 Z-0.0035 F10    
G01 X-2.5721 Y1.1091  F20    
G01 X-2.5697 Y1.1148  
G01 X-2.5685 Y1.1209  
G01 X-2.5685 Y1.1791  
G01 X-2.5697 Y1.1852  
G01 X-2.5721 Y1.1909  
G01 X-2.5755 Y1.1961  
G01 X-2.5799 Y1.2005  
G01 X-2.5851 Y1.2039  
G01 X-2.5908 Y1.2063  
G01 X-2.5969 Y1.2075  
G01 X-2.6031 Y1.2075  
G01 X-2.6092 Y1.2063  
G01 X-2.6149 Y1.2039  
G01 X-2.6201 Y1.2005  
G01 X-2.6245 Y1.1961  
G01 X-2.6279 Y1.1909  
G01 X-2.6303 Y1.1852  
G01 X-2.6315 Y1.1791  
G01 X-2.6315 Y1.1209  
G01 X-2.6303 Y1.1148  
G01 X-2.6279 Y1.1091  
G01 X-2.6245 Y1.1039  
G01 X-2.6201 Y1.0995  
G01 X-2.6149 Y1.0961  
G01 X-2.6092 Y1.0937  
G01 X-2.6031 Y1.0925  
G01 X-2.5969 Y1.0925  
G01 X-2.5908 Y1.0937  
G01 X-2.5851 Y1.0961  
G01 X-2.5799 Y1.0995  
G01 X-2.5755 Y1.1039  
G00 Z0.0500  
G00 X-2.6755 Y1.1039  
G01 Z-0.0035 F10    
G01 X-2.6721 Y1.1091  F20    
G01 X-2.6697 Y1.1148  
G01 X-2.6685 Y1.1209  
G01 X-2.6685 Y1.1791  
G01 X-2.6697 Y1.1852  
G01 X-2.6721 Y1.1909  
G01 X-2.6755 Y1.1961  
G01 X-2.6799 Y1.2005  
G01 X-2.6851 Y1.2039  
G01 X-2.6908 Y1.2063  
G01 X-2.6969 Y1.2075  
G01 X-2.7031 Y1.2075  
G01 X-2.7092 Y1.2063  
G01 X-2.7149 Y1.2039  
G01 X-2.7201 Y1.2005  
G01 X-2.7245 Y1.1961  
G01 X-2.7279 Y1.1909  
G01 X-2.7303 Y1.1852  
G01 X-2.7315 Y1.1791  
G01 X-2.7315 Y1.1489  
G01 X-2.8132 Y1.0672  
G01 X-2.8172 Y1.0632  
G01 X-2.8200 Y1.0583  
G01 X-2.8215 Y1.0528  
G01 X-2.8215 Y0.6972  
G01 X-2.8200 Y0.6917  
G01 X-2.8172 Y0.6868  
G01 X-2.8132 Y0.6828  
G01 X-2.8083 Y0.6800  
G01 X-2.8028 Y0.6785  
G01 X-2.5414 Y0.6785  
G01 X-2.5184 Y0.6555  
G01 X-2.4816 Y0.6555  
G01 X-2.4555 Y0.6816  
G01 X-2.4555 Y0.7184  
G01 X-2.4816 Y0.7445  
G01 X-2.5184 Y0.7445  
G01 X-2.5414 Y0.7215  
G01 X-2.7785 Y0.7215  
G01 X-2.7785 Y1.0411  
G01 X-2.7201 Y1.0995  
G01 X-2.7149 Y1.0961  
G01 X-2.7092 Y1.0937  
G01 X-2.7031 Y1.0925  
G01 X-2.6969 Y1.0925  
G01 X-2.6908 Y1.0937  
G01 X-2.6851 Y1.0961  
G01 X-2.6799 Y1.0995  
G01 X-2.6755 Y1.1039  
G00 Z0.0500  
G00 X-2.8385 Y1.1408  
G01 Z-0.0035 F10    
G01 X-2.5870 Y1.3827  F20    
G01 X-2.5868 Y1.3828  
G01 X-2.5849 Y1.3847  
G01 X-2.5831 Y1.3865  
G01 X-2.5829 Y1.3866  
G01 X-2.5828 Y1.3868  
G01 X-2.5815 Y1.3891  
G01 X-2.5801 Y1.3913  
G01 X-2.5801 Y1.3915  
G01 X-2.5800 Y1.3917  
G01 X-2.5793 Y1.3942  
G01 X-2.5786 Y1.3967  
G01 X-2.5786 Y1.3970  
G01 X-2.5785 Y1.3972  
G01 X-2.5785 Y1.3998  
G01 X-2.5785 Y1.4010  
G01 X-2.5755 Y1.4039  
G01 X-2.5721 Y1.4091  
G01 X-2.5697 Y1.4148  
G01 X-2.5685 Y1.4209  
G01 X-2.5685 Y1.4791  
G01 X-2.5697 Y1.4852  
G01 X-2.5721 Y1.4909  
G01 X-2.5755 Y1.4961  
G01 X-2.5799 Y1.5005  
G01 X-2.5851 Y1.5039  
G01 X-2.5908 Y1.5063  
G01 X-2.5969 Y1.5075  
G01 X-2.6031 Y1.5075  
G01 X-2.6092 Y1.5063  
G01 X-2.6149 Y1.5039  
G01 X-2.6201 Y1.5005  
G01 X-2.6245 Y1.4961  
G01 X-2.6279 Y1.4909  
G01 X-2.6303 Y1.4852  
G01 X-2.6315 Y1.4791  
G01 X-2.6315 Y1.4209  
G01 X-2.6303 Y1.4148  
G01 X-2.6279 Y1.4091  
G01 X-2.6254 Y1.4054  
G01 X-2.8730 Y1.1673  
G01 X-2.8732 Y1.1672  
G01 X-2.8751 Y1.1653  
G01 X-2.8769 Y1.1635  
G01 X-2.8771 Y1.1634  
G01 X-2.8772 Y1.1632  
G01 X-2.8785 Y1.1609  
G01 X-2.8799 Y1.1587  
G01 X-2.8799 Y1.1585  
G01 X-2.8800 Y1.1583  
G01 X-2.8807 Y1.1558  
G01 X-2.8814 Y1.1533  
G01 X-2.8814 Y1.1530  
G01 X-2.8815 Y1.1528  
G01 X-2.8815 Y1.1502  
G01 X-2.8816 Y1.1476  
G01 X-2.8815 Y1.1474  
G01 X-2.8815 Y0.6515  
G01 X-2.8817 Y0.6503  
G01 X-2.8815 Y0.6487  
G01 X-2.8815 Y0.6472  
G01 X-2.8812 Y0.6459  
G01 X-2.8810 Y0.6446  
G01 X-2.8804 Y0.6432  
G01 X-2.8800 Y0.6417  
G01 X-2.8794 Y0.6406  
G01 X-2.8345 Y0.5284  
G01 X-2.8445 Y0.5184  
G01 X-2.8445 Y0.4816  
G01 X-2.8184 Y0.4555  
G01 X-2.7816 Y0.4555  
G01 X-2.7555 Y0.4816  
G01 X-2.7555 Y0.5184  
G01 X-2.7816 Y0.5445  
G01 X-2.7946 Y0.5445  
G01 X-2.8385 Y0.6541  
G01 X-2.8385 Y1.1408  
G00 Z0.0500  
G00 X-2.9035 Y1.2417  
G01 Z-0.0035 F10    
G01 X-2.7354 Y1.4285  F20    
G01 X-2.7315 Y1.4285  
G01 X-2.7315 Y1.4209  
G01 X-2.7303 Y1.4148  
G01 X-2.7279 Y1.4091  
G01 X-2.7245 Y1.4039  
G01 X-2.7201 Y1.3995  
G01 X-2.7149 Y1.3961  
G01 X-2.7092 Y1.3937  
G01 X-2.7031 Y1.3925  
G01 X-2.6969 Y1.3925  
G01 X-2.6908 Y1.3937  
G01 X-2.6851 Y1.3961  
G01 X-2.6799 Y1.3995  
G01 X-2.6755 Y1.4039  
G01 X-2.6721 Y1.4091  
G01 X-2.6697 Y1.4148  
G01 X-2.6685 Y1.4209  
G01 X-2.6685 Y1.4791  
G01 X-2.6697 Y1.4852  
G01 X-2.6721 Y1.4909  
G01 X-2.6755 Y1.4961  
G01 X-2.6799 Y1.5005  
G01 X-2.6851 Y1.5039  
G01 X-2.6908 Y1.5063  
G01 X-2.6969 Y1.5075  
G01 X-2.7031 Y1.5075  
G01 X-2.7092 Y1.5063  
G01 X-2.7149 Y1.5039  
G01 X-2.7201 Y1.5005  
G01 X-2.7245 Y1.4961  
G01 X-2.7279 Y1.4909  
G01 X-2.7303 Y1.4852  
G01 X-2.7315 Y1.4791  
G01 X-2.7315 Y1.4715  
G01 X-2.7427 Y1.4715  
G01 X-2.7433 Y1.4716  
G01 X-2.7456 Y1.4715  
G01 X-2.7478 Y1.4715  
G01 X-2.7484 Y1.4714  
G01 X-2.7490 Y1.4713  
G01 X-2.7511 Y1.4706  
G01 X-2.7533 Y1.4700  
G01 X-2.7538 Y1.4697  
G01 X-2.7543 Y1.4696  
G01 X-2.7562 Y1.4683  
G01 X-2.7582 Y1.4672  
G01 X-2.7586 Y1.4668  
G01 X-2.7591 Y1.4665  
G01 X-2.7606 Y1.4648  
G01 X-2.7622 Y1.4632  
G01 X-2.7625 Y1.4627  
G01 X-2.9406 Y1.2648  
G01 X-2.9422 Y1.2632  
G01 X-2.9425 Y1.2627  
G01 X-2.9429 Y1.2623  
G01 X-2.9439 Y1.2603  
G01 X-2.9450 Y1.2583  
G01 X-2.9452 Y1.2577  
G01 X-2.9454 Y1.2572  
G01 X-2.9459 Y1.2550  
G01 X-2.9465 Y1.2528  
G01 X-2.9465 Y1.2523  
G01 X-2.9466 Y1.2517  
G01 X-2.9465 Y1.2494  
G01 X-2.9465 Y0.3922  
G01 X-2.9450 Y0.3867  
G01 X-2.9422 Y0.3818  
G01 X-2.9382 Y0.3778  
G01 X-2.9333 Y0.3750  
G01 X-2.9278 Y0.3735  
G01 X-2.3259 Y0.3735  
G01 X-2.3240 Y0.3733  
G01 X-2.3231 Y0.3735  
G01 X-2.3222 Y0.3735  
G01 X-2.3203 Y0.3740  
G01 X-2.3185 Y0.3743  
G01 X-2.3176 Y0.3747  
G01 X-2.3167 Y0.3750  
G01 X-2.3151 Y0.3759  
G01 X-2.3133 Y0.3767  
G01 X-2.3126 Y0.3773  
G01 X-2.3118 Y0.3778  
G01 X-2.3105 Y0.3791  
G01 X-2.2189 Y0.4560  
G01 X-2.2184 Y0.4555  
G01 X-2.1816 Y0.4555  
G01 X-2.1555 Y0.4816  
G01 X-2.1555 Y0.5184  
G01 X-2.1816 Y0.5445  
G01 X-2.2184 Y0.5445  
G01 X-2.2445 Y0.5184  
G01 X-2.2445 Y0.4907  
G01 X-2.3328 Y0.4165  
G01 X-2.9035 Y0.4165  
G01 X-2.9035 Y1.2417  
G00 Z0.0500  
G00 X-2.5201 Y1.3995  
G01 Z-0.0035 F10    
G01 X-2.5149 Y1.3961  F20    
G01 X-2.5092 Y1.3937  
G01 X-2.5031 Y1.3925  
G01 X-2.4969 Y1.3925  
G01 X-2.4908 Y1.3937  
G01 X-2.4851 Y1.3961  
G01 X-2.4799 Y1.3995  
G01 X-2.4755 Y1.4039  
G01 X-2.4721 Y1.4091  
G01 X-2.4697 Y1.4148  
G01 X-2.4685 Y1.4209  
G01 X-2.4685 Y1.4791  
G01 X-2.4697 Y1.4852  
G01 X-2.4721 Y1.4909  
G01 X-2.4755 Y1.4961  
G01 X-2.4799 Y1.5005  
G01 X-2.4851 Y1.5039  
G01 X-2.4908 Y1.5063  
G01 X-2.4969 Y1.5075  
G01 X-2.5031 Y1.5075  
G01 X-2.5092 Y1.5063  
G01 X-2.5149 Y1.5039  
G01 X-2.5201 Y1.5005  
G01 X-2.5245 Y1.4961  
G01 X-2.5279 Y1.4909  
G01 X-2.5303 Y1.4852  
G01 X-2.5315 Y1.4791  
G01 X-2.5315 Y1.4209  
G01 X-2.5303 Y1.4148  
G01 X-2.5279 Y1.4091  
G01 X-2.5245 Y1.4039  
G01 X-2.5201 Y1.3995  
G00 Z0.0500  
G00 X-2.4201 Y1.3995  
G01 Z-0.0035 F10    
G01 X-2.4149 Y1.3961  F20    
G01 X-2.4092 Y1.3937  
G01 X-2.4031 Y1.3925  
G01 X-2.3969 Y1.3925  
G01 X-2.3908 Y1.3937  
G01 X-2.3851 Y1.3961  
G01 X-2.3799 Y1.3995  
G01 X-2.3755 Y1.4039  
G01 X-2.3721 Y1.4091  
G01 X-2.3697 Y1.4148  
G01 X-2.3685 Y1.4209  
G01 X-2.3685 Y1.4791  
G01 X-2.3697 Y1.4852  
G01 X-2.3721 Y1.4909  
G01 X-2.3755 Y1.4961  
G01 X-2.3799 Y1.5005  
G01 X-2.3851 Y1.5039  
G01 X-2.3908 Y1.5063  
G01 X-2.3969 Y1.5075  
G01 X-2.4031 Y1.5075  
G01 X-2.4092 Y1.5063  
G01 X-2.4149 Y1.5039  
G01 X-2.4201 Y1.5005  
G01 X-2.4245 Y1.4961  
G01 X-2.4279 Y1.4909  
G01 X-2.4303 Y1.4852  
G01 X-2.4315 Y1.4791  
G01 X-2.4315 Y1.4209  
G01 X-2.4303 Y1.4148  
G01 X-2.4279 Y1.4091  
G01 X-2.4245 Y1.4039  
G01 X-2.4201 Y1.3995  
G00 Z0.0500  
G00 X-2.3201 Y1.3995  
G01 Z-0.0035 F10    
G01 X-2.3149 Y1.3961  F20    
G01 X-2.3092 Y1.3937  
G01 X-2.3031 Y1.3925  
G01 X-2.2969 Y1.3925  
G01 X-2.2908 Y1.3937  
G01 X-2.2851 Y1.3961  
G01 X-2.2799 Y1.3995  
G01 X-2.2755 Y1.4039  
G01 X-2.2721 Y1.4091  
G01 X-2.2697 Y1.4148  
G01 X-2.2685 Y1.4209  
G01 X-2.2685 Y1.4791  
G01 X-2.2697 Y1.4852  
G01 X-2.2721 Y1.4909  
G01 X-2.2755 Y1.4961  
G01 X-2.2799 Y1.5005  
G01 X-2.2851 Y1.5039  
G01 X-2.2908 Y1.5063  
G01 X-2.2969 Y1.5075  
G01 X-2.3031 Y1.5075  
G01 X-2.3092 Y1.5063  
G01 X-2.3149 Y1.5039  
G01 X-2.3201 Y1.5005  
G01 X-2.3245 Y1.4961  
G01 X-2.3279 Y1.4909  
G01 X-2.3303 Y1.4852  
G01 X-2.3315 Y1.4791  
G01 X-2.3315 Y1.4209  
G01 X-2.3303 Y1.4148  
G01 X-2.3279 Y1.4091  
G01 X-2.3245 Y1.4039  
G01 X-2.3201 Y1.3995  
G00 Z0.0500  
G00 X-2.2201 Y1.3995  
G01 Z-0.0035 F10    
G01 X-2.2149 Y1.3961  F20    
G01 X-2.2092 Y1.3937  
G01 X-2.2031 Y1.3925  
G01 X-2.1969 Y1.3925  
G01 X-2.1908 Y1.3937  
G01 X-2.1851 Y1.3961  
G01 X-2.1799 Y1.3995  
G01 X-2.1755 Y1.4039  
G01 X-2.1721 Y1.4091  
G01 X-2.1697 Y1.4148  
G01 X-2.1685 Y1.4209  
G01 X-2.1685 Y1.4791  
G01 X-2.1697 Y1.4852  
G01 X-2.1721 Y1.4909  
G01 X-2.1755 Y1.4961  
G01 X-2.1799 Y1.5005  
G01 X-2.1851 Y1.5039  
G01 X-2.1908 Y1.5063  
G01 X-2.1969 Y1.5075  
G01 X-2.2031 Y1.5075  
G01 X-2.2092 Y1.5063  
G01 X-2.2149 Y1.5039  
G01 X-2.2201 Y1.5005  
G01 X-2.2245 Y1.4961  
G01 X-2.2279 Y1.4909  
G01 X-2.2303 Y1.4852  
G01 X-2.2315 Y1.4791  
G01 X-2.2315 Y1.4209  
G01 X-2.2303 Y1.4148  
G01 X-2.2279 Y1.4091  
G01 X-2.2245 Y1.4039  
G01 X-2.2201 Y1.3995  
G00 Z0.0500  
G00 X-2.1201 Y1.3995  
G01 Z-0.0035 F10    
G01 X-2.1149 Y1.3961  F20    
G01 X-2.1092 Y1.3937  
G01 X-2.1031 Y1.3925  
G01 X-2.0969 Y1.3925  
G01 X-2.0908 Y1.3937  
G01 X-2.0851 Y1.3961  
G01 X-2.0799 Y1.3995  
G01 X-2.0755 Y1.4039  
G01 X-2.0721 Y1.4091  
G01 X-2.0697 Y1.4148  
G01 X-2.0685 Y1.4209  
G01 X-2.0685 Y1.4791  
G01 X-2.0697 Y1.4852  
G01 X-2.0721 Y1.4909  
G01 X-2.0755 Y1.4961  
G01 X-2.0799 Y1.5005  
G01 X-2.0851 Y1.5039  
G01 X-2.0908 Y1.5063  
G01 X-2.0969 Y1.5075  
G01 X-2.1031 Y1.5075  
G01 X-2.1092 Y1.5063  
G01 X-2.1149 Y1.5039  
G01 X-2.1201 Y1.5005  
G01 X-2.1245 Y1.4961  
G01 X-2.1279 Y1.4909  
G01 X-2.1303 Y1.4852  
G01 X-2.1315 Y1.4791  
G01 X-2.1315 Y1.4209  
G01 X-2.1303 Y1.4148  
G01 X-2.1279 Y1.4091  
G01 X-2.1245 Y1.4039  
G01 X-2.1201 Y1.3995  
G00 Z0.0500  
G00 X-1.9201 Y1.3995  
G01 Z-0.0035 F10    
G01 X-1.9149 Y1.3961  F20    
G01 X-1.9092 Y1.3937  
G01 X-1.9031 Y1.3925  
G01 X-1.8969 Y1.3925  
G01 X-1.8908 Y1.3937  
G01 X-1.8851 Y1.3961  
G01 X-1.8799 Y1.3995  
G01 X-1.8755 Y1.4039  
G01 X-1.8721 Y1.4091  
G01 X-1.8697 Y1.4148  
G01 X-1.8685 Y1.4209  
G01 X-1.8685 Y1.4791  
G01 X-1.8697 Y1.4852  
G01 X-1.8721 Y1.4909  
G01 X-1.8755 Y1.4961  
G01 X-1.8785 Y1.4990  
G01 X-1.8785 Y1.5924  
G01 X-1.8776 Y1.5930  
G01 X-1.8727 Y1.5979  
G01 X-1.8688 Y1.6036  
G01 X-1.8662 Y1.6101  
G01 X-1.8648 Y1.6168  
G01 X-1.8648 Y1.6832  
G01 X-1.8662 Y1.6899  
G01 X-1.8688 Y1.6964  
G01 X-1.8727 Y1.7021  
G01 X-1.8776 Y1.7070  
G01 X-1.8833 Y1.7109  
G01 X-1.8897 Y1.7135  
G01 X-1.8965 Y1.7149  
G01 X-1.9035 Y1.7149  
G01 X-1.9103 Y1.7135  
G01 X-1.9167 Y1.7109  
G01 X-1.9224 Y1.7070  
G01 X-1.9273 Y1.7021  
G01 X-1.9312 Y1.6964  
G01 X-1.9338 Y1.6899  
G01 X-1.9352 Y1.6832  
G01 X-1.9352 Y1.6168  
G01 X-1.9338 Y1.6101  
G01 X-1.9312 Y1.6036  
G01 X-1.9273 Y1.5979  
G01 X-1.9224 Y1.5930  
G01 X-1.9215 Y1.5924  
G01 X-1.9215 Y1.4990  
G01 X-1.9245 Y1.4961  
G01 X-1.9279 Y1.4909  
G01 X-1.9303 Y1.4852  
G01 X-1.9315 Y1.4791  
G01 X-1.9315 Y1.4209  
G01 X-1.9303 Y1.4148  
G01 X-1.9279 Y1.4091  
G01 X-1.9245 Y1.4039  
G01 X-1.9201 Y1.3995  
G00 Z0.0500  
G00 X-1.8201 Y1.3995  
G01 Z-0.0035 F10    
G01 X-1.8149 Y1.3961  F20    
G01 X-1.8092 Y1.3937  
G01 X-1.8031 Y1.3925  
G01 X-1.7969 Y1.3925  
G01 X-1.7908 Y1.3937  
G01 X-1.7851 Y1.3961  
G01 X-1.7799 Y1.3995  
G01 X-1.7755 Y1.4039  
G01 X-1.7721 Y1.4091  
G01 X-1.7697 Y1.4148  
G01 X-1.7685 Y1.4209  
G01 X-1.7685 Y1.4791  
G01 X-1.7697 Y1.4852  
G01 X-1.7721 Y1.4909  
G01 X-1.7755 Y1.4961  
G01 X-1.7785 Y1.4990  
G01 X-1.7785 Y1.5924  
G01 X-1.7776 Y1.5930  
G01 X-1.7727 Y1.5979  
G01 X-1.7688 Y1.6036  
G01 X-1.7662 Y1.6101  
G01 X-1.7648 Y1.6168  
G01 X-1.7648 Y1.6832  
G01 X-1.7662 Y1.6899  
G01 X-1.7688 Y1.6964  
G01 X-1.7727 Y1.7021  
G01 X-1.7776 Y1.7070  
G01 X-1.7833 Y1.7109  
G01 X-1.7897 Y1.7135  
G01 X-1.7965 Y1.7149  
G01 X-1.8035 Y1.7149  
G01 X-1.8103 Y1.7135  
G01 X-1.8167 Y1.7109  
G01 X-1.8224 Y1.7070  
G01 X-1.8273 Y1.7021  
G01 X-1.8312 Y1.6964  
G01 X-1.8338 Y1.6899  
G01 X-1.8352 Y1.6832  
G01 X-1.8352 Y1.6168  
G01 X-1.8338 Y1.6101  
G01 X-1.8312 Y1.6036  
G01 X-1.8273 Y1.5979  
G01 X-1.8224 Y1.5930  
G01 X-1.8215 Y1.5924  
G01 X-1.8215 Y1.4990  
G01 X-1.8245 Y1.4961  
G01 X-1.8279 Y1.4909  
G01 X-1.8303 Y1.4852  
G01 X-1.8315 Y1.4791  
G01 X-1.8315 Y1.4209  
G01 X-1.8303 Y1.4148  
G01 X-1.8279 Y1.4091  
G01 X-1.8245 Y1.4039  
G01 X-1.8201 Y1.3995  
G00 Z0.0500  
G00 X-1.7201 Y1.3995  
G01 Z-0.0035 F10    
G01 X-1.7149 Y1.3961  F20    
G01 X-1.7092 Y1.3937  
G01 X-1.7031 Y1.3925  
G01 X-1.6969 Y1.3925  
G01 X-1.6908 Y1.3937  
G01 X-1.6851 Y1.3961  
G01 X-1.6799 Y1.3995  
G01 X-1.6755 Y1.4039  
G01 X-1.6721 Y1.4091  
G01 X-1.6697 Y1.4148  
G01 X-1.6685 Y1.4209  
G01 X-1.6685 Y1.4791  
G01 X-1.6697 Y1.4852  
G01 X-1.6721 Y1.4909  
G01 X-1.6755 Y1.4961  
G01 X-1.6785 Y1.4990  
G01 X-1.6785 Y1.5924  
G01 X-1.6776 Y1.5930  
G01 X-1.6727 Y1.5979  
G01 X-1.6688 Y1.6036  
G01 X-1.6662 Y1.6101  
G01 X-1.6648 Y1.6168  
G01 X-1.6648 Y1.6832  
G01 X-1.6662 Y1.6899  
G01 X-1.6688 Y1.6964  
G01 X-1.6727 Y1.7021  
G01 X-1.6776 Y1.7070  
G01 X-1.6833 Y1.7109  
G01 X-1.6897 Y1.7135  
G01 X-1.6965 Y1.7149  
G01 X-1.7035 Y1.7149  
G01 X-1.7103 Y1.7135  
G01 X-1.7167 Y1.7109  
G01 X-1.7224 Y1.7070  
G01 X-1.7273 Y1.7021  
G01 X-1.7312 Y1.6964  
G01 X-1.7338 Y1.6899  
G01 X-1.7352 Y1.6832  
G01 X-1.7352 Y1.6168  
G01 X-1.7338 Y1.6101  
G01 X-1.7312 Y1.6036  
G01 X-1.7273 Y1.5979  
G01 X-1.7224 Y1.5930  
G01 X-1.7215 Y1.5924  
G01 X-1.7215 Y1.4990  
G01 X-1.7245 Y1.4961  
G01 X-1.7279 Y1.4909  
G01 X-1.7303 Y1.4852  
G01 X-1.7315 Y1.4791  
G01 X-1.7315 Y1.4209  
G01 X-1.7303 Y1.4148  
G01 X-1.7279 Y1.4091  
G01 X-1.7245 Y1.4039  
G01 X-1.7201 Y1.3995  
G00 Z0.0500  
G00 X-1.6201 Y1.3995  
G01 Z-0.0035 F10    
G01 X-1.6149 Y1.3961  F20    
G01 X-1.6092 Y1.3937  
G01 X-1.6031 Y1.3925  
G01 X-1.5969 Y1.3925  
G01 X-1.5908 Y1.3937  
G01 X-1.5851 Y1.3961  
G01 X-1.5799 Y1.3995  
G01 X-1.5755 Y1.4039  
G01 X-1.5721 Y1.4091  
G01 X-1.5697 Y1.4148  
G01 X-1.5685 Y1.4209  
G01 X-1.5685 Y1.4791  
G01 X-1.5697 Y1.4852  
G01 X-1.5721 Y1.4909  
G01 X-1.5755 Y1.4961  
G01 X-1.5785 Y1.4990  
G01 X-1.5785 Y1.5924  
G01 X-1.5776 Y1.5930  
G01 X-1.5727 Y1.5979  
G01 X-1.5688 Y1.6036  
G01 X-1.5662 Y1.6101  
G01 X-1.5648 Y1.6168  
G01 X-1.5648 Y1.6832  
G01 X-1.5662 Y1.6899  
G01 X-1.5688 Y1.6964  
G01 X-1.5727 Y1.7021  
G01 X-1.5776 Y1.7070  
G01 X-1.5833 Y1.7109  
G01 X-1.5897 Y1.7135  
G01 X-1.5965 Y1.7149  
G01 X-1.6035 Y1.7149  
G01 X-1.6103 Y1.7135  
G01 X-1.6167 Y1.7109  
G01 X-1.6224 Y1.7070  
G01 X-1.6273 Y1.7021  
G01 X-1.6312 Y1.6964  
G01 X-1.6338 Y1.6899  
G01 X-1.6352 Y1.6832  
G01 X-1.6352 Y1.6168  
G01 X-1.6338 Y1.6101  
G01 X-1.6312 Y1.6036  
G01 X-1.6273 Y1.5979  
G01 X-1.6224 Y1.5930  
G01 X-1.6215 Y1.5924  
G01 X-1.6215 Y1.4990  
G01 X-1.6245 Y1.4961  
G01 X-1.6279 Y1.4909  
G01 X-1.6303 Y1.4852  
G01 X-1.6315 Y1.4791  
G01 X-1.6315 Y1.4209  
G01 X-1.6303 Y1.4148  
G01 X-1.6279 Y1.4091  
G01 X-1.6245 Y1.4039  
G01 X-1.6201 Y1.3995  
G00 Z0.0500  
G00 X-1.5201 Y1.3995  
G01 Z-0.0035 F10    
G01 X-1.5149 Y1.3961  F20    
G01 X-1.5092 Y1.3937  
G01 X-1.5031 Y1.3925  
G01 X-1.4969 Y1.3925  
G01 X-1.4908 Y1.3937  
G01 X-1.4851 Y1.3961  
G01 X-1.4799 Y1.3995  
G01 X-1.4755 Y1.4039  
G01 X-1.4721 Y1.4091  
G01 X-1.4697 Y1.4148  
G01 X-1.4685 Y1.4209  
G01 X-1.4685 Y1.4791  
G01 X-1.4697 Y1.4852  
G01 X-1.4721 Y1.4909  
G01 X-1.4755 Y1.4961  
G01 X-1.4785 Y1.4990  
G01 X-1.4785 Y1.5924  
G01 X-1.4776 Y1.5930  
G01 X-1.4727 Y1.5979  
G01 X-1.4688 Y1.6036  
G01 X-1.4662 Y1.6101  
G01 X-1.4648 Y1.6168  
G01 X-1.4648 Y1.6832  
G01 X-1.4662 Y1.6899  
G01 X-1.4688 Y1.6964  
G01 X-1.4727 Y1.7021  
G01 X-1.4776 Y1.7070  
G01 X-1.4833 Y1.7109  
G01 X-1.4897 Y1.7135  
G01 X-1.4965 Y1.7149  
G01 X-1.5035 Y1.7149  
G01 X-1.5103 Y1.7135  
G01 X-1.5167 Y1.7109  
G01 X-1.5224 Y1.7070  
G01 X-1.5273 Y1.7021  
G01 X-1.5312 Y1.6964  
G01 X-1.5338 Y1.6899  
G01 X-1.5352 Y1.6832  
G01 X-1.5352 Y1.6168  
G01 X-1.5338 Y1.6101  
G01 X-1.5312 Y1.6036  
G01 X-1.5273 Y1.5979  
G01 X-1.5224 Y1.5930  
G01 X-1.5215 Y1.5924  
G01 X-1.5215 Y1.4990  
G01 X-1.5245 Y1.4961  
G01 X-1.5279 Y1.4909  
G01 X-1.5303 Y1.4852  
G01 X-1.5315 Y1.4791  
G01 X-1.5315 Y1.4209  
G01 X-1.5303 Y1.4148  
G01 X-1.5279 Y1.4091  
G01 X-1.5245 Y1.4039  
G01 X-1.5201 Y1.3995  
G00 Z0.0500  
G00 X-1.4201 Y1.3995  
G01 Z-0.0035 F10    
G01 X-1.4149 Y1.3961  F20    
G01 X-1.4092 Y1.3937  
G01 X-1.4031 Y1.3925  
G01 X-1.3969 Y1.3925  
G01 X-1.3908 Y1.3937  
G01 X-1.3851 Y1.3961  
G01 X-1.3799 Y1.3995  
G01 X-1.3755 Y1.4039  
G01 X-1.3721 Y1.4091  
G01 X-1.3697 Y1.4148  
G01 X-1.3685 Y1.4209  
G01 X-1.3685 Y1.4791  
G01 X-1.3697 Y1.4852  
G01 X-1.3721 Y1.4909  
G01 X-1.3755 Y1.4961  
G01 X-1.3785 Y1.4990  
G01 X-1.3785 Y1.5924  
G01 X-1.3776 Y1.5930  
G01 X-1.3727 Y1.5979  
G01 X-1.3688 Y1.6036  
G01 X-1.3662 Y1.6101  
G01 X-1.3648 Y1.6168  
G01 X-1.3648 Y1.6832  
G01 X-1.3662 Y1.6899  
G01 X-1.3688 Y1.6964  
G01 X-1.3727 Y1.7021  
G01 X-1.3776 Y1.7070  
G01 X-1.3833 Y1.7109  
G01 X-1.3897 Y1.7135  
G01 X-1.3965 Y1.7149  
G01 X-1.4035 Y1.7149  
G01 X-1.4103 Y1.7135  
G01 X-1.4167 Y1.7109  
G01 X-1.4224 Y1.7070  
G01 X-1.4273 Y1.7021  
G01 X-1.4312 Y1.6964  
G01 X-1.4338 Y1.6899  
G01 X-1.4352 Y1.6832  
G01 X-1.4352 Y1.6168  
G01 X-1.4338 Y1.6101  
G01 X-1.4312 Y1.6036  
G01 X-1.4273 Y1.5979  
G01 X-1.4224 Y1.5930  
G01 X-1.4215 Y1.5924  
G01 X-1.4215 Y1.4990  
G01 X-1.4245 Y1.4961  
G01 X-1.4279 Y1.4909  
G01 X-1.4303 Y1.4852  
G01 X-1.4315 Y1.4791  
G01 X-1.4315 Y1.4209  
G01 X-1.4303 Y1.4148  
G01 X-1.4279 Y1.4091  
G01 X-1.4245 Y1.4039  
G01 X-1.4201 Y1.3995  
G00 Z0.0500  
G00 X-1.6299 Y0.5438  
G01 Z-0.0035 F10    
G01 X-1.6701 Y0.5438  F20    
G01 X-1.6985 Y0.5154  
G01 X-1.6985 Y0.4752  
G01 X-1.6701 Y0.4468  
G01 X-1.6299 Y0.4468  
G01 X-1.6015 Y0.4752  
G01 X-1.6015 Y0.5154  
G01 X-1.6299 Y0.5438  
G00 Z0.0500  
G00 X-1.1024 Y0.5154  
G01 Z-0.0035 F10    
G01 X-1.1024 Y0.4752  F20    
G01 X-1.0740 Y0.4468  
G01 X-1.0338 Y0.4468  
G01 X-1.0054 Y0.4752  
G01 X-1.0054 Y0.5154  
G01 X-1.0338 Y0.5438  
G01 X-1.0740 Y0.5438  
G01 X-1.1024 Y0.5154  
G00 Z0.0500  
G00 X-2.4555 Y0.5184  
G01 Z-0.0035 F10    
G01 X-2.4577 Y0.5206  F20    
G01 X-2.3555 Y0.6568  
G01 X-2.3534 Y0.6565  
G01 X-2.3466 Y0.6565  
G01 X-2.3398 Y0.6576  
G01 X-2.3333 Y0.6597  
G01 X-2.3272 Y0.6628  
G01 X-2.3217 Y0.6668  
G01 X-2.3168 Y0.6717  
G01 X-2.3128 Y0.6772  
G01 X-2.3097 Y0.6833  
G01 X-2.3076 Y0.6898  
G01 X-2.3065 Y0.6966  
G01 X-2.3065 Y0.7034  
G01 X-2.3076 Y0.7102  
G01 X-2.3097 Y0.7167  
G01 X-2.3128 Y0.7228  
G01 X-2.3168 Y0.7283  
G01 X-2.3217 Y0.7332  
G01 X-2.3272 Y0.7372  
G01 X-2.3333 Y0.7403  
G01 X-2.3398 Y0.7424  
G01 X-2.3466 Y0.7435  
G01 X-2.3534 Y0.7435  
G01 X-2.3602 Y0.7424  
G01 X-2.3667 Y0.7403  
G01 X-2.3728 Y0.7372  
G01 X-2.3783 Y0.7332  
G01 X-2.3832 Y0.7283  
G01 X-2.3872 Y0.7228  
G01 X-2.3903 Y0.7167  
G01 X-2.3924 Y0.7102  
G01 X-2.3935 Y0.7034  
G01 X-2.3935 Y0.6966  
G01 X-2.3924 Y0.6898  
G01 X-2.3903 Y0.6833  
G01 X-2.3899 Y0.6826  
G01 X-2.4935 Y0.5445  
G01 X-2.5184 Y0.5445  
G01 X-2.5445 Y0.5184  
G01 X-2.5445 Y0.4816  
G01 X-2.5184 Y0.4555  
G01 X-2.4816 Y0.4555  
G01 X-2.4555 Y0.4816  
G01 X-2.4555 Y0.5184  
G00 Z0.0500  
G00 X-2.6555 Y0.5816  
G01 Z-0.0035 F10    
G01 X-2.6555 Y0.6184  F20    
G01 X-2.6816 Y0.6445  
G01 X-2.7184 Y0.6445  
G01 X-2.7445 Y0.6184  
G01 X-2.7445 Y0.5816  
G01 X-2.7184 Y0.5555  
G01 X-2.6816 Y0.5555  
G01 X-2.6555 Y0.5816  
G00 Z0.0500  
G00 X-0.2490 Y0.0820  
G01 Z-0.0035 F10    
G01 X-0.2490 Y0.1243  F20    
G01 X-0.2789 Y0.1541  
G01 X-0.3211 Y0.1541  
G01 X-0.3423 Y0.1330  
G01 X-0.3577 Y0.1330  
G01 X-0.3789 Y0.1541  
G01 X-0.4211 Y0.1541  
G01 X-0.4423 Y0.1330  
G01 X-0.5577 Y0.1330  
G01 X-0.5789 Y0.1541  
G01 X-0.6211 Y0.1541  
G01 X-0.6423 Y0.1330  
G01 X-0.6577 Y0.1330  
G01 X-0.6789 Y0.1541  
G01 X-0.7211 Y0.1541  
G01 X-0.7423 Y0.1330  
G01 X-0.7996 Y0.1330  
G01 X-0.9178 Y0.5824  
G01 X-0.9183 Y0.5847  
G01 X-0.9187 Y0.5856  
G01 X-0.9189 Y0.5865  
G01 X-0.9199 Y0.5886  
G01 X-0.9208 Y0.5907  
G01 X-0.9213 Y0.5915  
G01 X-0.9218 Y0.5924  
G01 X-0.9231 Y0.5942  
G01 X-0.9244 Y0.5961  
G01 X-0.9251 Y0.5968  
G01 X-0.9257 Y0.5976  
G01 X-0.9274 Y0.5991  
G01 X-0.9290 Y0.6007  
G01 X-0.9298 Y0.6012  
G01 X-0.9306 Y0.6019  
G01 X-0.9325 Y0.6030  
G01 X-1.0951 Y0.7114  
G01 X-1.2235 Y0.8208  
G01 X-1.2420 Y0.8578  
G01 X-1.2420 Y0.9512  
G01 X-1.2141 Y0.9605  
G01 X-1.2002 Y0.9605  
G01 X-1.0700 Y0.8737  
G01 X-1.0692 Y0.8729  
G01 X-1.0673 Y0.8719  
G01 X-1.0656 Y0.8707  
G01 X-1.0645 Y0.8703  
G01 X-1.0635 Y0.8697  
G01 X-1.0615 Y0.8691  
G01 X-1.0596 Y0.8683  
G01 X-1.0585 Y0.8680  
G01 X-1.0009 Y0.8488  
G01 X-0.9975 Y0.8466  
G01 X-0.9907 Y0.8438  
G01 X-0.9834 Y0.8423  
G01 X-0.9796 Y0.8423  
G01 X-0.9759 Y0.8419  
G01 X-0.9694 Y0.8423  
G01 X-0.9166 Y0.8423  
G01 X-0.9093 Y0.8438  
G01 X-0.9025 Y0.8466  
G01 X-0.8963 Y0.8507  
G01 X-0.8937 Y0.8533  
G01 X-0.6297 Y0.8910  
G01 X-0.6217 Y0.8910  
G01 X-0.6151 Y0.8923  
G01 X-0.6089 Y0.8949  
G01 X-0.6033 Y0.8986  
G01 X-0.5986 Y0.9033  
G01 X-0.5949 Y0.9089  
G01 X-0.5923 Y0.9151  
G01 X-0.5910 Y0.9217  
G01 X-0.5910 Y0.9283  
G01 X-0.5923 Y0.9349  
G01 X-0.5949 Y0.9411  
G01 X-0.5986 Y0.9467  
G01 X-0.6033 Y0.9514  
G01 X-0.6089 Y0.9551  
G01 X-0.6151 Y0.9577  
G01 X-0.6217 Y0.9590  
G01 X-0.6803 Y0.9590  
G01 X-0.6869 Y0.9577  
G01 X-0.6931 Y0.9551  
G01 X-0.6987 Y0.9514  
G01 X-0.7029 Y0.9472  
G01 X-0.9137 Y0.9171  
G01 X-0.9166 Y0.9177  
G01 X-0.9834 Y0.9177  
G01 X-0.9907 Y0.9162  
G01 X-0.9923 Y0.9156  
G01 X-1.0354 Y0.9299  
G01 X-1.1605 Y1.0133  
G01 X-1.1605 Y1.0164  
G01 X-1.1836 Y1.0395  
G01 X-1.2164 Y1.0395  
G01 X-1.2316 Y1.0242  
G01 X-1.2835 Y1.0070  
G01 X-1.2846 Y1.0067  
G01 X-1.2865 Y1.0059  
G01 X-1.2885 Y1.0053  
G01 X-1.2895 Y1.0047  
G01 X-1.2906 Y1.0042  
G01 X-1.2924 Y1.0031  
G01 X-1.2942 Y1.0021  
G01 X-1.2951 Y1.0013  
G01 X-1.2960 Y1.0006  
G01 X-1.2975 Y0.9992  
G01 X-1.2991 Y0.9978  
G01 X-1.2998 Y0.9969  
G01 X-1.3006 Y0.9960  
G01 X-1.3018 Y0.9943  
G01 X-1.3031 Y0.9927  
G01 X-1.3036 Y0.9916  
G01 X-1.3042 Y0.9906  
G01 X-1.3050 Y0.9887  
G01 X-1.3060 Y0.9869  
G01 X-1.3063 Y0.9857  
G01 X-1.3067 Y0.9846  
G01 X-1.3071 Y0.9826  
G01 X-1.3077 Y0.9806  
G01 X-1.3078 Y0.9794  
G01 X-1.3080 Y0.9783  
G01 X-1.3080 Y0.9762  
G01 X-1.3081 Y0.9741  
G01 X-1.3080 Y0.9729  
G01 X-1.3080 Y0.8521  
G01 X-1.3081 Y0.8509  
G01 X-1.3080 Y0.8488  
G01 X-1.3080 Y0.8467  
G01 X-1.3078 Y0.8456  
G01 X-1.3077 Y0.8444  
G01 X-1.3071 Y0.8424  
G01 X-1.3067 Y0.8404  
G01 X-1.3063 Y0.8393  
G01 X-1.3060 Y0.8381  
G01 X-1.3050 Y0.8363  
G01 X-1.3042 Y0.8344  
G01 X-1.3036 Y0.8334  
G01 X-1.2809 Y0.7880  
G01 X-1.2809 Y0.7879  
G01 X-1.2795 Y0.7851  
G01 X-1.2781 Y0.7823  
G01 X-1.2780 Y0.7822  
G01 X-1.2779 Y0.7821  
G01 X-1.2760 Y0.7797  
G01 X-1.2741 Y0.7772  
G01 X-1.2740 Y0.7771  
G01 X-1.2739 Y0.7770  
G01 X-1.2715 Y0.7750  
G01 X-1.2692 Y0.7729  
G01 X-1.2690 Y0.7729  
G01 X-1.1374 Y0.6607  
G01 X-1.1360 Y0.6593  
G01 X-1.1349 Y0.6586  
G01 X-1.1339 Y0.6578  
G01 X-1.1322 Y0.6568  
G01 X-0.9787 Y0.5545  
G01 X-0.8678 Y0.1330  
G01 X-1.1077 Y0.1330  
G01 X-1.1289 Y0.1541  
G01 X-1.1711 Y0.1541  
G01 X-1.1923 Y0.1330  
G01 X-1.2077 Y0.1330  
G01 X-1.2289 Y0.1541  
G01 X-1.2711 Y0.1541  
G01 X-1.2923 Y0.1330  
G01 X-1.3170 Y0.1330  
G01 X-1.3170 Y0.4267  
G01 X-1.3142 Y0.4296  
G01 X-1.3098 Y0.4356  
G01 X-1.3064 Y0.4422  
G01 X-1.3042 Y0.4492  
G01 X-1.3030 Y0.4565  
G01 X-1.3030 Y0.5419  
G01 X-1.3042 Y0.5492  
G01 X-1.3064 Y0.5563  
G01 X-1.3098 Y0.5628  
G01 X-1.3142 Y0.5688  
G01 X-1.3194 Y0.5741  
G01 X-1.3254 Y0.5784  
G01 X-1.3320 Y0.5818  
G01 X-1.3390 Y0.5841  
G01 X-1.3463 Y0.5852  
G01 X-1.3537 Y0.5852  
G01 X-1.3610 Y0.5841  
G01 X-1.3680 Y0.5818  
G01 X-1.3746 Y0.5784  
G01 X-1.3806 Y0.5741  
G01 X-1.3858 Y0.5688  
G01 X-1.3902 Y0.5628  
G01 X-1.3936 Y0.5563  
G01 X-1.3958 Y0.5492  
G01 X-1.3970 Y0.5419  
G01 X-1.3970 Y0.4565  
G01 X-1.3958 Y0.4492  
G01 X-1.3936 Y0.4422  
G01 X-1.3902 Y0.4356  
G01 X-1.3858 Y0.4296  
G01 X-1.3830 Y0.4267  
G01 X-1.3830 Y0.1330  
G01 X-1.4077 Y0.1330  
G01 X-1.4289 Y0.1541  
G01 X-1.4711 Y0.1541  
G01 X-1.4923 Y0.1330  
G01 X-1.5077 Y0.1330  
G01 X-1.5289 Y0.1541  
G01 X-1.5342 Y0.1541  
G01 X-1.5343 Y0.1542  
G01 X-1.5403 Y0.1567  
G01 X-1.5467 Y0.1580  
G01 X-1.5532 Y0.1580  
G01 X-1.5596 Y0.1567  
G01 X-1.5656 Y0.1543  
G01 X-1.5658 Y0.1541  
G01 X-1.5711 Y0.1541  
G01 X-1.5818 Y0.1434  
G01 X-1.6370 Y0.1067  
G01 X-1.6370 Y0.3233  
G01 X-1.6383 Y0.3296  
G01 X-1.6408 Y0.3356  
G01 X-1.6444 Y0.3410  
G01 X-1.7256 Y0.4222  
G01 X-1.7266 Y0.4235  
G01 X-1.7278 Y0.4245  
G01 X-1.7290 Y0.4256  
G01 X-1.7304 Y0.4266  
G01 X-1.7317 Y0.4276  
G01 X-1.7331 Y0.4284  
G01 X-1.7344 Y0.4292  
G01 X-1.7359 Y0.4299  
G01 X-1.7374 Y0.4307  
G01 X-1.7389 Y0.4311  
G01 X-1.7404 Y0.4317  
G01 X-1.7420 Y0.4321  
G01 X-1.8623 Y0.4681  
G01 X-1.8836 Y0.4895  
G01 X-1.9164 Y0.4895  
G01 X-1.9231 Y0.4828  
G01 X-2.0334 Y0.6196  
G01 X-2.0344 Y0.6210  
G01 X-2.0354 Y0.6221  
G01 X-2.0364 Y0.6232  
G01 X-2.0377 Y0.6244  
G01 X-2.0390 Y0.6256  
G01 X-2.0402 Y0.6265  
G01 X-2.0413 Y0.6274  
G01 X-2.0429 Y0.6283  
G01 X-2.0444 Y0.6292  
G01 X-2.0457 Y0.6298  
G01 X-2.0470 Y0.6305  
G01 X-2.0487 Y0.6311  
G01 X-2.0504 Y0.6317  
G01 X-2.0518 Y0.6320  
G01 X-2.0533 Y0.6325  
G01 X-2.0550 Y0.6327  
G01 X-2.0567 Y0.6330  
G01 X-2.0582 Y0.6330  
G01 X-2.0597 Y0.6332  
G01 X-2.0615 Y0.6330  
G01 X-2.2203 Y0.6330  
G01 X-2.1494 Y0.7040  
G01 X-2.1458 Y0.7094  
G01 X-2.1433 Y0.7154  
G01 X-2.1420 Y0.7217  
G01 X-2.1420 Y0.7648  
G01 X-2.0725 Y0.8670  
G01 X-1.8967 Y0.8670  
G01 X-1.8912 Y0.8681  
G01 X-1.8891 Y0.8660  
G01 X-1.8609 Y0.8660  
G01 X-1.8410 Y0.8859  
G01 X-1.8410 Y0.9141  
G01 X-1.8609 Y0.9340  
G01 X-1.8891 Y0.9340  
G01 X-1.8911 Y0.9320  
G01 X-2.0440 Y1.1035  
G01 X-2.0660 Y1.1287  
G01 X-2.0660 Y1.1680  
G01 X-1.9707 Y1.3360  
G01 X-1.2741 Y1.3360  
G01 X-1.2641 Y1.3260  
G01 X-1.2359 Y1.3260  
G01 X-1.2160 Y1.3459  
G01 X-1.2160 Y1.3741  
G01 X-1.2359 Y1.3940  
G01 X-1.2641 Y1.3940  
G01 X-1.2741 Y1.3840  
G01 X-1.9637 Y1.3840  
G01 X-1.9664 Y1.4186  
G01 X-1.9660 Y1.4207  
G01 X-1.9660 Y1.4793  
G01 X-1.9670 Y1.4844  
G01 X-1.9670 Y1.6019  
G01 X-1.9666 Y1.6025  
G01 X-1.9638 Y1.6093  
G01 X-1.9623 Y1.6166  
G01 X-1.9623 Y1.6834  
G01 X-1.9638 Y1.6907  
G01 X-1.9666 Y1.6975  
G01 X-1.9707 Y1.7037  
G01 X-1.9760 Y1.7090  
G01 X-1.9821 Y1.7131  
G01 X-1.9890 Y1.7159  
G01 X-1.9963 Y1.7174  
G01 X-2.0037 Y1.7174  
G01 X-2.0110 Y1.7159  
G01 X-2.0179 Y1.7131  
G01 X-2.0240 Y1.7090  
G01 X-2.0293 Y1.7037  
G01 X-2.0334 Y1.6975  
G01 X-2.0362 Y1.6907  
G01 X-2.0377 Y1.6834  
G01 X-2.0377 Y1.6166  
G01 X-2.0362 Y1.6093  
G01 X-2.0334 Y1.6025  
G01 X-2.0330 Y1.6019  
G01 X-2.0330 Y1.4844  
G01 X-2.0340 Y1.4793  
G01 X-2.0340 Y1.4207  
G01 X-2.0327 Y1.4141  
G01 X-2.0322 Y1.4128  
G01 X-2.0287 Y1.3675  
G01 X-2.1233 Y1.2008  
G01 X-2.1264 Y1.1977  
G01 X-2.1301 Y1.1921  
G01 X-2.1327 Y1.1859  
G01 X-2.1340 Y1.1793  
G01 X-2.1340 Y1.1207  
G01 X-2.1327 Y1.1141  
G01 X-2.1301 Y1.1079  
G01 X-2.1264 Y1.1023  
G01 X-2.1217 Y1.0976  
G01 X-2.1161 Y1.0939  
G01 X-2.1099 Y1.0913  
G01 X-2.1073 Y1.0908  
G01 X-2.0878 Y1.0685  
G01 X-2.0877 Y1.0684  
G01 X-2.0860 Y1.0665  
G01 X-2.0843 Y1.0645  
G01 X-2.0841 Y1.0644  
G01 X-1.9670 Y0.9330  
G01 X-2.0749 Y0.9330  
G01 X-2.0759 Y0.9340  
G01 X-2.1041 Y0.9340  
G01 X-2.1240 Y0.9141  
G01 X-2.1240 Y0.9087  
G01 X-2.1986 Y0.7990  
G01 X-2.6581 Y0.7990  
G01 X-2.6885 Y0.8834  
G01 X-2.6860 Y0.8859  
G01 X-2.6860 Y0.9141  
G01 X-2.7059 Y0.9340  
G01 X-2.7341 Y0.9340  
G01 X-2.7540 Y0.9141  
G01 X-2.7540 Y0.8859  
G01 X-2.7341 Y0.8660  
G01 X-2.7333 Y0.8660  
G01 X-2.6982 Y0.7686  
G01 X-2.6981 Y0.7680  
G01 X-2.6974 Y0.7663  
G01 X-2.6968 Y0.7646  
G01 X-2.6965 Y0.7642  
G01 X-2.6963 Y0.7636  
G01 X-2.6953 Y0.7621  
G01 X-2.6943 Y0.7606  
G01 X-2.6940 Y0.7602  
G01 X-2.6936 Y0.7597  
G01 X-2.6924 Y0.7584  
G01 X-2.6912 Y0.7571  
G01 X-2.6907 Y0.7568  
G01 X-2.6903 Y0.7564  
G01 X-2.6888 Y0.7554  
G01 X-2.6874 Y0.7543  
G01 X-2.6868 Y0.7540  
G01 X-2.6864 Y0.7537  
G01 X-2.6847 Y0.7530  
G01 X-2.6831 Y0.7523  
G01 X-2.6825 Y0.7521  
G01 X-2.6820 Y0.7519  
G01 X-2.6802 Y0.7516  
G01 X-2.6785 Y0.7511  
G01 X-2.6779 Y0.7511  
G01 X-2.6774 Y0.7510  
G01 X-2.6756 Y0.7510  
G01 X-2.6738 Y0.7509  
G01 X-2.6732 Y0.7510  
G01 X-2.2080 Y0.7510  
G01 X-2.2080 Y0.7387  
G01 X-2.2997 Y0.6470  
G01 X-2.3195 Y0.6470  
G01 X-2.3470 Y0.6195  
G01 X-2.3470 Y0.5805  
G01 X-2.3195 Y0.5530  
G01 X-2.2805 Y0.5530  
G01 X-2.2665 Y0.5670  
G01 X-2.0758 Y0.5670  
G01 X-1.9586 Y0.4218  
G01 X-1.9537 Y0.4176  
G01 X-1.9480 Y0.4145  
G01 X-1.9417 Y0.4125  
G01 X-1.9353 Y0.4118  
G01 X-1.9288 Y0.4124  
G01 X-1.9226 Y0.4143  
G01 X-1.9210 Y0.4151  
G01 X-1.9164 Y0.4105  
G01 X-1.8998 Y0.4105  
G01 X-1.7675 Y0.3708  
G01 X-1.7030 Y0.3063  
G01 X-1.7030 Y0.0780  
G01 X-2.3313 Y0.0780  
G01 X-2.3530 Y0.0997  
G01 X-2.3530 Y0.1037  
G01 X-2.3542 Y0.1110  
G01 X-2.3564 Y0.1180  
G01 X-2.3598 Y0.1246  
G01 X-2.3642 Y0.1306  
G01 X-2.3694 Y0.1358  
G01 X-2.3754 Y0.1402  
G01 X-2.3820 Y0.1436  
G01 X-2.3890 Y0.1458  
G01 X-2.3963 Y0.1470  
G01 X-2.4037 Y0.1470  
G01 X-2.4110 Y0.1458  
G01 X-2.4180 Y0.1436  
G01 X-2.4246 Y0.1402  
G01 X-2.4306 Y0.1358  
G01 X-2.4335 Y0.1330  
G01 X-2.5665 Y0.1330  
G01 X-2.5694 Y0.1358  
G01 X-2.5754 Y0.1402  
G01 X-2.5820 Y0.1436  
G01 X-2.5890 Y0.1458  
G01 X-2.5963 Y0.1470  
G01 X-2.6037 Y0.1470  
G01 X-2.6110 Y0.1458  
G01 X-2.6180 Y0.1436  
G01 X-2.6246 Y0.1402  
G01 X-2.6306 Y0.1358  
G01 X-2.6358 Y0.1306  
G01 X-2.6402 Y0.1246  
G01 X-2.6436 Y0.1180  
G01 X-2.6458 Y0.1110  
G01 X-2.6470 Y0.1037  
G01 X-2.6470 Y0.0963  
G01 X-2.6458 Y0.0890  
G01 X-2.6436 Y0.0820  
G01 X-2.6402 Y0.0754  
G01 X-2.6358 Y0.0694  
G01 X-2.6306 Y0.0642  
G01 X-2.6246 Y0.0598  
G01 X-2.6180 Y0.0564  
G01 X-2.6110 Y0.0542  
G01 X-2.6037 Y0.0530  
G01 X-2.5963 Y0.0530  
G01 X-2.5890 Y0.0542  
G01 X-2.5820 Y0.0564  
G01 X-2.5754 Y0.0598  
G01 X-2.5694 Y0.0642  
G01 X-2.5665 Y0.0670  
G01 X-2.4335 Y0.0670  
G01 X-2.4306 Y0.0642  
G01 X-2.4246 Y0.0598  
G01 X-2.4180 Y0.0564  
G01 X-2.4110 Y0.0542  
G01 X-2.4037 Y0.0530  
G01 X-2.3997 Y0.0530  
G01 X-2.3706 Y0.0240  
G01 X-2.3660 Y0.0194  
G01 X-2.3606 Y0.0158  
G01 X-2.3546 Y0.0133  
G01 X-2.3483 Y0.0120  
G01 X-1.6700 Y0.0120  
G01 X-1.6668 Y0.0120  
G01 X-1.6636 Y0.0126  
G01 X-1.6604 Y0.0133  
G01 X-1.6574 Y0.0145  
G01 X-1.6544 Y0.0157  
G01 X-1.6517 Y0.0175  
G01 X-1.5826 Y0.0636  
G01 X-1.5711 Y0.0521  
G01 X-1.5289 Y0.0521  
G01 X-1.5140 Y0.0670  
G01 X-1.4860 Y0.0670  
G01 X-1.4711 Y0.0521  
G01 X-1.4289 Y0.0521  
G01 X-1.4140 Y0.0670  
G01 X-1.2860 Y0.0670  
G01 X-1.2711 Y0.0521  
G01 X-1.2289 Y0.0521  
G01 X-1.2140 Y0.0670  
G01 X-1.1860 Y0.0670  
G01 X-1.1711 Y0.0521  
G01 X-1.1289 Y0.0521  
G01 X-1.1140 Y0.0670  
G01 X-0.8272 Y0.0670  
G01 X-0.8262 Y0.0669  
G01 X-0.8240 Y0.0670  
G01 X-0.7360 Y0.0670  
G01 X-0.7211 Y0.0521  
G01 X-0.6789 Y0.0521  
G01 X-0.6640 Y0.0670  
G01 X-0.6360 Y0.0670  
G01 X-0.6211 Y0.0521  
G01 X-0.5789 Y0.0521  
G01 X-0.5640 Y0.0670  
G01 X-0.4360 Y0.0670  
G01 X-0.4211 Y0.0521  
G01 X-0.3789 Y0.0521  
G01 X-0.3640 Y0.0670  
G01 X-0.3360 Y0.0670  
G01 X-0.3211 Y0.0521  
G01 X-0.2789 Y0.0521  
G01 X-0.2490 Y0.0820  
G00 Z0.0500  
G00 X-0.2251 Y0.4443  
G01 Z-0.0035 F10    
G01 X-0.1828 Y0.4443  F20    
G01 X-0.1529 Y0.4742  
G01 X-0.1529 Y0.5164  
G01 X-0.1828 Y0.5463  
G01 X-0.2251 Y0.5463  
G01 X-0.2549 Y0.5164  
G01 X-0.2549 Y0.4742  
G01 X-0.2251 Y0.4443  
G00 Z0.0500  
G00 X-0.2490 Y0.5702  
G01 Z-0.0035 F10    
G01 X-0.2490 Y0.6125  F20    
G01 X-0.2760 Y0.6395  
G01 X-0.2760 Y0.8260  
G01 X-0.1976 Y0.8260  
G01 X-0.1930 Y0.8269  
G01 X-0.1886 Y0.8287  
G01 X-0.1852 Y0.8310  
G01 X-0.1785 Y0.8300  
G01 X-0.1715 Y0.8300  
G01 X-0.1645 Y0.8311  
G01 X-0.1577 Y0.8333  
G01 X-0.1514 Y0.8365  
G01 X-0.1457 Y0.8407  
G01 X-0.1407 Y0.8457  
G01 X-0.1365 Y0.8514  
G01 X-0.1333 Y0.8577  
G01 X-0.1311 Y0.8645  
G01 X-0.1300 Y0.8715  
G01 X-0.1300 Y0.8785  
G01 X-0.1311 Y0.8855  
G01 X-0.1333 Y0.8923  
G01 X-0.1365 Y0.8986  
G01 X-0.1407 Y0.9043  
G01 X-0.1457 Y0.9093  
G01 X-0.1510 Y0.9132  
G01 X-0.1510 Y0.9243  
G01 X-0.1509 Y0.9260  
G01 X-0.1510 Y0.9267  
G01 X-0.1510 Y0.9274  
G01 X-0.1513 Y0.9290  
G01 X-0.1516 Y0.9307  
G01 X-0.1518 Y0.9313  
G01 X-0.1519 Y0.9320  
G01 X-0.1526 Y0.9336  
G01 X-0.1531 Y0.9352  
G01 X-0.1535 Y0.9357  
G01 X-0.1537 Y0.9364  
G01 X-0.1547 Y0.9378  
G01 X-0.1555 Y0.9392  
G01 X-0.1560 Y0.9397  
G01 X-0.1564 Y0.9403  
G01 X-0.1576 Y0.9415  
G01 X-0.2401 Y1.0337  
G01 X-0.2403 Y1.0349  
G01 X-0.2429 Y1.0411  
G01 X-0.2466 Y1.0467  
G01 X-0.2513 Y1.0514  
G01 X-0.2569 Y1.0551  
G01 X-0.2631 Y1.0577  
G01 X-0.2697 Y1.0590  
G01 X-0.3283 Y1.0590  
G01 X-0.3349 Y1.0577  
G01 X-0.3411 Y1.0551  
G01 X-0.3467 Y1.0514  
G01 X-0.3514 Y1.0467  
G01 X-0.3551 Y1.0411  
G01 X-0.3577 Y1.0349  
G01 X-0.3590 Y1.0283  
G01 X-0.3590 Y1.0217  
G01 X-0.3577 Y1.0151  
G01 X-0.3551 Y1.0089  
G01 X-0.3514 Y1.0033  
G01 X-0.3467 Y0.9986  
G01 X-0.3411 Y0.9949  
G01 X-0.3349 Y0.9923  
G01 X-0.3283 Y0.9910  
G01 X-0.2697 Y0.9910  
G01 X-0.2668 Y0.9916  
G01 X-0.1990 Y0.9158  
G01 X-0.1990 Y0.9132  
G01 X-0.2043 Y0.9093  
G01 X-0.2093 Y0.9043  
G01 X-0.2135 Y0.8986  
G01 X-0.2167 Y0.8923  
G01 X-0.2189 Y0.8855  
G01 X-0.2200 Y0.8785  
G01 X-0.2200 Y0.8740  
G01 X-0.3024 Y0.8740  
G01 X-0.3070 Y0.8731  
G01 X-0.3114 Y0.8713  
G01 X-0.3153 Y0.8686  
G01 X-0.3186 Y0.8653  
G01 X-0.3213 Y0.8614  
G01 X-0.3231 Y0.8570  
G01 X-0.3240 Y0.8524  
G01 X-0.3240 Y0.6395  
G01 X-0.3510 Y0.6125  
G01 X-0.3510 Y0.5702  
G01 X-0.3211 Y0.5403  
G01 X-0.2789 Y0.5403  
G01 X-0.2490 Y0.5702  
G00 Z0.0500  
G00 X-0.4642 Y0.5688  
G01 Z-0.0035 F10    
G01 X-0.4694 Y0.5741  F20    
G01 X-0.4754 Y0.5784  
G01 X-0.4820 Y0.5818  
G01 X-0.4890 Y0.5841  
G01 X-0.4963 Y0.5852  
G01 X-0.5037 Y0.5852  
G01 X-0.5110 Y0.5841  
G01 X-0.5180 Y0.5818  
G01 X-0.5246 Y0.5784  
G01 X-0.5306 Y0.5741  
G01 X-0.5358 Y0.5688  
G01 X-0.5402 Y0.5628  
G01 X-0.5436 Y0.5563  
G01 X-0.5458 Y0.5492  
G01 X-0.5470 Y0.5419  
G01 X-0.5470 Y0.4565  
G01 X-0.5458 Y0.4492  
G01 X-0.5436 Y0.4422  
G01 X-0.5402 Y0.4356  
G01 X-0.5358 Y0.4296  
G01 X-0.5306 Y0.4244  
G01 X-0.5246 Y0.4200  
G01 X-0.5180 Y0.4167  
G01 X-0.5110 Y0.4144  
G01 X-0.5037 Y0.4132  
G01 X-0.4963 Y0.4132  
G01 X-0.4890 Y0.4144  
G01 X-0.4820 Y0.4167  
G01 X-0.4754 Y0.4200  
G01 X-0.4694 Y0.4244  
G01 X-0.4642 Y0.4296  
G01 X-0.4598 Y0.4356  
G01 X-0.4564 Y0.4422  
G01 X-0.4542 Y0.4492  
G01 X-0.4530 Y0.4565  
G01 X-0.4530 Y0.5419  
G01 X-0.4542 Y0.5492  
G01 X-0.4564 Y0.5563  
G01 X-0.4598 Y0.5628  
G01 X-0.4642 Y0.5688  
G00 Z0.0500  
G00 X-0.6490 Y0.5702  
G01 Z-0.0035 F10    
G01 X-0.6490 Y0.6125  F20    
G01 X-0.6760 Y0.6395  
G01 X-0.6760 Y0.7259  
G01 X-0.6660 Y0.7359  
G01 X-0.6660 Y0.7641  
G01 X-0.6859 Y0.7840  
G01 X-0.7141 Y0.7840  
G01 X-0.7340 Y0.7641  
G01 X-0.7340 Y0.7359  
G01 X-0.7240 Y0.7259  
G01 X-0.7240 Y0.6395  
G01 X-0.7510 Y0.6125  
G01 X-0.7510 Y0.5702  
G01 X-0.7211 Y0.5403  
G01 X-0.6789 Y0.5403  
G01 X-0.6490 Y0.5702  
G00 Z0.0500  
G00 X-0.7789 Y0.5463  
G01 Z-0.0035 F10    
G01 X-0.8211 Y0.5463  F20    
G01 X-0.8510 Y0.5164  
G01 X-0.8510 Y0.4742  
G01 X-0.8211 Y0.4443  
G01 X-0.7789 Y0.4443  
G01 X-0.7490 Y0.4742  
G01 X-0.7490 Y0.5164  
G01 X-0.7789 Y0.5463  
G00 Z0.0500  
G00 X-0.8247 Y0.7464  
G01 Z-0.0035 F10    
G01 X-0.8244 Y0.7467  F20    
G01 X-0.7419 Y0.8063  
G01 X-0.6052 Y0.8110  
G01 X-0.6038 Y0.8109  
G01 X-0.6028 Y0.8111  
G01 X-0.6018 Y0.8111  
G01 X-0.6005 Y0.8114  
G01 X-0.5991 Y0.8116  
G01 X-0.5982 Y0.8119  
G01 X-0.5972 Y0.8122  
G01 X-0.5960 Y0.8127  
G01 X-0.5947 Y0.8132  
G01 X-0.5938 Y0.8137  
G01 X-0.5929 Y0.8141  
G01 X-0.5918 Y0.8149  
G01 X-0.5192 Y0.8585  
G01 X-0.5186 Y0.8587  
G01 X-0.5172 Y0.8597  
G01 X-0.5156 Y0.8606  
G01 X-0.5152 Y0.8610  
G01 X-0.5147 Y0.8614  
G01 X-0.5134 Y0.8626  
G01 X-0.5121 Y0.8638  
G01 X-0.5118 Y0.8643  
G01 X-0.5114 Y0.8647  
G01 X-0.5104 Y0.8662  
G01 X-0.5093 Y0.8676  
G01 X-0.5091 Y0.8681  
G01 X-0.5087 Y0.8686  
G01 X-0.5081 Y0.8703  
G01 X-0.5073 Y0.8719  
G01 X-0.5071 Y0.8725  
G01 X-0.5069 Y0.8730  
G01 X-0.5066 Y0.8747  
G01 X-0.5061 Y0.8765  
G01 X-0.5061 Y0.8771  
G01 X-0.5060 Y0.8776  
G01 X-0.5060 Y0.8794  
G01 X-0.5059 Y0.8812  
G01 X-0.5060 Y0.8818  
G01 X-0.5060 Y1.1849  
G01 X-0.5060 Y1.1872  
G01 X-0.5060 Y1.1874  
G01 X-0.5064 Y1.1896  
G01 X-0.5069 Y1.1919  
G01 X-0.5069 Y1.1920  
G01 X-0.5078 Y1.1941  
G01 X-0.5087 Y1.1962  
G01 X-0.5087 Y1.1964  
G01 X-0.5100 Y1.1983  
G01 X-0.5113 Y1.2002  
G01 X-0.5114 Y1.2003  
G01 X-0.5130 Y1.2019  
G01 X-0.5146 Y1.2036  
G01 X-0.5147 Y1.2036  
G01 X-0.5166 Y1.2049  
G01 X-0.5185 Y1.2062  
G01 X-0.5186 Y1.2063  
G01 X-0.5208 Y1.2071  
G01 X-0.5935 Y1.2378  
G01 X-0.5949 Y1.2411  
G01 X-0.5986 Y1.2467  
G01 X-0.6033 Y1.2514  
G01 X-0.6089 Y1.2551  
G01 X-0.6151 Y1.2577  
G01 X-0.6217 Y1.2590  
G01 X-0.6251 Y1.2590  
G01 X-0.7160 Y1.3499  
G01 X-0.7160 Y1.3641  
G01 X-0.7359 Y1.3840  
G01 X-0.7641 Y1.3840  
G01 X-0.7671 Y1.3810  
G01 X-0.8660 Y1.4140  
G01 X-0.8660 Y1.4141  
G01 X-0.8859 Y1.4340  
G01 X-0.9141 Y1.4340  
G01 X-0.9283 Y1.4198  
G01 X-1.1260 Y1.3881  
G01 X-1.1260 Y1.3994  
G01 X-1.1259 Y1.4012  
G01 X-1.1260 Y1.4018  
G01 X-1.1260 Y1.4024  
G01 X-1.1263 Y1.4041  
G01 X-1.1266 Y1.4059  
G01 X-1.1268 Y1.4064  
G01 X-1.1269 Y1.4070  
G01 X-1.1276 Y1.4086  
G01 X-1.1282 Y1.4103  
G01 X-1.1285 Y1.4108  
G01 X-1.1287 Y1.4114  
G01 X-1.1297 Y1.4128  
G01 X-1.2623 Y1.6338  
G01 X-1.2623 Y1.6834  
G01 X-1.2638 Y1.6907  
G01 X-1.2666 Y1.6975  
G01 X-1.2707 Y1.7037  
G01 X-1.2760 Y1.7090  
G01 X-1.2821 Y1.7131  
G01 X-1.2890 Y1.7159  
G01 X-1.2963 Y1.7174  
G01 X-1.3037 Y1.7174  
G01 X-1.3110 Y1.7159  
G01 X-1.3179 Y1.7131  
G01 X-1.3240 Y1.7090  
G01 X-1.3293 Y1.7037  
G01 X-1.3334 Y1.6975  
G01 X-1.3362 Y1.6907  
G01 X-1.3377 Y1.6834  
G01 X-1.3377 Y1.6166  
G01 X-1.3362 Y1.6093  
G01 X-1.3334 Y1.6025  
G01 X-1.3293 Y1.5963  
G01 X-1.3240 Y1.5910  
G01 X-1.3179 Y1.5869  
G01 X-1.3110 Y1.5841  
G01 X-1.3037 Y1.5826  
G01 X-1.2963 Y1.5826  
G01 X-1.2890 Y1.5841  
G01 X-1.2885 Y1.5843  
G01 X-1.1740 Y1.3934  
G01 X-1.1740 Y1.3841  
G01 X-1.1840 Y1.3741  
G01 X-1.1840 Y1.3471  
G01 X-1.2094 Y1.2990  
G01 X-1.2688 Y1.2990  
G01 X-1.3075 Y1.3205  
G01 X-1.3086 Y1.3213  
G01 X-1.3095 Y1.3216  
G01 X-1.3104 Y1.3221  
G01 X-1.3117 Y1.3225  
G01 X-1.3130 Y1.3231  
G01 X-1.3140 Y1.3233  
G01 X-1.3149 Y1.3236  
G01 X-1.3163 Y1.3237  
G01 X-1.3176 Y1.3240  
G01 X-1.3186 Y1.3240  
G01 X-1.3196 Y1.3241  
G01 X-1.3210 Y1.3240  
G01 X-1.9345 Y1.3240  
G01 X-1.9364 Y1.3241  
G01 X-1.9369 Y1.3240  
G01 X-1.9374 Y1.3240  
G01 X-1.9392 Y1.3236  
G01 X-1.9411 Y1.3233  
G01 X-1.9415 Y1.3232  
G01 X-1.9420 Y1.3231  
G01 X-1.9437 Y1.3224  
G01 X-1.9455 Y1.3217  
G01 X-1.9459 Y1.3215  
G01 X-1.9464 Y1.3213  
G01 X-1.9479 Y1.3202  
G01 X-1.9495 Y1.3192  
G01 X-1.9499 Y1.3189  
G01 X-1.9503 Y1.3186  
G01 X-1.9516 Y1.3173  
G01 X-1.9530 Y1.3160  
G01 X-1.9533 Y1.3156  
G01 X-1.9536 Y1.3153  
G01 X-1.9547 Y1.3137  
G01 X-1.9558 Y1.3122  
G01 X-1.9560 Y1.3118  
G01 X-1.9563 Y1.3114  
G01 X-1.9570 Y1.3096  
G01 X-2.0030 Y1.2100  
G01 X-2.0033 Y1.2100  
G01 X-2.0099 Y1.2087  
G01 X-2.0161 Y1.2061  
G01 X-2.0217 Y1.2024  
G01 X-2.0264 Y1.1977  
G01 X-2.0301 Y1.1921  
G01 X-2.0327 Y1.1859  
G01 X-2.0340 Y1.1793  
G01 X-2.0340 Y1.1207  
G01 X-2.0327 Y1.1141  
G01 X-2.0301 Y1.1079  
G01 X-2.0264 Y1.1023  
G01 X-2.0217 Y1.0976  
G01 X-2.0161 Y1.0939  
G01 X-2.0099 Y1.0913  
G01 X-2.0033 Y1.0900  
G01 X-1.9989 Y1.0900  
G01 X-1.9431 Y1.0342  
G01 X-1.9427 Y1.0336  
G01 X-1.9415 Y1.0325  
G01 X-1.9403 Y1.0314  
G01 X-1.9397 Y1.0310  
G01 X-1.8970 Y0.9930  
G01 X-1.8963 Y0.9922  
G01 X-1.8952 Y0.9914  
G01 X-1.8942 Y0.9905  
G01 X-1.8933 Y0.9900  
G01 X-1.8340 Y0.9455  
G01 X-1.8340 Y0.9359  
G01 X-1.8141 Y0.9160  
G01 X-1.7859 Y0.9160  
G01 X-1.7660 Y0.9359  
G01 X-1.7660 Y0.9641  
G01 X-1.7859 Y0.9840  
G01 X-1.8053 Y0.9840  
G01 X-1.8648 Y1.0286  
G01 X-1.9085 Y1.0675  
G01 X-1.9660 Y1.1249  
G01 X-1.9660 Y1.1756  
G01 X-1.9196 Y1.2760  
G01 X-1.3262 Y1.2760  
G01 X-1.2875 Y1.2545  
G01 X-1.2864 Y1.2537  
G01 X-1.2855 Y1.2534  
G01 X-1.2846 Y1.2529  
G01 X-1.2833 Y1.2525  
G01 X-1.2820 Y1.2519  
G01 X-1.2810 Y1.2517  
G01 X-1.2801 Y1.2514  
G01 X-1.2787 Y1.2513  
G01 X-1.2774 Y1.2510  
G01 X-1.2764 Y1.2510  
G01 X-1.2754 Y1.2509  
G01 X-1.2740 Y1.2510  
G01 X-1.1961 Y1.2510  
G01 X-1.1949 Y1.2509  
G01 X-1.1938 Y1.2510  
G01 X-1.1926 Y1.2510  
G01 X-1.1914 Y1.2512  
G01 X-1.1902 Y1.2514  
G01 X-1.1891 Y1.2517  
G01 X-1.1880 Y1.2519  
G01 X-1.1869 Y1.2524  
G01 X-1.1857 Y1.2528  
G01 X-1.1847 Y1.2533  
G01 X-1.1836 Y1.2537  
G01 X-1.1826 Y1.2544  
G01 X-1.1815 Y1.2550  
G01 X-1.1806 Y1.2557  
G01 X-1.1797 Y1.2564  
G01 X-1.1788 Y1.2572  
G01 X-1.1779 Y1.2580  
G01 X-1.1772 Y1.2589  
G01 X-1.1764 Y1.2597  
G01 X-1.1757 Y1.2607  
G01 X-1.1749 Y1.2617  
G01 X-1.1744 Y1.2627  
G01 X-1.1737 Y1.2636  
G01 X-1.1733 Y1.2648  
G01 X-1.1408 Y1.3260  
G01 X-1.1359 Y1.3260  
G01 X-1.1217 Y1.3402  
G01 X-0.9205 Y1.3724  
G01 X-0.9141 Y1.3660  
G01 X-0.8859 Y1.3660  
G01 X-0.8829 Y1.3690  
G01 X-0.7840 Y1.3360  
G01 X-0.7840 Y1.3359  
G01 X-0.7641 Y1.3160  
G01 X-0.7499 Y1.3160  
G01 X-0.6903 Y1.2563  
G01 X-0.6931 Y1.2551  
G01 X-0.6987 Y1.2514  
G01 X-0.7034 Y1.2467  
G01 X-0.7071 Y1.2411  
G01 X-0.7097 Y1.2349  
G01 X-0.7110 Y1.2283  
G01 X-0.7110 Y1.2217  
G01 X-0.7097 Y1.2151  
G01 X-0.7071 Y1.2089  
G01 X-0.7034 Y1.2033  
G01 X-0.6987 Y1.1986  
G01 X-0.6931 Y1.1949  
G01 X-0.6869 Y1.1923  
G01 X-0.6803 Y1.1910  
G01 X-0.6217 Y1.1910  
G01 X-0.6151 Y1.1923  
G01 X-0.6121 Y1.1935  
G01 X-0.5540 Y1.1691  
G01 X-0.5540 Y0.8936  
G01 X-0.6120 Y0.8588  
G01 X-0.7485 Y0.8541  
G01 X-0.7509 Y0.8540  
G01 X-0.7532 Y0.8539  
G01 X-0.7555 Y0.8534  
G01 X-0.7578 Y0.8528  
G01 X-0.7600 Y0.8518  
G01 X-0.7621 Y0.8509  
G01 X-0.7640 Y0.8495  
G01 X-0.7659 Y0.8481  
G01 X-0.8478 Y0.7890  
G01 X-0.9830 Y0.7890  
G01 X-0.9834 Y0.7891  
G01 X-0.9854 Y0.7890  
G01 X-0.9874 Y0.7890  
G01 X-0.9877 Y0.7889  
G01 X-0.9881 Y0.7889  
G01 X-0.9900 Y0.7885  
G01 X-0.9920 Y0.7881  
G01 X-0.9923 Y0.7879  
G01 X-1.0309 Y0.7790  
G01 X-1.0359 Y0.7840  
G01 X-1.0501 Y0.7840  
G01 X-1.1608 Y0.8947  
G01 X-1.1605 Y0.8961  
G01 X-1.1605 Y0.9039  
G01 X-1.1620 Y0.9115  
G01 X-1.1650 Y0.9187  
G01 X-1.1693 Y0.9252  
G01 X-1.1748 Y0.9307  
G01 X-1.1813 Y0.9350  
G01 X-1.1885 Y0.9380  
G01 X-1.1961 Y0.9395  
G01 X-1.2039 Y0.9395  
G01 X-1.2115 Y0.9380  
G01 X-1.2187 Y0.9350  
G01 X-1.2252 Y0.9307  
G01 X-1.2307 Y0.9252  
G01 X-1.2350 Y0.9187  
G01 X-1.2380 Y0.9115  
G01 X-1.2395 Y0.9039  
G01 X-1.2395 Y0.8961  
G01 X-1.2380 Y0.8885  
G01 X-1.2350 Y0.8813  
G01 X-1.2307 Y0.8748  
G01 X-1.2252 Y0.8693  
G01 X-1.2187 Y0.8650  
G01 X-1.2115 Y0.8620  
G01 X-1.2039 Y0.8605  
G01 X-1.1961 Y0.8605  
G01 X-1.1947 Y0.8608  
G01 X-1.0840 Y0.7501  
G01 X-1.0840 Y0.7359  
G01 X-1.0641 Y0.7160  
G01 X-1.0359 Y0.7160  
G01 X-1.0195 Y0.7324  
G01 X-0.9823 Y0.7410  
G01 X-0.8419 Y0.7410  
G01 X-0.8415 Y0.7409  
G01 X-0.8396 Y0.7410  
G01 X-0.8376 Y0.7410  
G01 X-0.8372 Y0.7411  
G01 X-0.8368 Y0.7411  
G01 X-0.8349 Y0.7415  
G01 X-0.8330 Y0.7419  
G01 X-0.8326 Y0.7421  
G01 X-0.8322 Y0.7422  
G01 X-0.8304 Y0.7430  
G01 X-0.8286 Y0.7437  
G01 X-0.8283 Y0.7440  
G01 X-0.8279 Y0.7442  
G01 X-0.8263 Y0.7453  
G01 X-0.8247 Y0.7464  
G00 Z0.0500  
G00 X-0.8910 Y0.9560  
G01 Z-0.0035 F10    
G01 X-0.8869 Y0.9621  F20    
G01 X-0.8841 Y0.9690  
G01 X-0.8826 Y0.9763  
G01 X-0.8826 Y0.9837  
G01 X-0.8841 Y0.9910  
G01 X-0.8869 Y0.9979  
G01 X-0.8910 Y1.0040  
G01 X-0.8915 Y1.0045  
G01 X-0.8814 Y1.0147  
G01 X-0.8787 Y1.0186  
G01 X-0.8769 Y1.0230  
G01 X-0.8760 Y1.0276  
G01 X-0.8760 Y1.0759  
G01 X-0.8660 Y1.0859  
G01 X-0.8660 Y1.1141  
G01 X-0.8859 Y1.1340  
G01 X-0.9141 Y1.1340  
G01 X-0.9241 Y1.1240  
G01 X-1.2943 Y1.1240  
G01 X-1.3660 Y1.1598  
G01 X-1.3660 Y1.1793  
G01 X-1.3673 Y1.1859  
G01 X-1.3699 Y1.1921  
G01 X-1.3736 Y1.1977  
G01 X-1.3783 Y1.2024  
G01 X-1.3839 Y1.2061  
G01 X-1.3901 Y1.2087  
G01 X-1.3967 Y1.2100  
G01 X-1.4033 Y1.2100  
G01 X-1.4099 Y1.2087  
G01 X-1.4161 Y1.2061  
G01 X-1.4217 Y1.2024  
G01 X-1.4264 Y1.1977  
G01 X-1.4301 Y1.1921  
G01 X-1.4327 Y1.1859  
G01 X-1.4340 Y1.1793  
G01 X-1.4340 Y1.1207  
G01 X-1.4327 Y1.1141  
G01 X-1.4301 Y1.1079  
G01 X-1.4264 Y1.1023  
G01 X-1.4217 Y1.0976  
G01 X-1.4161 Y1.0939  
G01 X-1.4099 Y1.0913  
G01 X-1.4033 Y1.0900  
G01 X-1.3967 Y1.0900  
G01 X-1.3901 Y1.0913  
G01 X-1.3839 Y1.0939  
G01 X-1.3783 Y1.0976  
G01 X-1.3736 Y1.1023  
G01 X-1.3699 Y1.1079  
G01 X-1.3698 Y1.1081  
G01 X-1.3121 Y1.0792  
G01 X-1.3114 Y1.0787  
G01 X-1.3100 Y1.0782  
G01 X-1.3086 Y1.0775  
G01 X-1.3078 Y1.0773  
G01 X-1.3070 Y1.0769  
G01 X-1.3055 Y1.0766  
G01 X-1.3041 Y1.0762  
G01 X-1.3032 Y1.0762  
G01 X-1.3024 Y1.0760  
G01 X-1.3009 Y1.0760  
G01 X-1.2993 Y1.0759  
G01 X-1.2985 Y1.0760  
G01 X-0.9241 Y1.0760  
G01 X-0.9240 Y1.0399  
G01 X-0.9463 Y1.0177  
G01 X-0.9834 Y1.0177  
G01 X-0.9907 Y1.0162  
G01 X-0.9975 Y1.0134  
G01 X-1.0037 Y1.0093  
G01 X-1.0090 Y1.0040  
G01 X-1.0131 Y0.9979  
G01 X-1.0159 Y0.9910  
G01 X-1.0174 Y0.9837  
G01 X-1.0174 Y0.9763  
G01 X-1.0159 Y0.9690  
G01 X-1.0131 Y0.9621  
G01 X-1.0090 Y0.9560  
G01 X-1.0037 Y0.9507  
G01 X-0.9975 Y0.9466  
G01 X-0.9907 Y0.9438  
G01 X-0.9834 Y0.9423  
G01 X-0.9166 Y0.9423  
G01 X-0.9093 Y0.9438  
G01 X-0.9025 Y0.9466  
G01 X-0.8963 Y0.9507  
G01 X-0.8910 Y0.9560  
G00 Z0.0500  
G00 X-0.7641 Y1.0160  
G01 Z-0.0035 F10    
G01 X-0.7359 Y1.0160  F20    
G01 X-0.7346 Y1.0173  
G01 X-0.7040 Y1.0042  
G01 X-0.7034 Y1.0033  
G01 X-0.6987 Y0.9986  
G01 X-0.6931 Y0.9949  
G01 X-0.6869 Y0.9923  
G01 X-0.6803 Y0.9910  
G01 X-0.6217 Y0.9910  
G01 X-0.6151 Y0.9923  
G01 X-0.6089 Y0.9949  
G01 X-0.6033 Y0.9986  
G01 X-0.5986 Y1.0033  
G01 X-0.5949 Y1.0089  
G01 X-0.5923 Y1.0151  
G01 X-0.5910 Y1.0217  
G01 X-0.5910 Y1.0283  
G01 X-0.5923 Y1.0349  
G01 X-0.5949 Y1.0411  
G01 X-0.5986 Y1.0467  
G01 X-0.6033 Y1.0514  
G01 X-0.6089 Y1.0551  
G01 X-0.6151 Y1.0577  
G01 X-0.6217 Y1.0590  
G01 X-0.6803 Y1.0590  
G01 X-0.6869 Y1.0577  
G01 X-0.6931 Y1.0551  
G01 X-0.6962 Y1.0531  
G01 X-0.7160 Y1.0615  
G01 X-0.7160 Y1.0641  
G01 X-0.7359 Y1.0840  
G01 X-0.7474 Y1.0840  
G01 X-0.8458 Y1.1995  
G01 X-0.8464 Y1.2003  
G01 X-0.8474 Y1.2013  
G01 X-0.8483 Y1.2024  
G01 X-0.8490 Y1.2030  
G01 X-0.8497 Y1.2036  
G01 X-0.8509 Y1.2044  
G01 X-0.8520 Y1.2053  
G01 X-0.8528 Y1.2057  
G01 X-0.8536 Y1.2063  
G01 X-0.8549 Y1.2068  
G01 X-0.8562 Y1.2074  
G01 X-0.8571 Y1.2077  
G01 X-0.8580 Y1.2081  
G01 X-0.8594 Y1.2084  
G01 X-0.8607 Y1.2087  
G01 X-0.8617 Y1.2088  
G01 X-0.8626 Y1.2090  
G01 X-0.8640 Y1.2090  
G01 X-0.8654 Y1.2091  
G01 X-0.8664 Y1.2090  
G01 X-1.2621 Y1.2090  
G01 X-1.3293 Y1.2583  
G01 X-1.3297 Y1.2586  
G01 X-1.3312 Y1.2597  
G01 X-1.3327 Y1.2608  
G01 X-1.3332 Y1.2610  
G01 X-1.3336 Y1.2613  
G01 X-1.3353 Y1.2620  
G01 X-1.3370 Y1.2627  
G01 X-1.3375 Y1.2629  
G01 X-1.3380 Y1.2631  
G01 X-1.3398 Y1.2634  
G01 X-1.3416 Y1.2639  
G01 X-1.3421 Y1.2639  
G01 X-1.3426 Y1.2640  
G01 X-1.3445 Y1.2640  
G01 X-1.3463 Y1.2641  
G01 X-1.3468 Y1.2640  
G01 X-1.4597 Y1.2640  
G01 X-1.4618 Y1.2641  
G01 X-1.4621 Y1.2640  
G01 X-1.4624 Y1.2640  
G01 X-1.4644 Y1.2636  
G01 X-1.4664 Y1.2632  
G01 X-1.4667 Y1.2631  
G01 X-1.4670 Y1.2631  
G01 X-1.4689 Y1.2623  
G01 X-1.4708 Y1.2616  
G01 X-1.4711 Y1.2614  
G01 X-1.4714 Y1.2613  
G01 X-1.4731 Y1.2601  
G01 X-1.4748 Y1.2590  
G01 X-1.4750 Y1.2588  
G01 X-1.4753 Y1.2586  
G01 X-1.4768 Y1.2572  
G01 X-1.4782 Y1.2558  
G01 X-1.4784 Y1.2555  
G01 X-1.4786 Y1.2553  
G01 X-1.4798 Y1.2536  
G01 X-1.4810 Y1.2519  
G01 X-1.4811 Y1.2516  
G01 X-1.4813 Y1.2514  
G01 X-1.4821 Y1.2495  
G01 X-1.4996 Y1.2100  
G01 X-1.5033 Y1.2100  
G01 X-1.5099 Y1.2087  
G01 X-1.5161 Y1.2061  
G01 X-1.5217 Y1.2024  
G01 X-1.5264 Y1.1977  
G01 X-1.5301 Y1.1921  
G01 X-1.5327 Y1.1859  
G01 X-1.5340 Y1.1793  
G01 X-1.5340 Y1.1207  
G01 X-1.5327 Y1.1141  
G01 X-1.5301 Y1.1079  
G01 X-1.5264 Y1.1023  
G01 X-1.5217 Y1.0976  
G01 X-1.5161 Y1.0939  
G01 X-1.5099 Y1.0913  
G01 X-1.5033 Y1.0900  
G01 X-1.4967 Y1.0900  
G01 X-1.4901 Y1.0913  
G01 X-1.4839 Y1.0939  
G01 X-1.4783 Y1.0976  
G01 X-1.4736 Y1.1023  
G01 X-1.4699 Y1.1079  
G01 X-1.4673 Y1.1141  
G01 X-1.4660 Y1.1207  
G01 X-1.4660 Y1.1674  
G01 X-1.4444 Y1.2160  
G01 X-1.3529 Y1.2160  
G01 X-1.2857 Y1.1667  
G01 X-1.2853 Y1.1664  
G01 X-1.2838 Y1.1653  
G01 X-1.2823 Y1.1642  
G01 X-1.2818 Y1.1640  
G01 X-1.2814 Y1.1637  
G01 X-1.2797 Y1.1630  
G01 X-1.2780 Y1.1623  
G01 X-1.2775 Y1.1621  
G01 X-1.2770 Y1.1619  
G01 X-1.2752 Y1.1616  
G01 X-1.2734 Y1.1611  
G01 X-1.2729 Y1.1611  
G01 X-1.2724 Y1.1610  
G01 X-1.2705 Y1.1610  
G01 X-1.2687 Y1.1609  
G01 X-1.2682 Y1.1610  
G01 X-0.8761 Y1.1610  
G01 X-0.7840 Y1.0529  
G01 X-0.7840 Y1.0359  
G01 X-0.7641 Y1.0160  
G00 Z0.0500  
G00 X-0.6987 Y1.0986  
G01 Z-0.0035 F10    
G01 X-0.6931 Y1.0949  F20    
G01 X-0.6869 Y1.0923  
G01 X-0.6803 Y1.0910  
G01 X-0.6217 Y1.0910  
G01 X-0.6151 Y1.0923  
G01 X-0.6089 Y1.0949  
G01 X-0.6033 Y1.0986  
G01 X-0.5986 Y1.1033  
G01 X-0.5949 Y1.1089  
G01 X-0.5923 Y1.1151  
G01 X-0.5910 Y1.1217  
G01 X-0.5910 Y1.1283  
G01 X-0.5923 Y1.1349  
G01 X-0.5949 Y1.1411  
G01 X-0.5986 Y1.1467  
G01 X-0.6033 Y1.1514  
G01 X-0.6089 Y1.1551  
G01 X-0.6151 Y1.1577  
G01 X-0.6217 Y1.1590  
G01 X-0.6803 Y1.1590  
G01 X-0.6869 Y1.1577  
G01 X-0.6931 Y1.1551  
G01 X-0.6987 Y1.1514  
G01 X-0.7034 Y1.1467  
G01 X-0.7071 Y1.1411  
G01 X-0.7097 Y1.1349  
G01 X-0.7110 Y1.1283  
G01 X-0.7110 Y1.1217  
G01 X-0.7097 Y1.1151  
G01 X-0.7071 Y1.1089  
G01 X-0.7034 Y1.1033  
G01 X-0.6987 Y1.0986  
G00 Z0.0500  
G00 X-0.4240 Y1.0977  
G01 Z-0.0035 F10    
G01 X-0.4240 Y1.0975  F20    
G01 X-0.4240 Y1.0974  
G01 X-0.4240 Y1.0951  
G01 X-0.4240 Y1.0929  
G01 X-0.4240 Y1.0928  
G01 X-0.4240 Y0.7741  
G01 X-0.4340 Y0.7641  
G01 X-0.4340 Y0.7359  
G01 X-0.4141 Y0.7160  
G01 X-0.3859 Y0.7160  
G01 X-0.3660 Y0.7359  
G01 X-0.3660 Y0.7641  
G01 X-0.3760 Y0.7741  
G01 X-0.3760 Y1.0788  
G01 X-0.3385 Y1.0938  
G01 X-0.3349 Y1.0923  
G01 X-0.3283 Y1.0910  
G01 X-0.2697 Y1.0910  
G01 X-0.2631 Y1.0923  
G01 X-0.2569 Y1.0949  
G01 X-0.2513 Y1.0986  
G01 X-0.2466 Y1.1033  
G01 X-0.2429 Y1.1089  
G01 X-0.2403 Y1.1151  
G01 X-0.2398 Y1.1176  
G01 X-0.2209 Y1.1213  
G01 X-0.2191 Y1.1216  
G01 X-0.2186 Y1.1218  
G01 X-0.2180 Y1.1219  
G01 X-0.2163 Y1.1226  
G01 X-0.2147 Y1.1232  
G01 X-0.2142 Y1.1235  
G01 X-0.2136 Y1.1237  
G01 X-0.2121 Y1.1247  
G01 X-0.1953 Y1.1348  
G01 X-0.1923 Y1.1333  
G01 X-0.1855 Y1.1311  
G01 X-0.1785 Y1.1300  
G01 X-0.1715 Y1.1300  
G01 X-0.1645 Y1.1311  
G01 X-0.1577 Y1.1333  
G01 X-0.1514 Y1.1365  
G01 X-0.1457 Y1.1407  
G01 X-0.1407 Y1.1457  
G01 X-0.1365 Y1.1514  
G01 X-0.1333 Y1.1577  
G01 X-0.1311 Y1.1645  
G01 X-0.1300 Y1.1715  
G01 X-0.1300 Y1.1785  
G01 X-0.1311 Y1.1855  
G01 X-0.1333 Y1.1923  
G01 X-0.1365 Y1.1986  
G01 X-0.1407 Y1.2043  
G01 X-0.1457 Y1.2093  
G01 X-0.1514 Y1.2135  
G01 X-0.1577 Y1.2167  
G01 X-0.1645 Y1.2189  
G01 X-0.1715 Y1.2200  
G01 X-0.1785 Y1.2200  
G01 X-0.1855 Y1.2189  
G01 X-0.1923 Y1.2167  
G01 X-0.1986 Y1.2135  
G01 X-0.2043 Y1.2093  
G01 X-0.2093 Y1.2043  
G01 X-0.2135 Y1.1986  
G01 X-0.2167 Y1.1923  
G01 X-0.2189 Y1.1855  
G01 X-0.2200 Y1.1785  
G01 X-0.2200 Y1.1760  
G01 X-0.2338 Y1.1677  
G01 X-0.2774 Y1.1590  
G01 X-0.3283 Y1.1590  
G01 X-0.3349 Y1.1577  
G01 X-0.3411 Y1.1551  
G01 X-0.3467 Y1.1514  
G01 X-0.3514 Y1.1467  
G01 X-0.3551 Y1.1411  
G01 X-0.3563 Y1.1383  
G01 X-0.4069 Y1.1181  
G01 X-0.4070 Y1.1181  
G01 X-0.4091 Y1.1172  
G01 X-0.4111 Y1.1164  
G01 X-0.4112 Y1.1163  
G01 X-0.4114 Y1.1163  
G01 X-0.4132 Y1.1150  
G01 X-0.4151 Y1.1138  
G01 X-0.4152 Y1.1137  
G01 X-0.4153 Y1.1136  
G01 X-0.4169 Y1.1121  
G01 X-0.4185 Y1.1105  
G01 X-0.4185 Y1.1104  
G01 X-0.4186 Y1.1103  
G01 X-0.4199 Y1.1085  
G01 X-0.4211 Y1.1066  
G01 X-0.4212 Y1.1065  
G01 X-0.4213 Y1.1064  
G01 X-0.4221 Y1.1043  
G01 X-0.4230 Y1.1023  
G01 X-0.4230 Y1.1021  
G01 X-0.4231 Y1.1020  
G01 X-0.4235 Y1.0998  
G01 X-0.4240 Y1.0977  
G00 Z0.0500  
G00 X-0.3467 Y1.1986  
G01 Z-0.0035 F10    
G01 X-0.3411 Y1.1949  F20    
G01 X-0.3349 Y1.1923  
G01 X-0.3283 Y1.1910  
G01 X-0.2697 Y1.1910  
G01 X-0.2631 Y1.1923  
G01 X-0.2569 Y1.1949  
G01 X-0.2513 Y1.1986  
G01 X-0.2466 Y1.2033  
G01 X-0.2429 Y1.2089  
G01 X-0.2403 Y1.2151  
G01 X-0.2390 Y1.2217  
G01 X-0.2390 Y1.2283  
G01 X-0.2403 Y1.2349  
G01 X-0.2429 Y1.2411  
G01 X-0.2466 Y1.2467  
G01 X-0.2513 Y1.2514  
G01 X-0.2569 Y1.2551  
G01 X-0.2631 Y1.2577  
G01 X-0.2697 Y1.2590  
G01 X-0.3283 Y1.2590  
G01 X-0.3349 Y1.2577  
G01 X-0.3411 Y1.2551  
G01 X-0.3467 Y1.2514  
G01 X-0.3514 Y1.2467  
G01 X-0.3551 Y1.2411  
G01 X-0.3577 Y1.2349  
G01 X-0.3590 Y1.2283  
G01 X-0.3590 Y1.2217  
G01 X-0.3577 Y1.2151  
G01 X-0.3551 Y1.2089  
G01 X-0.3514 Y1.2033  
G01 X-0.3467 Y1.1986  
G00 Z0.0500  
G00 X-0.3467 Y0.9514  
G01 Z-0.0035 F10    
G01 X-0.3514 Y0.9467  F20    
G01 X-0.3551 Y0.9411  
G01 X-0.3577 Y0.9349  
G01 X-0.3590 Y0.9283  
G01 X-0.3590 Y0.9217  
G01 X-0.3577 Y0.9151  
G01 X-0.3551 Y0.9089  
G01 X-0.3514 Y0.9033  
G01 X-0.3467 Y0.8986  
G01 X-0.3411 Y0.8949  
G01 X-0.3349 Y0.8923  
G01 X-0.3283 Y0.8910  
G01 X-0.2697 Y0.8910  
G01 X-0.2631 Y0.8923  
G01 X-0.2569 Y0.8949  
G01 X-0.2513 Y0.8986  
G01 X-0.2466 Y0.9033  
G01 X-0.2429 Y0.9089  
G01 X-0.2403 Y0.9151  
G01 X-0.2390 Y0.9217  
G01 X-0.2390 Y0.9283  
G01 X-0.2403 Y0.9349  
G01 X-0.2429 Y0.9411  
G01 X-0.2466 Y0.9467  
G01 X-0.2513 Y0.9514  
G01 X-0.2569 Y0.9551  
G01 X-0.2631 Y0.9577  
G01 X-0.2697 Y0.9590  
G01 X-0.3283 Y0.9590  
G01 X-0.3349 Y0.9577  
G01 X-0.3411 Y0.9551  
G01 X-0.3467 Y0.9514  
G00 Z0.0500  
G00 X-1.3572 Y0.8913  
G01 Z-0.0035 F10    
G01 X-1.3585 Y0.8924  F20    
G01 X-1.3597 Y0.8937  
G01 X-1.3602 Y0.8940  
G01 X-1.3607 Y0.8944  
G01 X-1.3622 Y0.8953  
G01 X-1.5760 Y1.0378  
G01 X-1.5760 Y1.0999  
G01 X-1.5736 Y1.1023  
G01 X-1.5699 Y1.1079  
G01 X-1.5673 Y1.1141  
