(.../pcb-gcode-3.6.2.4/pcb-gcode.ulp)
(Copyright 2005 - 2012 by John Johnson)
(See readme.txt for licensing terms.)
(This file generated from the board:)
(.../atmega_midi_pg800/eagle/atmega_midi_pg800.brd)
(Current profile is .../pcb-gcode-3.6.2.4/profiles/mach.pp  )
(This file generated 11/15/16 11:39 PM)
(Settings from pcb-machine.h)
(spindle on time = 0.0000)
(spindle speed = 15000.0000)
(milling depth = -0.0730)
(tool change at 0.0000  0.0000  1.5000  )
(feed rate xy = F10    )
(feed rate z  = F5     )
(Z Axis Settings)
(  High     Up        Down     Drill)
(0.2500  	0.0500  	-0.0035 	-0.0710 )
(Settings from pcb-defaults.h)
(isolate min = 0.0040)
(isolate max = 0.0200)
(isolate step = 0.0025)
(Generated bottom outlines, bottom drill, )
(Unit of measure: inch)
(Inch Mode)
G20
(Absolute Coordinates)
G90
S15000
G00 Z0.2500  
G00 X0.0000  Y0.0000  
M03
G04 P0.000000
G00 Z0.0500  
G00 X-0.0600 Y0.0200  
G01 Z-0.0730 F5     
G01 X-0.1100 Y-0.0300 F10    
G01 X-2.9300 Y-0.0300 
G01 X-3.0000 Y0.0400  
G01 X-3.0000 Y1.7800  
G01 X-2.9600 Y1.8200  
G01 X-0.1100 Y1.8200  
G01 X-0.0600 Y1.7700  
G01 X-0.0600 Y0.0200  
G00 Z0.0500  
G00 X-0.1900 Y1.6400  
G01 Z-0.0730 F5     
G01 X-0.2400 Y1.6400  F10    
G01 X-0.2400 Y1.6900  
G01 X-0.2100 Y1.6900  
G00 Z0.0500  
G00 X-0.1900 Y1.6900  
G01 Z-0.0730 F5     
G01 X-0.1900 Y1.6400  F10    
G00 Z0.0500  
G00 X-1.8900 Y0.2400  
G01 Z-0.0730 F5     
G01 X-1.8900 Y0.1900  F10    
G01 X-1.9400 Y0.1900  
G01 X-1.9400 Y0.2400  
G01 X-1.9100 Y0.2400  
G00 Z0.0500  
G00 X-2.8100 Y1.6400  
G01 Z-0.0730 F5     
G01 X-2.8600 Y1.6400  F10    
G01 X-2.8600 Y1.6900  
G01 X-2.8300 Y1.6900  
G00 Z0.0500  
G00 X-2.8100 Y1.6900  
G01 Z-0.0730 F5     
G01 X-2.8100 Y1.6400  F10    
G00 Z0.2500  
M05
M02
