(.../pcb-gcode-3.6.2.4/pcb-gcode.ulp)
(Copyright 2005 - 2012 by John Johnson)
(See readme.txt for licensing terms.)
(This file generated from the board:)
(.../atmega_midi_pg800/eagle/atmega_midi_pg800.brd)
(Current profile is .../pcb-gcode-3.6.2.4/profiles/mach.pp  )
(This file generated 11/18/16 10:44 PM)
(Settings from pcb-machine.h)
(spindle on time = 0.0000)
(  Tool Size)
(0.0030  )
(spindle speed = 30000.0000)
(tool change at 0.0000  0.0000  1.5000  )
(feed rate xy = F20    )
(feed rate z  = F10    )
(Z Axis Settings)
(  High     Up        Down     Drill)
(0.2500  	0.0500  	-0.0035 	-0.0710 )
(Settings from pcb-defaults.h)
(isolate min = 0.0040)
(isolate max = 0.0200)
(isolate step = 0.0025)
(Generated bottom outlines, bottom drill, )
(Unit of measure: inch)
(Inch Mode)
G20
(Absolute Coordinates)
G90
S30000
G00 Z0.2500  
G00 X0.0000  Y0.0000  
M03
G04 P0.000000
G00 Z0.0500  
G00 X-0.0477 Y0.2821  
G01 Z-0.0035 F10    
G01 X-0.0471 Y0.2830  F20    
G01 X-0.0463 Y0.2837  
G01 X-0.0452 Y0.2853  
G01 X-0.0440 Y0.2869  
G01 X-0.0436 Y0.2878  
G01 X-0.0430 Y0.2887  
G01 X-0.0422 Y0.2905  
G01 X-0.0414 Y0.2922  
G01 X-0.0411 Y0.2933  
G01 X-0.0407 Y0.2943  
G01 X-0.0403 Y0.2962  
G01 X-0.0398 Y0.2980  
G01 X-0.0397 Y0.2991  
G01 X-0.0395 Y0.3001  
G01 X-0.0395 Y0.3021  
G01 X-0.0394 Y0.3040  
G01 X-0.0395 Y0.3051  
G01 X-0.0395 Y1.4576  
G01 X-0.0394 Y1.4582  
G01 X-0.0395 Y1.4606  
G01 X-0.0395 Y1.4630  
G01 X-0.0396 Y1.4636  
G01 X-0.0396 Y1.4642  
G01 X-0.0402 Y1.4665  
G01 X-0.0407 Y1.4689  
G01 X-0.0409 Y1.4695  
G01 X-0.0410 Y1.4701  
G01 X-0.0421 Y1.4722  
G01 X-0.0430 Y1.4744  
G01 X-0.0433 Y1.4750  
G01 X-0.0436 Y1.4755  
G01 X-0.0450 Y1.4774  
G01 X-0.0463 Y1.4794  
G01 X-0.0467 Y1.4799  
G01 X-0.1250 Y1.5874  
G01 X-0.1263 Y1.5894  
G01 X-0.1267 Y1.5899  
G01 X-0.1271 Y1.5904  
G01 X-0.1289 Y1.5920  
G01 X-0.1306 Y1.5937  
G01 X-0.1311 Y1.5940  
G01 X-0.1315 Y1.5944  
G01 X-0.1336 Y1.5957  
G01 X-0.1356 Y1.5970  
G01 X-0.1361 Y1.5973  
G01 X-0.1366 Y1.5976  
G01 X-0.1389 Y1.5984  
G01 X-0.1411 Y1.5993  
G01 X-0.1417 Y1.5994  
G01 X-0.1423 Y1.5997  
G01 X-0.1446 Y1.6000  
G01 X-0.1470 Y1.6005  
G01 X-0.1476 Y1.6005  
G01 X-0.1482 Y1.6006  
G01 X-0.1506 Y1.6005  
G01 X-0.2995 Y1.6005  
G01 X-0.3021 Y1.6006  
G01 X-0.3025 Y1.6005  
G01 X-0.3030 Y1.6005  
G01 X-0.3055 Y1.6000  
G01 X-0.3080 Y1.5996  
G01 X-0.3084 Y1.5994  
G01 X-0.3089 Y1.5993  
G01 X-0.3112 Y1.5984  
G01 X-0.3136 Y1.5975  
G01 X-0.3140 Y1.5972  
G01 X-0.3144 Y1.5970  
G01 X-0.3165 Y1.5956  
G01 X-0.3187 Y1.5943  
G01 X-0.3190 Y1.5940  
G01 X-0.3194 Y1.5937  
G01 X-0.3212 Y1.5919  
G01 X-0.3231 Y1.5902  
G01 X-0.3234 Y1.5898  
G01 X-0.3237 Y1.5894  
G01 X-0.3251 Y1.5873  
G01 X-0.3766 Y1.5153  
G01 X-0.3790 Y1.5098  
G01 X-0.3804 Y1.5040  
G01 X-0.3806 Y1.4979  
G01 X-0.3805 Y1.4974  
G01 X-0.3812 Y1.4964  
G01 X-0.3838 Y1.4899  
G01 X-0.3852 Y1.4832  
G01 X-0.3852 Y1.4168  
G01 X-0.3838 Y1.4101  
G01 X-0.3812 Y1.4036  
G01 X-0.3773 Y1.3979  
G01 X-0.3724 Y1.3930  
G01 X-0.3667 Y1.3891  
G01 X-0.3603 Y1.3865  
G01 X-0.3535 Y1.3851  
G01 X-0.3465 Y1.3851  
G01 X-0.3397 Y1.3865  
G01 X-0.3333 Y1.3891  
G01 X-0.3276 Y1.3930  
G01 X-0.3227 Y1.3979  
G01 X-0.3188 Y1.4036  
G01 X-0.3162 Y1.4101  
G01 X-0.3148 Y1.4168  
G01 X-0.3148 Y1.4832  
G01 X-0.3162 Y1.4899  
G01 X-0.3175 Y1.4931  
G01 X-0.2843 Y1.5395  
G01 X-0.1655 Y1.5395  
G01 X-0.1005 Y1.4501  
G01 X-0.1005 Y0.3170  
G01 X-0.2907 Y0.1516  
G01 X-0.3201 Y0.1516  
G01 X-0.3412 Y0.1305  
G01 X-0.3588 Y0.1305  
G01 X-0.3799 Y0.1516  
G01 X-0.4201 Y0.1516  
G01 X-0.4412 Y0.1305  
G01 X-0.5588 Y0.1305  
G01 X-0.5799 Y0.1516  
G01 X-0.6201 Y0.1516  
G01 X-0.6412 Y0.1305  
G01 X-0.6588 Y0.1305  
G01 X-0.6799 Y0.1516  
G01 X-0.7201 Y0.1516  
G01 X-0.7412 Y0.1305  
G01 X-0.8895 Y0.1305  
G01 X-0.8895 Y0.5495  
G01 X-0.8894 Y0.5520  
G01 X-0.8895 Y0.5525  
G01 X-0.8895 Y0.5530  
G01 X-0.8900 Y0.5554  
G01 X-0.8904 Y0.5579  
G01 X-0.8906 Y0.5584  
G01 X-0.8907 Y0.5589  
G01 X-0.8916 Y0.5612  
G01 X-0.8925 Y0.5635  
G01 X-0.8928 Y0.5640  
G01 X-0.8930 Y0.5644  
G01 X-0.8943 Y0.5665  
G01 X-0.8957 Y0.5686  
G01 X-0.8960 Y0.5690  
G01 X-0.8963 Y0.5694  
G01 X-0.8981 Y0.5712  
G01 X-1.1562 Y0.8478  
G01 X-1.1536 Y0.8488  
G01 X-1.1526 Y0.8495  
G01 X-0.7522 Y0.8495  
G01 X-0.7515 Y0.8494  
G01 X-0.7492 Y0.8495  
G01 X-0.7470 Y0.8495  
G01 X-0.7462 Y0.8496  
G01 X-0.7455 Y0.8497  
G01 X-0.7433 Y0.8502  
G01 X-0.7411 Y0.8507  
G01 X-0.7404 Y0.8510  
G01 X-0.7397 Y0.8511  
G01 X-0.7376 Y0.8521  
G01 X-0.7356 Y0.8530  
G01 X-0.7349 Y0.8534  
G01 X-0.6503 Y0.8935  
G01 X-0.6219 Y0.8935  
G01 X-0.6158 Y0.8947  
G01 X-0.6101 Y0.8971  
G01 X-0.6049 Y0.9005  
G01 X-0.6005 Y0.9049  
G01 X-0.5971 Y0.9101  
G01 X-0.5947 Y0.9158  
G01 X-0.5935 Y0.9219  
G01 X-0.5935 Y0.9281  
G01 X-0.5947 Y0.9342  
G01 X-0.5971 Y0.9399  
G01 X-0.6005 Y0.9451  
G01 X-0.6049 Y0.9495  
G01 X-0.6101 Y0.9529  
G01 X-0.6158 Y0.9553  
G01 X-0.6219 Y0.9565  
G01 X-0.6801 Y0.9565  
G01 X-0.6862 Y0.9553  
G01 X-0.6919 Y0.9529  
G01 X-0.6971 Y0.9495  
G01 X-0.7015 Y0.9451  
G01 X-0.7049 Y0.9399  
G01 X-0.7073 Y0.9342  
G01 X-0.7073 Y0.9340  
G01 X-0.7569 Y0.9105  
G01 X-1.1526 Y0.9105  
G01 X-1.1536 Y0.9112  
G01 X-1.1601 Y0.9138  
G01 X-1.1668 Y0.9152  
G01 X-1.2332 Y0.9152  
G01 X-1.2399 Y0.9138  
G01 X-1.2464 Y0.9112  
G01 X-1.2521 Y0.9073  
G01 X-1.2570 Y0.9024  
G01 X-1.2609 Y0.8967  
G01 X-1.2635 Y0.8903  
G01 X-1.2649 Y0.8835  
G01 X-1.2649 Y0.8765  
G01 X-1.2635 Y0.8697  
G01 X-1.2609 Y0.8633  
G01 X-1.2570 Y0.8576  
G01 X-1.2521 Y0.8527  
G01 X-1.2464 Y0.8488  
G01 X-1.2399 Y0.8462  
G01 X-1.2332 Y0.8448  
G01 X-1.2301 Y0.8448  
G01 X-1.2296 Y0.8421  
G01 X-1.2275 Y0.8365  
G01 X-1.2243 Y0.8314  
G01 X-0.9505 Y0.5380  
G01 X-0.9505 Y0.1305  
G01 X-1.1088 Y0.1305  
G01 X-1.1299 Y0.1516  
G01 X-1.1701 Y0.1516  
G01 X-1.1912 Y0.1305  
G01 X-1.2088 Y0.1305  
G01 X-1.2299 Y0.1516  
G01 X-1.2701 Y0.1516  
G01 X-1.2912 Y0.1305  
G01 X-1.3195 Y0.1305  
G01 X-1.3195 Y0.4278  
G01 X-1.3161 Y0.4312  
G01 X-1.3119 Y0.4369  
G01 X-1.3088 Y0.4431  
G01 X-1.3066 Y0.4498  
G01 X-1.3055 Y0.4567  
G01 X-1.3055 Y0.5417  
G01 X-1.3066 Y0.5486  
G01 X-1.3088 Y0.5553  
G01 X-1.3119 Y0.5615  
G01 X-1.3161 Y0.5672  
G01 X-1.3210 Y0.5722  
G01 X-1.3267 Y0.5763  
G01 X-1.3329 Y0.5795  
G01 X-1.3396 Y0.5816  
G01 X-1.3465 Y0.5827  
G01 X-1.3535 Y0.5827  
G01 X-1.3604 Y0.5816  
G01 X-1.3671 Y0.5795  
G01 X-1.3733 Y0.5763  
G01 X-1.3790 Y0.5722  
G01 X-1.3839 Y0.5672  
G01 X-1.3881 Y0.5615  
G01 X-1.3912 Y0.5553  
G01 X-1.3934 Y0.5486  
G01 X-1.3945 Y0.5417  
G01 X-1.3945 Y0.4567  
G01 X-1.3934 Y0.4498  
G01 X-1.3912 Y0.4431  
G01 X-1.3881 Y0.4369  
G01 X-1.3839 Y0.4312  
G01 X-1.3805 Y0.4278  
G01 X-1.3805 Y0.1305  
G01 X-1.4088 Y0.1305  
G01 X-1.4299 Y0.1516  
G01 X-1.4701 Y0.1516  
G01 X-1.4912 Y0.1305  
G01 X-1.5088 Y0.1305  
G01 X-1.5299 Y0.1516  
G01 X-1.5701 Y0.1516  
G01 X-1.7703 Y0.2934  
G01 X-1.7706 Y0.2937  
G01 X-1.7727 Y0.2951  
G01 X-1.7748 Y0.2966  
G01 X-1.7752 Y0.2968  
G01 X-1.7756 Y0.2970  
G01 X-1.7779 Y0.2980  
G01 X-1.7803 Y0.2991  
G01 X-1.7807 Y0.2992  
G01 X-1.7811 Y0.2993  
G01 X-1.7836 Y0.2998  
G01 X-1.7862 Y0.3004  
G01 X-1.7866 Y0.3004  
G01 X-1.7870 Y0.3005  
G01 X-1.7896 Y0.3005  
G01 X-1.7922 Y0.3006  
G01 X-1.7926 Y0.3005  
G01 X-2.0577 Y0.3005  
G01 X-2.0583 Y0.3006  
G01 X-2.0607 Y0.3005  
G01 X-2.0630 Y0.3005  
G01 X-2.0637 Y0.3004  
G01 X-2.0643 Y0.3003  
G01 X-2.0666 Y0.2998  
G01 X-2.0689 Y0.2993  
G01 X-2.0695 Y0.2991  
G01 X-2.0702 Y0.2989  
G01 X-2.0723 Y0.2979  
G01 X-2.0744 Y0.2970  
G01 X-2.0750 Y0.2967  
G01 X-2.0756 Y0.2964  
G01 X-2.0775 Y0.2950  
G01 X-2.0794 Y0.2937  
G01 X-2.0799 Y0.2932  
G01 X-2.0805 Y0.2928  
G01 X-2.0820 Y0.2911  
G01 X-2.0837 Y0.2894  
G01 X-2.0841 Y0.2889  
G01 X-2.1834 Y0.1805  
G01 X-2.4030 Y0.1805  
G01 X-2.4089 Y0.1793  
G01 X-2.4091 Y0.1792  
G01 X-2.4248 Y0.1792  
G01 X-2.4269 Y0.1784  
G01 X-2.4284 Y0.1769  
G01 X-2.4292 Y0.1748  
G01 X-2.4292 Y0.1591  
G01 X-2.4293 Y0.1589  
G01 X-2.4305 Y0.1530  
G01 X-2.4305 Y0.1470  
G01 X-2.4293 Y0.1411  
G01 X-2.4292 Y0.1409  
G01 X-2.4292 Y0.1252  
G01 X-2.4284 Y0.1231  
G01 X-2.4269 Y0.1216  
G01 X-2.4248 Y0.1208  
G01 X-2.4091 Y0.1208  
G01 X-2.4089 Y0.1207  
G01 X-2.4030 Y0.1195  
G01 X-2.1723 Y0.1195  
G01 X-2.1717 Y0.1194  
G01 X-2.1693 Y0.1195  
G01 X-2.1670 Y0.1195  
G01 X-2.1663 Y0.1196  
G01 X-2.1657 Y0.1197  
G01 X-2.1634 Y0.1202  
G01 X-2.1611 Y0.1207  
G01 X-2.1605 Y0.1209  
G01 X-2.1598 Y0.1211  
G01 X-2.1577 Y0.1221  
G01 X-2.1556 Y0.1230  
G01 X-2.1550 Y0.1233  
G01 X-2.1544 Y0.1236  
G01 X-2.1525 Y0.1250  
G01 X-2.1506 Y0.1263  
G01 X-2.1501 Y0.1268  
G01 X-2.1495 Y0.1272  
G01 X-2.1480 Y0.1289  
G01 X-2.1463 Y0.1306  
G01 X-2.1459 Y0.1311  
G01 X-2.0466 Y0.2395  
G01 X-1.7997 Y0.2395  
G01 X-1.5985 Y0.0970  
G01 X-1.5985 Y0.0831  
G01 X-1.5701 Y0.0546  
G01 X-1.5299 Y0.0546  
G01 X-1.5151 Y0.0695  
G01 X-1.4849 Y0.0695  
G01 X-1.4701 Y0.0546  
G01 X-1.4299 Y0.0546  
G01 X-1.4151 Y0.0695  
G01 X-1.2849 Y0.0695  
G01 X-1.2701 Y0.0546  
G01 X-1.2299 Y0.0546  
G01 X-1.2151 Y0.0695  
G01 X-1.1849 Y0.0695  
G01 X-1.1701 Y0.0546  
G01 X-1.1299 Y0.0546  
G01 X-1.1151 Y0.0695  
G01 X-0.7349 Y0.0695  
G01 X-0.7201 Y0.0546  
G01 X-0.6799 Y0.0546  
G01 X-0.6651 Y0.0695  
G01 X-0.6349 Y0.0695  
G01 X-0.6201 Y0.0546  
G01 X-0.5799 Y0.0546  
G01 X-0.5651 Y0.0695  
G01 X-0.4349 Y0.0695  
G01 X-0.4201 Y0.0546  
G01 X-0.3799 Y0.0546  
G01 X-0.3651 Y0.0695  
G01 X-0.3349 Y0.0695  
G01 X-0.3201 Y0.0546  
G01 X-0.2799 Y0.0546  
G01 X-0.2515 Y0.0831  
G01 X-0.2515 Y0.1049  
G01 X-0.0514 Y0.2789  
G01 X-0.0506 Y0.2795  
G01 X-0.0492 Y0.2808  
G01 X-0.0477 Y0.2821  
G00 Z0.0500  
G00 X-0.1554 Y0.4752  
G01 Z-0.0035 F10    
G01 X-0.1554 Y0.5154  F20    
G01 X-0.1838 Y0.5438  
G01 X-0.2240 Y0.5438  
G01 X-0.2524 Y0.5154  
G01 X-0.2524 Y0.4752  
G01 X-0.2240 Y0.4468  
G01 X-0.1838 Y0.4468  
G01 X-0.1554 Y0.4752  
G00 Z0.0500  
G00 X-0.1867 Y0.6329  
G01 Z-0.0035 F10    
G01 X-0.1847 Y0.6348  F20    
G01 X-0.1828 Y0.6368  
G01 X-0.1827 Y0.6369  
G01 X-0.1813 Y0.6393  
G01 X-0.1800 Y0.6417  
G01 X-0.1799 Y0.6418  
G01 X-0.1792 Y0.6445  
G01 X-0.1785 Y0.6472  
G01 X-0.1785 Y0.6473  
G01 X-0.1785 Y0.6501  
G01 X-0.1785 Y0.8325  
G01 X-0.1783 Y0.8325  
G01 X-0.1717 Y0.8325  
G01 X-0.1650 Y0.8335  
G01 X-0.1587 Y0.8356  
G01 X-0.1527 Y0.8387  
G01 X-0.1473 Y0.8426  
G01 X-0.1426 Y0.8473  
G01 X-0.1387 Y0.8527  
G01 X-0.1356 Y0.8587  
G01 X-0.1335 Y0.8650  
G01 X-0.1325 Y0.8717  
G01 X-0.1325 Y0.8783  
G01 X-0.1335 Y0.8850  
G01 X-0.1356 Y0.8913  
G01 X-0.1387 Y0.8973  
G01 X-0.1426 Y0.9027  
G01 X-0.1473 Y0.9074  
G01 X-0.1527 Y0.9113  
G01 X-0.1535 Y0.9117  
G01 X-0.1535 Y0.9244  
G01 X-0.1534 Y0.9266  
G01 X-0.1535 Y0.9272  
G01 X-0.1535 Y0.9278  
G01 X-0.1541 Y0.9300  
G01 X-0.1545 Y0.9322  
G01 X-0.1548 Y0.9327  
G01 X-0.1550 Y0.9333  
G01 X-0.1561 Y0.9352  
G01 X-0.1571 Y0.9372  
G01 X-0.1575 Y0.9377  
G01 X-0.1578 Y0.9382  
G01 X-0.1594 Y0.9398  
G01 X-0.2424 Y1.0326  
G01 X-0.2427 Y1.0342  
G01 X-0.2451 Y1.0399  
G01 X-0.2485 Y1.0451  
G01 X-0.2529 Y1.0495  
G01 X-0.2581 Y1.0529  
G01 X-0.2638 Y1.0553  
G01 X-0.2699 Y1.0565  
G01 X-0.3281 Y1.0565  
G01 X-0.3342 Y1.0553  
G01 X-0.3399 Y1.0529  
G01 X-0.3451 Y1.0495  
G01 X-0.3495 Y1.0451  
G01 X-0.3529 Y1.0399  
G01 X-0.3553 Y1.0342  
G01 X-0.3565 Y1.0281  
G01 X-0.3565 Y1.0219  
G01 X-0.3553 Y1.0158  
G01 X-0.3529 Y1.0101  
G01 X-0.3495 Y1.0049  
G01 X-0.3451 Y1.0005  
G01 X-0.3399 Y0.9971  
G01 X-0.3342 Y0.9947  
G01 X-0.3281 Y0.9935  
G01 X-0.2699 Y0.9935  
G01 X-0.2659 Y0.9943  
G01 X-0.1965 Y0.9168  
G01 X-0.1965 Y0.9117  
G01 X-0.1973 Y0.9113  
G01 X-0.2027 Y0.9074  
G01 X-0.2074 Y0.9027  
G01 X-0.2113 Y0.8973  
G01 X-0.2144 Y0.8913  
G01 X-0.2165 Y0.8850  
G01 X-0.2175 Y0.8783  
G01 X-0.2175 Y0.8717  
G01 X-0.2165 Y0.8650  
G01 X-0.2162 Y0.8642  
G01 X-0.2172 Y0.8632  
G01 X-0.2200 Y0.8583  
G01 X-0.2215 Y0.8528  
G01 X-0.2215 Y0.6623  
G01 X-0.2725 Y0.6324  
G01 X-0.2799 Y0.6398  
G01 X-0.3201 Y0.6398  
G01 X-0.3485 Y0.6114  
G01 X-0.3485 Y0.5712  
G01 X-0.3201 Y0.5428  
G01 X-0.2799 Y0.5428  
G01 X-0.2515 Y0.5712  
G01 X-0.2515 Y0.5949  
G01 X-0.1892 Y0.6314  
G01 X-0.1868 Y0.6328  
G01 X-0.1867 Y0.6329  
G00 Z0.0500  
G00 X-0.2885 Y0.7270  
G01 Z-0.0035 F10    
G01 X-0.2885 Y0.7530  F20    
G01 X-0.3070 Y0.7715  
G01 X-0.3196 Y0.7715  
G01 X-0.3985 Y0.8583  
G01 X-0.3985 Y1.0792  
G01 X-0.3406 Y1.0975  
G01 X-0.3399 Y1.0971  
G01 X-0.3342 Y1.0947  
G01 X-0.3281 Y1.0935  
G01 X-0.2699 Y1.0935  
G01 X-0.2638 Y1.0947  
G01 X-0.2581 Y1.0971  
G01 X-0.2529 Y1.1005  
G01 X-0.2485 Y1.1049  
G01 X-0.2451 Y1.1101  
G01 X-0.2427 Y1.1158  
G01 X-0.2419 Y1.1197  
G01 X-0.2227 Y1.1235  
G01 X-0.2218 Y1.1236  
G01 X-0.2199 Y1.1241  
G01 X-0.2180 Y1.1245  
G01 X-0.2172 Y1.1249  
G01 X-0.2164 Y1.1251  
G01 X-0.2147 Y1.1261  
G01 X-0.2129 Y1.1270  
G01 X-0.2123 Y1.1276  
G01 X-0.1954 Y1.1377  
G01 X-0.1913 Y1.1356  
G01 X-0.1850 Y1.1335  
G01 X-0.1783 Y1.1325  
G01 X-0.1717 Y1.1325  
G01 X-0.1650 Y1.1335  
G01 X-0.1587 Y1.1356  
G01 X-0.1527 Y1.1387  
G01 X-0.1473 Y1.1426  
G01 X-0.1426 Y1.1473  
G01 X-0.1387 Y1.1527  
G01 X-0.1356 Y1.1587  
G01 X-0.1335 Y1.1650  
G01 X-0.1325 Y1.1717  
G01 X-0.1325 Y1.1783  
G01 X-0.1335 Y1.1850  
G01 X-0.1356 Y1.1913  
G01 X-0.1387 Y1.1973  
G01 X-0.1426 Y1.2027  
G01 X-0.1473 Y1.2074  
G01 X-0.1527 Y1.2113  
G01 X-0.1587 Y1.2144  
G01 X-0.1650 Y1.2165  
G01 X-0.1717 Y1.2175  
G01 X-0.1783 Y1.2175  
G01 X-0.1850 Y1.2165  
G01 X-0.1913 Y1.2144  
G01 X-0.1973 Y1.2113  
G01 X-0.2027 Y1.2074  
G01 X-0.2074 Y1.2027  
G01 X-0.2113 Y1.1973  
G01 X-0.2144 Y1.1913  
G01 X-0.2165 Y1.1850  
G01 X-0.2175 Y1.1783  
G01 X-0.2175 Y1.1746  
G01 X-0.2329 Y1.1654  
G01 X-0.2771 Y1.1565  
G01 X-0.3281 Y1.1565  
G01 X-0.3342 Y1.1553  
G01 X-0.3399 Y1.1529  
G01 X-0.3451 Y1.1495  
G01 X-0.3495 Y1.1451  
G01 X-0.3529 Y1.1399  
G01 X-0.3535 Y1.1386  
G01 X-0.4260 Y1.1156  
G01 X-0.4283 Y1.1150  
G01 X-0.4287 Y1.1148  
G01 X-0.4292 Y1.1146  
G01 X-0.4312 Y1.1134  
G01 X-0.4332 Y1.1122  
G01 X-0.4335 Y1.1119  
G01 X-0.4339 Y1.1116  
G01 X-0.4355 Y1.1099  
G01 X-0.4372 Y1.1082  
G01 X-0.4374 Y1.1078  
G01 X-0.4378 Y1.1074  
G01 X-0.4389 Y1.1053  
G01 X-0.4400 Y1.1033  
G01 X-0.4402 Y1.1028  
G01 X-0.4404 Y1.1024  
G01 X-0.4409 Y1.1001  
G01 X-0.4415 Y1.0978  
G01 X-0.4415 Y1.0973  
G01 X-0.4416 Y1.0969  
G01 X-0.4415 Y1.0945  
G01 X-0.4415 Y0.8505  
G01 X-0.4416 Y0.8482  
G01 X-0.4415 Y0.8477  
G01 X-0.4415 Y0.8472  
G01 X-0.4409 Y0.8449  
G01 X-0.4404 Y0.8427  
G01 X-0.4402 Y0.8422  
G01 X-0.4400 Y0.8417  
G01 X-0.4389 Y0.8397  
G01 X-0.4378 Y0.8376  
G01 X-0.4375 Y0.8372  
G01 X-0.4372 Y0.8368  
G01 X-0.4356 Y0.8352  
G01 X-0.3515 Y0.7427  
G01 X-0.3515 Y0.7270  
G01 X-0.3330 Y0.7085  
G01 X-0.3070 Y0.7085  
G01 X-0.2885 Y0.7270  
G00 Z0.0500  
G00 X-0.2699 Y0.8935  
G01 Z-0.0035 F10    
G01 X-0.2638 Y0.8947  F20    
G01 X-0.2581 Y0.8971  
G01 X-0.2529 Y0.9005  
G01 X-0.2485 Y0.9049  
G01 X-0.2451 Y0.9101  
G01 X-0.2427 Y0.9158  
G01 X-0.2415 Y0.9219  
G01 X-0.2415 Y0.9281  
G01 X-0.2427 Y0.9342  
G01 X-0.2451 Y0.9399  
G01 X-0.2485 Y0.9451  
G01 X-0.2529 Y0.9495  
G01 X-0.2581 Y0.9529  
G01 X-0.2638 Y0.9553  
G01 X-0.2699 Y0.9565  
G01 X-0.3281 Y0.9565  
G01 X-0.3342 Y0.9553  
G01 X-0.3399 Y0.9529  
G01 X-0.3451 Y0.9495  
G01 X-0.3495 Y0.9451  
G01 X-0.3529 Y0.9399  
G01 X-0.3553 Y0.9342  
G01 X-0.3565 Y0.9281  
G01 X-0.3565 Y0.9219  
G01 X-0.3553 Y0.9158  
G01 X-0.3529 Y0.9101  
G01 X-0.3495 Y0.9049  
G01 X-0.3451 Y0.9005  
G01 X-0.3399 Y0.8971  
G01 X-0.3342 Y0.8947  
G01 X-0.3281 Y0.8935  
G01 X-0.2699 Y0.8935  
G00 Z0.0500  
G00 X-0.2699 Y1.1935  
G01 Z-0.0035 F10    
G01 X-0.2638 Y1.1947  F20    
G01 X-0.2581 Y1.1971  
G01 X-0.2529 Y1.2005  
G01 X-0.2485 Y1.2049  
G01 X-0.2451 Y1.2101  
G01 X-0.2427 Y1.2158  
G01 X-0.2415 Y1.2219  
G01 X-0.2415 Y1.2281  
G01 X-0.2427 Y1.2342  
G01 X-0.2451 Y1.2399  
G01 X-0.2485 Y1.2451  
G01 X-0.2529 Y1.2495  
G01 X-0.2581 Y1.2529  
G01 X-0.2638 Y1.2553  
G01 X-0.2699 Y1.2565  
G01 X-0.3281 Y1.2565  
G01 X-0.3342 Y1.2553  
G01 X-0.3399 Y1.2529  
G01 X-0.3451 Y1.2495  
G01 X-0.3495 Y1.2451  
G01 X-0.3529 Y1.2399  
G01 X-0.3553 Y1.2342  
G01 X-0.3565 Y1.2281  
G01 X-0.3565 Y1.2219  
G01 X-0.3553 Y1.2158  
G01 X-0.3529 Y1.2101  
G01 X-0.3495 Y1.2049  
G01 X-0.3451 Y1.2005  
G01 X-0.3399 Y1.1971  
G01 X-0.3342 Y1.1947  
G01 X-0.3281 Y1.1935  
G01 X-0.2699 Y1.1935  
G00 Z0.0500  
G00 X-0.2763 Y1.2806  
G01 Z-0.0035 F10    
G01 X-0.2763 Y1.2806  F20    
G01 X-0.2306 Y1.3263  
G01 X-0.2263 Y1.3306  
G01 X-0.2230 Y1.3356  
G01 X-0.2207 Y1.3411  
G01 X-0.2195 Y1.3470  
G01 X-0.2195 Y1.4026  
G01 X-0.2188 Y1.4036  
G01 X-0.2162 Y1.4101  
G01 X-0.2148 Y1.4168  
G01 X-0.2148 Y1.4832  
G01 X-0.2162 Y1.4899  
G01 X-0.2188 Y1.4964  
G01 X-0.2227 Y1.5021  
G01 X-0.2276 Y1.5070  
G01 X-0.2333 Y1.5109  
G01 X-0.2397 Y1.5135  
G01 X-0.2465 Y1.5149  
G01 X-0.2535 Y1.5149  
G01 X-0.2603 Y1.5135  
G01 X-0.2667 Y1.5109  
G01 X-0.2724 Y1.5070  
G01 X-0.2773 Y1.5021  
G01 X-0.2812 Y1.4964  
G01 X-0.2838 Y1.4899  
G01 X-0.2852 Y1.4832  
G01 X-0.2852 Y1.4168  
G01 X-0.2838 Y1.4101  
G01 X-0.2812 Y1.4036  
G01 X-0.2805 Y1.4026  
G01 X-0.2805 Y1.3626  
G01 X-0.3126 Y1.3305  
G01 X-0.4030 Y1.3305  
G01 X-0.4089 Y1.3293  
G01 X-0.4144 Y1.3270  
G01 X-0.4194 Y1.3237  
G01 X-0.4626 Y1.2805  
G01 X-0.6030 Y1.2805  
G01 X-0.6089 Y1.2793  
G01 X-0.6144 Y1.2770  
G01 X-0.6194 Y1.2737  
G01 X-0.6338 Y1.2593  
G01 X-0.7620 Y1.2965  
G01 X-0.7670 Y1.3015  
G01 X-0.7930 Y1.3015  
G01 X-0.7940 Y1.3005  
G01 X-0.8860 Y1.3005  
G01 X-0.8870 Y1.3015  
G01 X-0.8941 Y1.3015  
G01 X-0.9942 Y1.3561  
G01 X-0.9956 Y1.3570  
G01 X-0.9968 Y1.3576  
G01 X-0.9980 Y1.3582  
G01 X-0.9996 Y1.3587  
G01 X-1.0011 Y1.3593  
G01 X-1.0025 Y1.3596  
G01 X-1.0038 Y1.3600  
G01 X-1.0054 Y1.3602  
G01 X-1.0070 Y1.3605  
G01 X-1.0084 Y1.3605  
G01 X-1.0097 Y1.3606  
G01 X-1.0114 Y1.3605  
G01 X-1.9091 Y1.3605  
G01 X-1.9112 Y1.3606  
G01 X-1.9121 Y1.3605  
G01 X-1.9130 Y1.3605  
G01 X-1.9151 Y1.3601  
G01 X-1.9172 Y1.3598  
G01 X-1.9180 Y1.3595  
G01 X-1.9189 Y1.3593  
G01 X-1.9208 Y1.3585  
G01 X-1.9228 Y1.3578  
G01 X-1.9236 Y1.3574  
G01 X-1.9244 Y1.3570  
G01 X-1.9262 Y1.3559  
G01 X-1.9280 Y1.3548  
G01 X-1.9287 Y1.3542  
G01 X-1.9294 Y1.3537  
G01 X-1.9309 Y1.3522  
G01 X-2.0187 Y1.2742  
G01 X-2.0194 Y1.2737  
G01 X-2.0209 Y1.2722  
G01 X-2.0225 Y1.2708  
G01 X-2.0231 Y1.2701  
G01 X-2.0237 Y1.2694  
G01 X-2.0249 Y1.2677  
G01 X-2.0261 Y1.2660  
G01 X-2.0265 Y1.2652  
G01 X-2.0270 Y1.2644  
G01 X-2.0278 Y1.2625  
G01 X-2.0288 Y1.2606  
G01 X-2.0290 Y1.2597  
G01 X-2.0293 Y1.2589  
G01 X-2.0297 Y1.2568  
G01 X-2.0303 Y1.2548  
G01 X-2.0303 Y1.2539  
G01 X-2.0305 Y1.2530  
G01 X-2.0305 Y1.2509  
G01 X-2.0306 Y1.2488  
G01 X-2.0305 Y1.2479  
G01 X-2.0305 Y1.1841  
G01 X-2.0315 Y1.1791  
G01 X-2.0315 Y1.1209  
G01 X-2.0305 Y1.1159  
G01 X-2.0305 Y1.0240  
G01 X-2.0315 Y1.0230  
G01 X-2.0315 Y0.9970  
G01 X-2.0305 Y0.9960  
G01 X-2.0305 Y0.7640  
G01 X-2.0315 Y0.7630  
G01 X-2.0315 Y0.7370  
G01 X-2.0305 Y0.7360  
G01 X-2.0305 Y0.7102  
G01 X-2.1731 Y0.5200  
G01 X-2.1737 Y0.5194  
G01 X-2.1749 Y0.5176  
G01 X-2.1762 Y0.5159  
G01 X-2.1766 Y0.5151  
G01 X-2.1770 Y0.5144  
G01 X-2.1779 Y0.5124  
G01 X-2.1788 Y0.5105  
G01 X-2.1790 Y0.5097  
G01 X-2.1793 Y0.5089  
G01 X-2.1798 Y0.5068  
G01 X-2.1803 Y0.5047  
G01 X-2.1803 Y0.5038  
G01 X-2.1805 Y0.5030  
G01 X-2.1805 Y0.5008  
G01 X-2.1806 Y0.4987  
G01 X-2.1805 Y0.4978  
G01 X-2.1805 Y0.4474  
G01 X-2.1812 Y0.4464  
G01 X-2.1838 Y0.4399  
G01 X-2.1852 Y0.4332  
G01 X-2.1852 Y0.3668  
G01 X-2.1838 Y0.3601  
G01 X-2.1812 Y0.3536  
G01 X-2.1805 Y0.3526  
G01 X-2.1805 Y0.3126  
G01 X-2.2126 Y0.2805  
G01 X-2.5290 Y0.2805  
G01 X-2.5325 Y0.2828  
G01 X-2.5392 Y0.2856  
G01 X-2.5464 Y0.2870  
G01 X-2.5536 Y0.2870  
G01 X-2.5608 Y0.2856  
G01 X-2.5675 Y0.2828  
G01 X-2.5736 Y0.2787  
G01 X-2.5787 Y0.2736  
G01 X-2.5826 Y0.2678  
G01 X-2.7426 Y0.1878  
G01 X-2.7462 Y0.1885  
G01 X-2.7538 Y0.1885  
G01 X-2.7612 Y0.1870  
G01 X-2.7682 Y0.1841  
G01 X-2.7737 Y0.1805  
G01 X-2.7874 Y0.1805  
G01 X-2.8391 Y0.2323  
G01 X-2.8385 Y0.2332  
G01 X-2.8359 Y0.2396  
G01 X-2.8345 Y0.2465  
G01 X-2.8345 Y0.2535  
G01 X-2.8359 Y0.2604  
G01 X-2.8385 Y0.2668  
G01 X-2.8424 Y0.2726  
G01 X-2.8474 Y0.2776  
G01 X-2.8532 Y0.2815  
G01 X-2.8596 Y0.2841  
G01 X-2.8665 Y0.2855  
G01 X-2.9335 Y0.2855  
G01 X-2.9404 Y0.2841  
G01 X-2.9468 Y0.2815  
G01 X-2.9483 Y0.2805  
G01 X-2.9730 Y0.2805  
G01 X-2.9789 Y0.2793  
G01 X-2.9844 Y0.2770  
G01 X-2.9894 Y0.2737  
G01 X-2.9937 Y0.2694  
G01 X-3.1226 Y0.1405  
G01 X-3.6957 Y0.1405  
G01 X-3.8795 Y0.3610  
G01 X-3.8795 Y1.0345  
G01 X-3.8414 Y1.1362  
G01 X-3.8397 Y1.1365  
G01 X-3.8333 Y1.1391  
G01 X-3.8276 Y1.1430  
G01 X-3.8227 Y1.1479  
G01 X-3.8188 Y1.1536  
G01 X-3.8162 Y1.1601  
G01 X-3.8148 Y1.1668  
G01 X-3.8148 Y1.2332  
G01 X-3.8162 Y1.2399  
G01 X-3.8188 Y1.2464  
G01 X-3.8195 Y1.2474  
G01 X-3.8195 Y1.4026  
G01 X-3.8188 Y1.4036  
G01 X-3.8162 Y1.4101  
G01 X-3.8148 Y1.4168  
G01 X-3.8148 Y1.4832  
G01 X-3.8162 Y1.4899  
G01 X-3.8188 Y1.4964  
G01 X-3.8195 Y1.4974  
G01 X-3.8195 Y1.6526  
G01 X-3.8188 Y1.6536  
G01 X-3.8162 Y1.6601  
G01 X-3.8148 Y1.6668  
G01 X-3.8148 Y1.7332  
G01 X-3.8162 Y1.7399  
G01 X-3.8188 Y1.7464  
G01 X-3.8227 Y1.7521  
G01 X-3.8276 Y1.7570  
G01 X-3.8333 Y1.7609  
G01 X-3.8397 Y1.7635  
G01 X-3.8414 Y1.7638  
G01 X-3.8795 Y1.8655  
G01 X-3.8795 Y2.9357  
G01 X-3.8390 Y2.9695  
G01 X-3.6341 Y2.9695  
G01 X-3.6291 Y2.9685  
G01 X-3.5709 Y2.9685  
G01 X-3.5648 Y2.9697  
G01 X-3.5591 Y2.9721  
G01 X-3.5539 Y2.9755  
G01 X-3.5495 Y2.9799  
G01 X-3.5461 Y2.9851  
G01 X-3.5437 Y2.9908  
G01 X-3.5425 Y2.9969  
G01 X-3.5425 Y3.0031  
G01 X-3.5427 Y3.0040  
G01 X-3.4801 Y3.0495  
G01 X-2.6516 Y3.0495  
G01 X-2.5709 Y2.9778  
G01 X-2.5694 Y2.9763  
G01 X-2.5687 Y2.9758  
G01 X-2.5680 Y2.9752  
G01 X-2.5662 Y2.9741  
G01 X-2.5644 Y2.9730  
G01 X-2.5636 Y2.9726  
G01 X-2.5628 Y2.9722  
G01 X-2.5608 Y2.9715  
G01 X-2.5589 Y2.9707  
G01 X-2.5580 Y2.9705  
G01 X-2.5572 Y2.9702  
G01 X-2.5551 Y2.9699  
G01 X-2.5530 Y2.9695  
G01 X-2.5521 Y2.9695  
G01 X-2.5512 Y2.9694  
G01 X-2.5491 Y2.9695  
G01 X-2.3341 Y2.9695  
G01 X-2.3291 Y2.9685  
G01 X-2.2709 Y2.9685  
G01 X-2.2648 Y2.9697  
G01 X-2.2591 Y2.9721  
G01 X-2.2539 Y2.9755  
G01 X-2.2495 Y2.9799  
G01 X-2.2461 Y2.9851  
G01 X-2.2437 Y2.9908  
G01 X-2.2425 Y2.9969  
G01 X-2.2425 Y3.0031  
G01 X-2.2432 Y3.0064  
G01 X-2.1893 Y3.0495  
G01 X-1.3107 Y3.0495  
G01 X-1.2204 Y2.9772  
G01 X-1.2194 Y2.9763  
G01 X-1.2180 Y2.9754  
G01 X-1.2167 Y2.9743  
G01 X-1.2155 Y2.9737  
G01 X-1.2144 Y2.9730  
G01 X-1.2129 Y2.9723  
G01 X-1.2114 Y2.9715  
G01 X-1.2101 Y2.9712  
G01 X-1.2089 Y2.9707  
G01 X-1.2072 Y2.9703  
G01 X-1.2056 Y2.9699  
G01 X-1.2043 Y2.9698  
G01 X-1.2030 Y2.9695  
G01 X-1.2013 Y2.9695  
G01 X-1.1996 Y2.9694  
G01 X-1.1983 Y2.9695  
G01 X-0.9841 Y2.9695  
G01 X-0.9791 Y2.9685  
G01 X-0.9209 Y2.9685  
G01 X-0.9148 Y2.9697  
G01 X-0.9091 Y2.9721  
G01 X-0.9039 Y2.9755  
G01 X-0.8995 Y2.9799  
G01 X-0.8961 Y2.9851  
G01 X-0.8937 Y2.9908  
G01 X-0.8925 Y2.9969  
G01 X-0.8925 Y3.0031  
G01 X-0.8937 Y3.0092  
G01 X-0.8961 Y3.0149  
G01 X-0.8995 Y3.0201  
G01 X-0.9039 Y3.0245  
G01 X-0.9091 Y3.0279  
G01 X-0.9148 Y3.0303  
G01 X-0.9209 Y3.0315  
G01 X-0.9791 Y3.0315  
G01 X-0.9841 Y3.0305  
G01 X-1.1893 Y3.0305  
G01 X-1.2796 Y3.1028  
G01 X-1.2806 Y3.1037  
G01 X-1.2820 Y3.1046  
G01 X-1.2833 Y3.1057  
G01 X-1.2845 Y3.1063  
G01 X-1.2856 Y3.1070  
G01 X-1.2871 Y3.1077  
G01 X-1.2886 Y3.1085  
G01 X-1.2899 Y3.1088  
G01 X-1.2911 Y3.1093  
G01 X-1.2928 Y3.1097  
G01 X-1.2944 Y3.1101  
G01 X-1.2957 Y3.1102  
G01 X-1.2970 Y3.1105  
G01 X-1.2987 Y3.1105  
G01 X-1.3004 Y3.1106  
G01 X-1.3017 Y3.1105  
G01 X-2.1983 Y3.1105  
G01 X-2.1996 Y3.1106  
G01 X-2.2013 Y3.1105  
G01 X-2.2030 Y3.1105  
G01 X-2.2043 Y3.1102  
G01 X-2.2056 Y3.1101  
G01 X-2.2072 Y3.1097  
G01 X-2.2089 Y3.1093  
G01 X-2.2101 Y3.1088  
G01 X-2.2114 Y3.1085  
G01 X-2.2129 Y3.1077  
G01 X-2.2144 Y3.1070  
G01 X-2.2155 Y3.1063  
G01 X-2.2167 Y3.1057  
G01 X-2.2180 Y3.1046  
G01 X-2.2194 Y3.1037  
G01 X-2.2204 Y3.1028  
G01 X-2.3094 Y3.0315  
G01 X-2.3291 Y3.0315  
G01 X-2.3341 Y3.0305  
G01 X-2.5384 Y3.0305  
G01 X-2.6191 Y3.1022  
G01 X-2.6206 Y3.1037  
G01 X-2.6213 Y3.1042  
G01 X-2.6220 Y3.1048  
G01 X-2.6238 Y3.1059  
G01 X-2.6256 Y3.1070  
G01 X-2.6264 Y3.1074  
G01 X-2.6272 Y3.1078  
G01 X-2.6292 Y3.1085  
G01 X-2.6311 Y3.1093  
G01 X-2.6320 Y3.1095  
G01 X-2.6328 Y3.1098  
G01 X-2.6349 Y3.1101  
G01 X-2.6370 Y3.1105  
G01 X-2.6379 Y3.1105  
G01 X-2.6388 Y3.1106  
G01 X-2.6409 Y3.1105  
G01 X-3.4876 Y3.1105  
G01 X-3.4882 Y3.1106  
G01 X-3.4906 Y3.1105  
G01 X-3.4930 Y3.1105  
G01 X-3.4936 Y3.1104  
G01 X-3.4942 Y3.1104  
G01 X-3.4965 Y3.1098  
G01 X-3.4989 Y3.1093  
G01 X-3.4995 Y3.1091  
G01 X-3.5001 Y3.1090  
G01 X-3.5022 Y3.1079  
G01 X-3.5044 Y3.1070  
G01 X-3.5050 Y3.1067  
G01 X-3.5055 Y3.1064  
G01 X-3.5074 Y3.1050  
G01 X-3.5094 Y3.1037  
G01 X-3.5099 Y3.1033  
G01 X-3.6085 Y3.0315  
G01 X-3.6291 Y3.0315  
G01 X-3.6341 Y3.0305  
G01 X-3.8486 Y3.0305  
G01 X-3.8502 Y3.0306  
G01 X-3.8516 Y3.0305  
G01 X-3.8530 Y3.0305  
G01 X-3.8546 Y3.0302  
G01 X-3.8562 Y3.0300  
G01 X-3.8575 Y3.0296  
G01 X-3.8589 Y3.0293  
G01 X-3.8604 Y3.0287  
G01 X-3.8619 Y3.0282  
G01 X-3.8632 Y3.0276  
G01 X-3.8644 Y3.0270  
G01 X-3.8658 Y3.0261  
G01 X-3.8672 Y3.0254  
G01 X-3.8683 Y3.0245  
G01 X-3.8694 Y3.0237  
G01 X-3.8706 Y3.0225  
G01 X-3.9283 Y2.9745  
G01 X-3.9294 Y2.9737  
G01 X-3.9306 Y2.9725  
G01 X-3.9318 Y2.9715  
G01 X-3.9327 Y2.9704  
G01 X-3.9337 Y2.9694  
G01 X-3.9346 Y2.9681  
G01 X-3.9356 Y2.9668  
G01 X-3.9363 Y2.9656  
G01 X-3.9370 Y2.9644  
G01 X-3.9376 Y2.9630  
G01 X-3.9384 Y2.9615  
G01 X-3.9388 Y2.9602  
G01 X-3.9393 Y2.9589  
G01 X-3.9396 Y2.9573  
G01 X-3.9401 Y2.9558  
G01 X-3.9402 Y2.9544  
G01 X-3.9405 Y2.9530  
G01 X-3.9405 Y2.9514  
G01 X-3.9406 Y2.9498  
G01 X-3.9405 Y2.9484  
G01 X-3.9405 Y1.8605  
G01 X-3.9406 Y1.8580  
G01 X-3.9405 Y1.8575  
G01 X-3.9405 Y1.8570  
G01 X-3.9400 Y1.8546  
G01 X-3.9396 Y1.8521  
G01 X-3.9394 Y1.8516  
G01 X-3.9393 Y1.8511  
G01 X-3.9384 Y1.8488  
G01 X-3.8852 Y1.7070  
G01 X-3.8852 Y1.6668  
G01 X-3.8838 Y1.6601  
G01 X-3.8812 Y1.6536  
G01 X-3.8805 Y1.6526  
G01 X-3.8805 Y1.4974  
G01 X-3.8812 Y1.4964  
G01 X-3.8838 Y1.4899  
G01 X-3.8852 Y1.4832  
G01 X-3.8852 Y1.4168  
G01 X-3.8838 Y1.4101  
G01 X-3.8812 Y1.4036  
G01 X-3.8805 Y1.4026  
G01 X-3.8805 Y1.2474  
G01 X-3.8812 Y1.2464  
G01 X-3.8838 Y1.2399  
G01 X-3.8852 Y1.2332  
G01 X-3.8852 Y1.1930  
G01 X-3.9384 Y1.0512  
G01 X-3.9393 Y1.0489  
G01 X-3.9394 Y1.0484  
G01 X-3.9396 Y1.0479  
G01 X-3.9400 Y1.0454  
G01 X-3.9405 Y1.0430  
G01 X-3.9405 Y1.0425  
G01 X-3.9406 Y1.0420  
G01 X-3.9405 Y1.0395  
G01 X-3.9405 Y0.3514  
G01 X-3.9406 Y0.3498  
G01 X-3.9405 Y0.3484  
G01 X-3.9405 Y0.3470  
G01 X-3.9402 Y0.3454  
G01 X-3.9400 Y0.3438  
G01 X-3.9396 Y0.3425  
G01 X-3.9393 Y0.3411  
G01 X-3.9387 Y0.3396  
G01 X-3.9382 Y0.3381  
G01 X-3.9376 Y0.3368  
G01 X-3.9370 Y0.3356  
G01 X-3.9361 Y0.3342  
G01 X-3.9354 Y0.3328  
G01 X-3.9345 Y0.3317  
G01 X-3.9337 Y0.3306  
G01 X-3.9325 Y0.3294  
G01 X-3.7345 Y0.0917  
G01 X-3.7337 Y0.0906  
G01 X-3.7325 Y0.0894  
G01 X-3.7315 Y0.0882  
G01 X-3.7304 Y0.0873  
G01 X-3.7294 Y0.0863  
G01 X-3.7281 Y0.0854  
G01 X-3.7268 Y0.0844  
G01 X-3.7256 Y0.0837  
G01 X-3.7244 Y0.0830  
G01 X-3.7230 Y0.0824  
G01 X-3.7215 Y0.0816  
G01 X-3.7202 Y0.0812  
G01 X-3.7189 Y0.0807  
G01 X-3.7173 Y0.0804  
G01 X-3.7158 Y0.0799  
G01 X-3.7144 Y0.0798  
G01 X-3.7130 Y0.0795  
G01 X-3.7114 Y0.0795  
G01 X-3.7098 Y0.0794  
G01 X-3.7084 Y0.0795  
G01 X-3.1070 Y0.0795  
G01 X-3.1011 Y0.0807  
G01 X-3.0956 Y0.0830  
G01 X-3.0906 Y0.0863  
G01 X-3.0863 Y0.0906  
G01 X-2.9574 Y0.2195  
G01 X-2.9483 Y0.2195  
G01 X-2.9468 Y0.2185  
G01 X-2.9404 Y0.2159  
G01 X-2.9335 Y0.2145  
G01 X-2.9076 Y0.2145  
G01 X-2.8194 Y0.1263  
G01 X-2.8144 Y0.1230  
G01 X-2.8089 Y0.1207  
G01 X-2.8030 Y0.1195  
G01 X-2.7737 Y0.1195  
G01 X-2.7682 Y0.1159  
G01 X-2.7612 Y0.1130  
G01 X-2.7538 Y0.1115  
G01 X-2.7462 Y0.1115  
G01 X-2.7388 Y0.1130  
G01 X-2.7318 Y0.1159  
G01 X-2.7255 Y0.1201  
G01 X-2.7201 Y0.1255  
G01 X-2.7159 Y0.1318  
G01 X-2.7153 Y0.1333  
G01 X-2.5552 Y0.2133  
G01 X-2.5536 Y0.2130  
G01 X-2.5464 Y0.2130  
G01 X-2.5392 Y0.2144  
G01 X-2.5325 Y0.2172  
G01 X-2.5290 Y0.2195  
G01 X-2.1970 Y0.2195  
G01 X-2.1911 Y0.2207  
G01 X-2.1856 Y0.2230  
G01 X-2.1806 Y0.2263  
G01 X-2.1306 Y0.2763  
G01 X-2.1263 Y0.2806  
G01 X-2.1230 Y0.2856  
G01 X-2.1207 Y0.2911  
G01 X-2.1195 Y0.2970  
G01 X-2.1195 Y0.3526  
G01 X-2.1188 Y0.3536  
G01 X-2.1162 Y0.3601  
G01 X-2.1148 Y0.3668  
G01 X-2.1148 Y0.4332  
G01 X-2.1162 Y0.4399  
G01 X-2.1188 Y0.4464  
G01 X-2.1195 Y0.4474  
G01 X-2.1195 Y0.4898  
G01 X-1.9769 Y0.6800  
G01 X-1.9763 Y0.6806  
G01 X-1.9751 Y0.6824  
G01 X-1.9738 Y0.6841  
G01 X-1.9734 Y0.6849  
G01 X-1.9730 Y0.6856  
G01 X-1.9721 Y0.6876  
G01 X-1.9712 Y0.6895  
G01 X-1.9710 Y0.6903  
G01 X-1.9707 Y0.6911  
G01 X-1.9702 Y0.6932  
G01 X-1.9697 Y0.6953  
G01 X-1.9697 Y0.6962  
G01 X-1.9695 Y0.6970  
G01 X-1.9695 Y0.6992  
G01 X-1.9694 Y0.7013  
G01 X-1.9695 Y0.7022  
G01 X-1.9695 Y0.7360  
G01 X-1.9685 Y0.7370  
G01 X-1.9685 Y0.7630  
G01 X-1.9695 Y0.7640  
G01 X-1.9695 Y0.9960  
G01 X-1.9685 Y0.9970  
G01 X-1.9685 Y1.0230  
G01 X-1.9695 Y1.0240  
G01 X-1.9695 Y1.1159  
G01 X-1.9685 Y1.1209  
G01 X-1.9685 Y1.1791  
G01 X-1.9695 Y1.1841  
G01 X-1.9695 Y1.2363  
G01 X-1.8984 Y1.2995  
G01 X-1.0178 Y1.2995  
G01 X-0.9216 Y1.2470  
G01 X-0.9130 Y1.2385  
G01 X-0.8870 Y1.2385  
G01 X-0.8860 Y1.2395  
G01 X-0.7940 Y1.2395  
G01 X-0.7930 Y1.2385  
G01 X-0.7809 Y1.2385  
G01 X-0.7076 Y1.2172  
G01 X-0.7073 Y1.2158  
G01 X-0.7049 Y1.2101  
G01 X-0.7015 Y1.2049  
G01 X-0.6971 Y1.2005  
G01 X-0.6919 Y1.1971  
G01 X-0.6862 Y1.1947  
G01 X-0.6801 Y1.1935  
G01 X-0.6219 Y1.1935  
G01 X-0.6158 Y1.1947  
G01 X-0.6101 Y1.1971  
G01 X-0.6049 Y1.2005  
G01 X-0.6005 Y1.2049  
G01 X-0.5977 Y1.2092  
G01 X-0.5874 Y1.2195  
G01 X-0.4470 Y1.2195  
G01 X-0.4411 Y1.2207  
G01 X-0.4356 Y1.2230  
G01 X-0.4306 Y1.2263  
G01 X-0.4263 Y1.2306  
G01 X-0.3874 Y1.2695  
G01 X-0.2970 Y1.2695  
G01 X-0.2911 Y1.2707  
G01 X-0.2856 Y1.2730  
G01 X-0.2806 Y1.2763  
G01 X-0.2763 Y1.2806  
G00 Z0.0500  
G00 X-0.4328 Y1.3868  
G01 Z-0.0035 F10    
G01 X-0.4303 Y1.3912  F20    
G01 X-0.4276 Y1.3930  
G01 X-0.4227 Y1.3979  
G01 X-0.4188 Y1.4036  
G01 X-0.4162 Y1.4101  
G01 X-0.4148 Y1.4168  
G01 X-0.4148 Y1.4832  
G01 X-0.4162 Y1.4899  
G01 X-0.4188 Y1.4964  
G01 X-0.4227 Y1.5021  
G01 X-0.4276 Y1.5070  
G01 X-0.4333 Y1.5109  
G01 X-0.4397 Y1.5135  
G01 X-0.4465 Y1.5149  
G01 X-0.4535 Y1.5149  
G01 X-0.4603 Y1.5135  
G01 X-0.4667 Y1.5109  
G01 X-0.4724 Y1.5070  
G01 X-0.4773 Y1.5021  
G01 X-0.4812 Y1.4964  
G01 X-0.4838 Y1.4899  
G01 X-0.4852 Y1.4832  
G01 X-0.4852 Y1.4168  
G01 X-0.4838 Y1.4101  
G01 X-0.4812 Y1.4036  
G01 X-0.4794 Y1.4010  
G01 X-0.5089 Y1.3715  
G01 X-0.6427 Y1.3715  
G01 X-0.7658 Y1.4662  
G01 X-0.7668 Y1.4672  
G01 X-0.7680 Y1.4679  
G01 X-0.7691 Y1.4688  
G01 X-0.7705 Y1.4693  
G01 X-0.7717 Y1.4700  
G01 X-0.7731 Y1.4704  
G01 X-0.7744 Y1.4709  
G01 X-0.7758 Y1.4711  
G01 X-0.7772 Y1.4715  
G01 X-0.7786 Y1.4715  
G01 X-0.7800 Y1.4717  
G01 X-0.7814 Y1.4715  
G01 X-1.3685 Y1.4715  
G01 X-1.3685 Y1.4791  
G01 X-1.3697 Y1.4852  
G01 X-1.3721 Y1.4909  
G01 X-1.3755 Y1.4961  
G01 X-1.3799 Y1.5005  
G01 X-1.3851 Y1.5039  
G01 X-1.3908 Y1.5063  
G01 X-1.3969 Y1.5075  
G01 X-1.4031 Y1.5075  
G01 X-1.4092 Y1.5063  
G01 X-1.4149 Y1.5039  
G01 X-1.4201 Y1.5005  
G01 X-1.4245 Y1.4961  
G01 X-1.4279 Y1.4909  
G01 X-1.4303 Y1.4852  
G01 X-1.4315 Y1.4791  
G01 X-1.4315 Y1.4209  
G01 X-1.4303 Y1.4148  
G01 X-1.4279 Y1.4091  
G01 X-1.4245 Y1.4039  
G01 X-1.4201 Y1.3995  
G01 X-1.4149 Y1.3961  
G01 X-1.4092 Y1.3937  
G01 X-1.4031 Y1.3925  
G01 X-1.3969 Y1.3925  
G01 X-1.3908 Y1.3937  
G01 X-1.3851 Y1.3961  
G01 X-1.3799 Y1.3995  
G01 X-1.3755 Y1.4039  
G01 X-1.3721 Y1.4091  
G01 X-1.3697 Y1.4148  
G01 X-1.3685 Y1.4209  
G01 X-1.3685 Y1.4285  
G01 X-0.7873 Y1.4285  
G01 X-0.6642 Y1.3338  
G01 X-0.6632 Y1.3328  
G01 X-0.6620 Y1.3321  
G01 X-0.6609 Y1.3312  
G01 X-0.6595 Y1.3307  
G01 X-0.6583 Y1.3300  
G01 X-0.6569 Y1.3296  
G01 X-0.6556 Y1.3291  
G01 X-0.6542 Y1.3289  
G01 X-0.6528 Y1.3285  
G01 X-0.6514 Y1.3285  
G01 X-0.6500 Y1.3283  
G01 X-0.6486 Y1.3285  
G01 X-0.4972 Y1.3285  
G01 X-0.4917 Y1.3300  
G01 X-0.4868 Y1.3328  
G01 X-0.4368 Y1.3828  
G01 X-0.4328 Y1.3868  
G00 Z0.0500  
G00 X-0.5227 Y1.3979  
G01 Z-0.0035 F10    
G01 X-0.5188 Y1.4036  F20    
G01 X-0.5162 Y1.4101  
G01 X-0.5148 Y1.4168  
G01 X-0.5148 Y1.4832  
G01 X-0.5162 Y1.4899  
G01 X-0.5188 Y1.4964  
G01 X-0.5227 Y1.5021  
G01 X-0.5276 Y1.5070  
G01 X-0.5333 Y1.5109  
G01 X-0.5397 Y1.5135  
G01 X-0.5465 Y1.5149  
G01 X-0.5535 Y1.5149  
G01 X-0.5603 Y1.5135  
G01 X-0.5667 Y1.5109  
G01 X-0.5724 Y1.5070  
G01 X-0.5773 Y1.5021  
G01 X-0.5812 Y1.4964  
G01 X-0.5838 Y1.4899  
G01 X-0.5852 Y1.4832  
G01 X-0.5852 Y1.4715  
G01 X-0.6417 Y1.4715  
G01 X-0.7352 Y1.5556  
G01 X-0.7368 Y1.5572  
G01 X-0.7373 Y1.5575  
G01 X-0.7377 Y1.5579  
G01 X-0.7397 Y1.5589  
G01 X-0.7417 Y1.5600  
G01 X-0.7423 Y1.5602  
G01 X-0.7428 Y1.5604  
G01 X-0.7450 Y1.5609  
G01 X-0.7472 Y1.5615  
G01 X-0.7477 Y1.5615  
G01 X-0.7483 Y1.5616  
G01 X-0.7506 Y1.5615  
G01 X-1.4488 Y1.5615  
G01 X-1.4504 Y1.5617  
G01 X-1.4516 Y1.5615  
G01 X-1.4528 Y1.5615  
G01 X-1.4544 Y1.5611  
G01 X-1.4560 Y1.5608  
G01 X-1.4571 Y1.5603  
G01 X-1.4583 Y1.5600  
G01 X-1.4597 Y1.5592  
G01 X-1.4612 Y1.5586  
G01 X-1.4622 Y1.5578  
G01 X-1.4632 Y1.5572  
G01 X-1.4644 Y1.5560  
G01 X-1.5122 Y1.5178  
G01 X-1.5132 Y1.5172  
G01 X-1.5144 Y1.5160  
G01 X-1.5156 Y1.5150  
G01 X-1.5164 Y1.5141  
G01 X-1.5172 Y1.5132  
G01 X-1.5180 Y1.5118  
G01 X-1.5190 Y1.5105  
G01 X-1.5194 Y1.5093  
G01 X-1.5200 Y1.5083  
G01 X-1.5205 Y1.5067  
G01 X-1.5211 Y1.5052  
G01 X-1.5212 Y1.5040  
G01 X-1.5215 Y1.5028  
G01 X-1.5215 Y1.5012  
G01 X-1.5217 Y1.4996  
G01 X-1.5216 Y1.4990  
G01 X-1.5245 Y1.4961  
G01 X-1.5279 Y1.4909  
G01 X-1.5303 Y1.4852  
G01 X-1.5315 Y1.4791  
G01 X-1.5315 Y1.4209  
G01 X-1.5303 Y1.4148  
G01 X-1.5279 Y1.4091  
G01 X-1.5245 Y1.4039  
G01 X-1.5201 Y1.3995  
G01 X-1.5149 Y1.3961  
G01 X-1.5092 Y1.3937  
G01 X-1.5031 Y1.3925  
G01 X-1.4969 Y1.3925  
G01 X-1.4908 Y1.3937  
G01 X-1.4851 Y1.3961  
G01 X-1.4799 Y1.3995  
G01 X-1.4755 Y1.4039  
G01 X-1.4721 Y1.4091  
G01 X-1.4697 Y1.4148  
G01 X-1.4685 Y1.4209  
G01 X-1.4685 Y1.4791  
G01 X-1.4697 Y1.4852  
G01 X-1.4721 Y1.4909  
G01 X-1.4738 Y1.4934  
G01 X-1.4425 Y1.5185  
G01 X-0.7583 Y1.5185  
G01 X-0.6648 Y1.4344  
G01 X-0.6632 Y1.4328  
G01 X-0.6627 Y1.4325  
G01 X-0.6623 Y1.4321  
G01 X-0.6603 Y1.4311  
G01 X-0.6583 Y1.4300  
G01 X-0.6577 Y1.4298  
G01 X-0.6572 Y1.4296  
G01 X-0.6550 Y1.4291  
G01 X-0.6528 Y1.4285  
G01 X-0.6523 Y1.4285  
G01 X-0.6517 Y1.4284  
G01 X-0.6494 Y1.4285  
G01 X-0.5852 Y1.4285  
G01 X-0.5852 Y1.4168  
G01 X-0.5838 Y1.4101  
G01 X-0.5812 Y1.4036  
G01 X-0.5773 Y1.3979  
G01 X-0.5724 Y1.3930  
G01 X-0.5667 Y1.3891  
G01 X-0.5603 Y1.3865  
G01 X-0.5535 Y1.3851  
G01 X-0.5465 Y1.3851  
G01 X-0.5397 Y1.3865  
G01 X-0.5333 Y1.3891  
G01 X-0.5276 Y1.3930  
G01 X-0.5227 Y1.3979  
G00 Z0.0500  
G00 X-0.4202 Y1.5785  
G01 Z-0.0035 F10    
G01 X-0.4175 Y1.5785  F20    
G01 X-0.4173 Y1.5785  
G01 X-0.4172 Y1.5785  
G01 X-0.4146 Y1.5792  
G01 X-0.4120 Y1.5798  
G01 X-0.4119 Y1.5799  
G01 X-0.4117 Y1.5800  
G01 X-0.4094 Y1.5813  
G01 X-0.3244 Y1.6285  
G01 X-0.1018 Y1.6285  
G01 X-0.1007 Y1.6283  
G01 X-0.0990 Y1.6285  
G01 X-0.0972 Y1.6285  
G01 X-0.0962 Y1.6288  
G01 X-0.0951 Y1.6289  
G01 X-0.0934 Y1.6295  
G01 X-0.0917 Y1.6300  
G01 X-0.0908 Y1.6305  
G01 X-0.0898 Y1.6309  
G01 X-0.0883 Y1.6319  
G01 X-0.0868 Y1.6328  
G01 X-0.0861 Y1.6335  
G01 X-0.0183 Y1.6819  
G01 X-0.0168 Y1.6828  
G01 X-0.0161 Y1.6835  
G01 X-0.0152 Y1.6841  
G01 X-0.0141 Y1.6855  
G01 X-0.0128 Y1.6868  
G01 X-0.0123 Y1.6877  
G01 X-0.0116 Y1.6885  
G01 X-0.0109 Y1.6902  
G01 X-0.0100 Y1.6917  
G01 X-0.0097 Y1.6927  
G01 X-0.0093 Y1.6937  
G01 X-0.0090 Y1.6954  
G01 X-0.0085 Y1.6972  
G01 X-0.0085 Y1.6982  
G01 X-0.0083 Y1.6993  
G01 X-0.0085 Y1.7010  
G01 X-0.0085 Y2.9490  
G01 X-0.0083 Y2.9507  
G01 X-0.0085 Y2.9518  
G01 X-0.0085 Y2.9528  
G01 X-0.0090 Y2.9546  
G01 X-0.0093 Y2.9563  
G01 X-0.0097 Y2.9573  
G01 X-0.0100 Y2.9583  
G01 X-0.0109 Y2.9598  
G01 X-0.0116 Y2.9615  
G01 X-0.0123 Y2.9623  
G01 X-0.0128 Y2.9632  
G01 X-0.0141 Y2.9645  
G01 X-0.0152 Y2.9659  
G01 X-0.0161 Y2.9665  
G01 X-0.0168 Y2.9672  
G01 X-0.0183 Y2.9681  
G01 X-0.0861 Y3.0165  
G01 X-0.0868 Y3.0172  
G01 X-0.0883 Y3.0181  
G01 X-0.0898 Y3.0191  
G01 X-0.0908 Y3.0195  
G01 X-0.0917 Y3.0200  
G01 X-0.0934 Y3.0205  
G01 X-0.0951 Y3.0211  
G01 X-0.0962 Y3.0212  
G01 X-0.0972 Y3.0215  
G01 X-0.0990 Y3.0215  
G01 X-0.1007 Y3.0217  
G01 X-0.1018 Y3.0215  
G01 X-0.3010 Y3.0215  
G01 X-0.3039 Y3.0245  
G01 X-0.3091 Y3.0279  
G01 X-0.3148 Y3.0303  
G01 X-0.3209 Y3.0315  
G01 X-0.3791 Y3.0315  
G01 X-0.3852 Y3.0303  
G01 X-0.3909 Y3.0279  
G01 X-0.3961 Y3.0245  
G01 X-0.4005 Y3.0201  
G01 X-0.4039 Y3.0149  
G01 X-0.4063 Y3.0092  
G01 X-0.4075 Y3.0031  
G01 X-0.4075 Y2.9969  
G01 X-0.4063 Y2.9908  
G01 X-0.4039 Y2.9851  
G01 X-0.4005 Y2.9799  
G01 X-0.3961 Y2.9755  
G01 X-0.3909 Y2.9721  
G01 X-0.3852 Y2.9697  
G01 X-0.3791 Y2.9685  
G01 X-0.3209 Y2.9685  
G01 X-0.3148 Y2.9697  
G01 X-0.3091 Y2.9721  
G01 X-0.3039 Y2.9755  
G01 X-0.3010 Y2.9785  
G01 X-0.1069 Y2.9785  
G01 X-0.0515 Y2.9389  
G01 X-0.0515 Y1.7111  
G01 X-0.1069 Y1.6715  
G01 X-0.3298 Y1.6715  
G01 X-0.3325 Y1.6715  
G01 X-0.3327 Y1.6715  
G01 X-0.3328 Y1.6715  
G01 X-0.3354 Y1.6708  
G01 X-0.3380 Y1.6702  
G01 X-0.3381 Y1.6701  
G01 X-0.3383 Y1.6700  
G01 X-0.3406 Y1.6687  
G01 X-0.4256 Y1.6215  
G01 X-1.6028 Y1.6215  
G01 X-1.6083 Y1.6200  
G01 X-1.6132 Y1.6172  
G01 X-1.6172 Y1.6132  
G01 X-1.7172 Y1.5132  
G01 X-1.7200 Y1.5083  
G01 X-1.7215 Y1.5028  
G01 X-1.7215 Y1.4990  
G01 X-1.7245 Y1.4961  
G01 X-1.7279 Y1.4909  
G01 X-1.7303 Y1.4852  
G01 X-1.7315 Y1.4791  
G01 X-1.7315 Y1.4209  
G01 X-1.7303 Y1.4148  
G01 X-1.7279 Y1.4091  
G01 X-1.7245 Y1.4039  
G01 X-1.7201 Y1.3995  
G01 X-1.7149 Y1.3961  
G01 X-1.7092 Y1.3937  
G01 X-1.7031 Y1.3925  
G01 X-1.6969 Y1.3925  
G01 X-1.6908 Y1.3937  
G01 X-1.6851 Y1.3961  
G01 X-1.6799 Y1.3995  
G01 X-1.6755 Y1.4039  
G01 X-1.6721 Y1.4091  
G01 X-1.6697 Y1.4148  
G01 X-1.6685 Y1.4209  
G01 X-1.6685 Y1.4791  
G01 X-1.6697 Y1.4852  
G01 X-1.6721 Y1.4909  
G01 X-1.6747 Y1.4949  
G01 X-1.5911 Y1.5785  
G01 X-0.4202 Y1.5785  
G00 Z0.0500  
G00 X-0.3945 Y1.8745  
G01 Z-0.0035 F10    
G01 X-0.3909 Y1.8721  F20    
G01 X-0.3852 Y1.8697  
G01 X-0.3791 Y1.8685  
G01 X-0.3209 Y1.8685  
G01 X-0.3148 Y1.8697  
G01 X-0.3091 Y1.8721  
G01 X-0.3039 Y1.8755  
G01 X-0.2995 Y1.8799  
G01 X-0.2961 Y1.8851  
G01 X-0.2937 Y1.8908  
G01 X-0.2925 Y1.8969  
G01 X-0.2925 Y1.9031  
G01 X-0.2937 Y1.9092  
G01 X-0.2961 Y1.9149  
G01 X-0.2995 Y1.9201  
G01 X-0.3039 Y1.9245  
G01 X-0.3091 Y1.9279  
G01 X-0.3148 Y1.9303  
G01 X-0.3209 Y1.9315  
G01 X-0.3791 Y1.9315  
G01 X-0.3852 Y1.9303  
G01 X-0.3909 Y1.9279  
G01 X-0.3945 Y1.9255  
G01 X-0.4911 Y1.9255  
G01 X-0.7330 Y2.1190  
G01 X-0.7337 Y2.1198  
G01 X-0.7349 Y2.1206  
G01 X-0.7360 Y2.1215  
G01 X-0.7370 Y2.1220  
G01 X-0.7379 Y2.1226  
G01 X-0.7392 Y2.1231  
G01 X-0.7405 Y2.1238  
G01 X-0.7415 Y2.1241  
G01 X-0.7426 Y2.1245  
G01 X-0.7440 Y2.1248  
G01 X-0.7453 Y2.1252  
G01 X-0.7464 Y2.1253  
G01 X-0.7475 Y2.1255  
G01 X-0.7489 Y2.1255  
G01 X-0.7503 Y2.1256  
G01 X-0.7514 Y2.1255  
G01 X-0.9055 Y2.1255  
G01 X-0.9091 Y2.1279  
G01 X-0.9148 Y2.1303  
G01 X-0.9209 Y2.1315  
G01 X-0.9791 Y2.1315  
G01 X-0.9852 Y2.1303  
G01 X-0.9909 Y2.1279  
G01 X-0.9945 Y2.1255  
G01 X-1.1525 Y2.1255  
G01 X-1.1574 Y2.1245  
G01 X-1.1621 Y2.1226  
G01 X-1.1663 Y2.1198  
G01 X-1.2663 Y2.0198  
G01 X-1.2698 Y2.0163  
G01 X-1.2726 Y2.0121  
G01 X-1.2745 Y2.0074  
G01 X-1.2755 Y2.0025  
G01 X-1.2755 Y1.7290  
G01 X-1.2769 Y1.7284  
G01 X-1.2784 Y1.7269  
G01 X-1.2792 Y1.7248  
G01 X-1.2792 Y1.6752  
G01 X-1.2784 Y1.6731  
G01 X-1.2769 Y1.6716  
G01 X-1.2748 Y1.6708  
G01 X-1.2252 Y1.6708  
G01 X-1.2231 Y1.6716  
G01 X-1.2216 Y1.6731  
G01 X-1.2208 Y1.6752  
G01 X-1.2208 Y1.7248  
G01 X-1.2216 Y1.7269  
G01 X-1.2231 Y1.7284  
G01 X-1.2245 Y1.7290  
G01 X-1.2245 Y1.9894  
G01 X-1.1394 Y2.0745  
G01 X-0.9945 Y2.0745  
G01 X-0.9909 Y2.0721  
G01 X-0.9852 Y2.0697  
G01 X-0.9791 Y2.0685  
G01 X-0.9209 Y2.0685  
G01 X-0.9148 Y2.0697  
G01 X-0.9091 Y2.0721  
G01 X-0.9055 Y2.0745  
G01 X-0.7589 Y2.0745  
G01 X-0.5170 Y1.8810  
G01 X-0.5163 Y1.8802  
G01 X-0.5151 Y1.8794  
G01 X-0.5140 Y1.8785  
G01 X-0.5130 Y1.8780  
G01 X-0.5121 Y1.8774  
G01 X-0.5108 Y1.8769  
G01 X-0.5095 Y1.8762  
G01 X-0.5085 Y1.8759  
G01 X-0.5074 Y1.8755  
G01 X-0.5060 Y1.8752  
G01 X-0.5047 Y1.8748  
G01 X-0.5036 Y1.8747  
G01 X-0.5025 Y1.8745  
G01 X-0.5011 Y1.8745  
G01 X-0.4997 Y1.8744  
G01 X-0.4986 Y1.8745  
G01 X-0.3945 Y1.8745  
G00 Z0.0500  
G00 X-0.3909 Y1.9721  
G01 Z-0.0035 F10    
G01 X-0.3852 Y1.9697  F20    
G01 X-0.3791 Y1.9685  
G01 X-0.3209 Y1.9685  
G01 X-0.3148 Y1.9697  
G01 X-0.3091 Y1.9721  
G01 X-0.3039 Y1.9755  
G01 X-0.3023 Y1.9771  
G01 X-0.2102 Y1.9311  
G01 X-0.2088 Y1.9303  
G01 X-0.2070 Y1.9276  
G01 X-0.2021 Y1.9227  
G01 X-0.1964 Y1.9188  
G01 X-0.1899 Y1.9162  
G01 X-0.1832 Y1.9148  
G01 X-0.1168 Y1.9148  
G01 X-0.1101 Y1.9162  
G01 X-0.1036 Y1.9188  
G01 X-0.0979 Y1.9227  
G01 X-0.0930 Y1.9276  
G01 X-0.0891 Y1.9333  
G01 X-0.0865 Y1.9397  
G01 X-0.0851 Y1.9465  
G01 X-0.0851 Y1.9535  
G01 X-0.0865 Y1.9603  
G01 X-0.0891 Y1.9667  
G01 X-0.0930 Y1.9724  
G01 X-0.0979 Y1.9773  
G01 X-0.1036 Y1.9812  
G01 X-0.1101 Y1.9838  
G01 X-0.1168 Y1.9852  
G01 X-0.1832 Y1.9852  
G01 X-0.1899 Y1.9838  
G01 X-0.1964 Y1.9812  
G01 X-0.2021 Y1.9773  
G01 X-0.2036 Y1.9758  
G01 X-0.2898 Y2.0189  
G01 X-0.2917 Y2.0200  
G01 X-0.2923 Y2.0202  
G01 X-0.2929 Y2.0205  
G01 X-0.2951 Y2.0209  
G01 X-0.2972 Y2.0215  
G01 X-0.2978 Y2.0215  
G01 X-0.2985 Y2.0216  
G01 X-0.3006 Y2.0215  
G01 X-0.3010 Y2.0215  
G01 X-0.3039 Y2.0245  
G01 X-0.3091 Y2.0279  
G01 X-0.3148 Y2.0303  
G01 X-0.3209 Y2.0315  
G01 X-0.3791 Y2.0315  
G01 X-0.3852 Y2.0303  
G01 X-0.3909 Y2.0279  
G01 X-0.3961 Y2.0245  
G01 X-0.4005 Y2.0201  
G01 X-0.4039 Y2.0149  
G01 X-0.4063 Y2.0092  
G01 X-0.4075 Y2.0031  
G01 X-0.4075 Y1.9969  
G01 X-0.4063 Y1.9908  
G01 X-0.4039 Y1.9851  
G01 X-0.4005 Y1.9799  
G01 X-0.3961 Y1.9755  
G01 X-0.3909 Y1.9721  
G00 Z0.0500  
G00 X-0.3909 Y2.0721  
G01 Z-0.0035 F10    
G01 X-0.3852 Y2.0697  F20    
G01 X-0.3791 Y2.0685  
G01 X-0.3209 Y2.0685  
G01 X-0.3148 Y2.0697  
G01 X-0.3091 Y2.0721  
G01 X-0.3039 Y2.0755  
G01 X-0.3010 Y2.0785  
G01 X-0.2089 Y2.0785  
G01 X-0.2049 Y2.0745  
G01 X-0.2070 Y2.0724  
G01 X-0.2109 Y2.0667  
G01 X-0.2135 Y2.0603  
G01 X-0.2149 Y2.0535  
G01 X-0.2149 Y2.0465  
G01 X-0.2135 Y2.0397  
G01 X-0.2109 Y2.0333  
G01 X-0.2070 Y2.0276  
G01 X-0.2021 Y2.0227  
G01 X-0.1964 Y2.0188  
G01 X-0.1899 Y2.0162  
G01 X-0.1832 Y2.0148  
G01 X-0.1168 Y2.0148  
G01 X-0.1101 Y2.0162  
G01 X-0.1036 Y2.0188  
G01 X-0.0979 Y2.0227  
G01 X-0.0930 Y2.0276  
G01 X-0.0891 Y2.0333  
G01 X-0.0865 Y2.0397  
G01 X-0.0851 Y2.0465  
G01 X-0.0851 Y2.0535  
G01 X-0.0865 Y2.0603  
G01 X-0.0891 Y2.0667  
G01 X-0.0930 Y2.0724  
G01 X-0.0979 Y2.0773  
G01 X-0.1036 Y2.0812  
G01 X-0.1101 Y2.0838  
G01 X-0.1168 Y2.0852  
G01 X-0.1548 Y2.0852  
G01 X-0.1828 Y2.1132  
G01 X-0.1868 Y2.1172  
G01 X-0.1917 Y2.1200  
G01 X-0.1972 Y2.1215  
G01 X-0.3010 Y2.1215  
G01 X-0.3039 Y2.1245  
G01 X-0.3091 Y2.1279  
G01 X-0.3148 Y2.1303  
G01 X-0.3209 Y2.1315  
G01 X-0.3791 Y2.1315  
G01 X-0.3852 Y2.1303  
G01 X-0.3909 Y2.1279  
G01 X-0.3961 Y2.1245  
G01 X-0.4005 Y2.1201  
G01 X-0.4039 Y2.1149  
G01 X-0.4063 Y2.1092  
G01 X-0.4075 Y2.1031  
G01 X-0.4075 Y2.0969  
G01 X-0.4063 Y2.0908  
G01 X-0.4039 Y2.0851  
G01 X-0.4005 Y2.0799  
G01 X-0.3961 Y2.0755  
G01 X-0.3909 Y2.0721  
G00 Z0.0500  
G00 X-0.3909 Y2.1721  
G01 Z-0.0035 F10    
G01 X-0.3852 Y2.1697  F20    
G01 X-0.3791 Y2.1685  
G01 X-0.3209 Y2.1685  
G01 X-0.3159 Y2.1695  
G01 X-0.1974 Y2.1695  
G01 X-0.1964 Y2.1688  
G01 X-0.1899 Y2.1662  
G01 X-0.1832 Y2.1648  
G01 X-0.1168 Y2.1648  
G01 X-0.1101 Y2.1662  
G01 X-0.1036 Y2.1688  
G01 X-0.0979 Y2.1727  
G01 X-0.0930 Y2.1776  
G01 X-0.0891 Y2.1833  
G01 X-0.0865 Y2.1897  
G01 X-0.0851 Y2.1965  
G01 X-0.0851 Y2.2035  
G01 X-0.0865 Y2.2103  
G01 X-0.0891 Y2.2167  
G01 X-0.0930 Y2.2224  
G01 X-0.0979 Y2.2273  
G01 X-0.1036 Y2.2312  
G01 X-0.1101 Y2.2338  
G01 X-0.1168 Y2.2352  
G01 X-0.1832 Y2.2352  
G01 X-0.1899 Y2.2338  
G01 X-0.1964 Y2.2312  
G01 X-0.1974 Y2.2305  
G01 X-0.3159 Y2.2305  
G01 X-0.3209 Y2.2315  
G01 X-0.3791 Y2.2315  
G01 X-0.3852 Y2.2303  
G01 X-0.3909 Y2.2279  
G01 X-0.3961 Y2.2245  
G01 X-0.4005 Y2.2201  
G01 X-0.4039 Y2.2149  
G01 X-0.4063 Y2.2092  
G01 X-0.4075 Y2.2031  
G01 X-0.4075 Y2.1969  
G01 X-0.4063 Y2.1908  
G01 X-0.4039 Y2.1851  
G01 X-0.4005 Y2.1799  
G01 X-0.3961 Y2.1755  
G01 X-0.3909 Y2.1721  
G00 Z0.0500  
G00 X-0.3909 Y2.2721  
G01 Z-0.0035 F10    
G01 X-0.3852 Y2.2697  F20    
G01 X-0.3791 Y2.2685  
G01 X-0.3209 Y2.2685  
G01 X-0.3159 Y2.2695  
G01 X-0.1974 Y2.2695  
G01 X-0.1964 Y2.2688  
G01 X-0.1899 Y2.2662  
G01 X-0.1832 Y2.2648  
G01 X-0.1168 Y2.2648  
G01 X-0.1101 Y2.2662  
G01 X-0.1036 Y2.2688  
G01 X-0.0979 Y2.2727  
G01 X-0.0930 Y2.2776  
G01 X-0.0891 Y2.2833  
G01 X-0.0865 Y2.2897  
G01 X-0.0851 Y2.2965  
G01 X-0.0851 Y2.3035  
G01 X-0.0865 Y2.3103  
G01 X-0.0891 Y2.3167  
G01 X-0.0930 Y2.3224  
G01 X-0.0979 Y2.3273  
G01 X-0.1036 Y2.3312  
G01 X-0.1101 Y2.3338  
G01 X-0.1168 Y2.3352  
G01 X-0.1832 Y2.3352  
G01 X-0.1899 Y2.3338  
G01 X-0.1964 Y2.3312  
G01 X-0.1974 Y2.3305  
G01 X-0.3159 Y2.3305  
G01 X-0.3209 Y2.3315  
G01 X-0.3791 Y2.3315  
G01 X-0.3852 Y2.3303  
G01 X-0.3909 Y2.3279  
G01 X-0.3961 Y2.3245  
G01 X-0.4005 Y2.3201  
G01 X-0.4039 Y2.3149  
G01 X-0.4063 Y2.3092  
G01 X-0.4075 Y2.3031  
G01 X-0.4075 Y2.2969  
G01 X-0.4063 Y2.2908  
G01 X-0.4039 Y2.2851  
G01 X-0.4005 Y2.2799  
G01 X-0.3961 Y2.2755  
G01 X-0.3909 Y2.2721  
G00 Z0.0500  
G00 X-0.3909 Y2.3721  
G01 Z-0.0035 F10    
G01 X-0.3852 Y2.3697  F20    
G01 X-0.3791 Y2.3685  
G01 X-0.3209 Y2.3685  
G01 X-0.3159 Y2.3695  
G01 X-0.1974 Y2.3695  
G01 X-0.1964 Y2.3688  
G01 X-0.1899 Y2.3662  
G01 X-0.1832 Y2.3648  
G01 X-0.1168 Y2.3648  
G01 X-0.1101 Y2.3662  
G01 X-0.1036 Y2.3688  
G01 X-0.0979 Y2.3727  
G01 X-0.0930 Y2.3776  
G01 X-0.0891 Y2.3833  
G01 X-0.0865 Y2.3897  
G01 X-0.0851 Y2.3965  
G01 X-0.0851 Y2.4035  
G01 X-0.0865 Y2.4103  
G01 X-0.0891 Y2.4167  
G01 X-0.0930 Y2.4224  
G01 X-0.0979 Y2.4273  
G01 X-0.1036 Y2.4312  
G01 X-0.1101 Y2.4338  
G01 X-0.1168 Y2.4352  
G01 X-0.1832 Y2.4352  
G01 X-0.1899 Y2.4338  
G01 X-0.1964 Y2.4312  
G01 X-0.1974 Y2.4305  
G01 X-0.3159 Y2.4305  
G01 X-0.3209 Y2.4315  
G01 X-0.3791 Y2.4315  
G01 X-0.3852 Y2.4303  
G01 X-0.3909 Y2.4279  
G01 X-0.3961 Y2.4245  
G01 X-0.4005 Y2.4201  
G01 X-0.4039 Y2.4149  
G01 X-0.4063 Y2.4092  
G01 X-0.4075 Y2.4031  
G01 X-0.4075 Y2.3969  
G01 X-0.4063 Y2.3908  
G01 X-0.4039 Y2.3851  
G01 X-0.4005 Y2.3799  
G01 X-0.3961 Y2.3755  
G01 X-0.3909 Y2.3721  
G00 Z0.0500  
G00 X-0.3909 Y2.4721  
G01 Z-0.0035 F10    
G01 X-0.3852 Y2.4697  F20    
G01 X-0.3791 Y2.4685  
G01 X-0.3209 Y2.4685  
G01 X-0.3159 Y2.4695  
G01 X-0.1974 Y2.4695  
G01 X-0.1964 Y2.4688  
G01 X-0.1899 Y2.4662  
G01 X-0.1832 Y2.4648  
G01 X-0.1168 Y2.4648  
G01 X-0.1101 Y2.4662  
G01 X-0.1036 Y2.4688  
G01 X-0.0979 Y2.4727  
G01 X-0.0930 Y2.4776  
G01 X-0.0891 Y2.4833  
G01 X-0.0865 Y2.4897  
G01 X-0.0851 Y2.4965  
G01 X-0.0851 Y2.5035  
G01 X-0.0865 Y2.5103  
G01 X-0.0891 Y2.5167  
G01 X-0.0930 Y2.5224  
G01 X-0.0979 Y2.5273  
G01 X-0.1036 Y2.5312  
G01 X-0.1101 Y2.5338  
G01 X-0.1168 Y2.5352  
G01 X-0.1832 Y2.5352  
G01 X-0.1899 Y2.5338  
G01 X-0.1964 Y2.5312  
G01 X-0.1974 Y2.5305  
G01 X-0.3159 Y2.5305  
G01 X-0.3209 Y2.5315  
G01 X-0.3791 Y2.5315  
G01 X-0.3852 Y2.5303  
G01 X-0.3909 Y2.5279  
G01 X-0.3961 Y2.5245  
G01 X-0.4005 Y2.5201  
G01 X-0.4039 Y2.5149  
G01 X-0.4063 Y2.5092  
G01 X-0.4075 Y2.5031  
G01 X-0.4075 Y2.4969  
G01 X-0.4063 Y2.4908  
G01 X-0.4039 Y2.4851  
G01 X-0.4005 Y2.4799  
G01 X-0.3961 Y2.4755  
G01 X-0.3909 Y2.4721  
G00 Z0.0500  
G00 X-0.3909 Y2.5721  
G01 Z-0.0035 F10    
G01 X-0.3852 Y2.5697  F20    
G01 X-0.3791 Y2.5685  
G01 X-0.3209 Y2.5685  
G01 X-0.3159 Y2.5695  
G01 X-0.1974 Y2.5695  
G01 X-0.1964 Y2.5688  
G01 X-0.1899 Y2.5662  
G01 X-0.1832 Y2.5648  
G01 X-0.1168 Y2.5648  
G01 X-0.1101 Y2.5662  
G01 X-0.1036 Y2.5688  
G01 X-0.0979 Y2.5727  
G01 X-0.0930 Y2.5776  
G01 X-0.0891 Y2.5833  
G01 X-0.0865 Y2.5897  
G01 X-0.0851 Y2.5965  
G01 X-0.0851 Y2.6035  
G01 X-0.0865 Y2.6103  
G01 X-0.0891 Y2.6167  
G01 X-0.0930 Y2.6224  
G01 X-0.0979 Y2.6273  
G01 X-0.1036 Y2.6312  
G01 X-0.1101 Y2.6338  
G01 X-0.1168 Y2.6352  
G01 X-0.1832 Y2.6352  
G01 X-0.1899 Y2.6338  
G01 X-0.1964 Y2.6312  
G01 X-0.1974 Y2.6305  
G01 X-0.3159 Y2.6305  
G01 X-0.3209 Y2.6315  
G01 X-0.3791 Y2.6315  
G01 X-0.3852 Y2.6303  
G01 X-0.3909 Y2.6279  
G01 X-0.3961 Y2.6245  
G01 X-0.4005 Y2.6201  
G01 X-0.4039 Y2.6149  
G01 X-0.4063 Y2.6092  
G01 X-0.4075 Y2.6031  
G01 X-0.4075 Y2.5969  
G01 X-0.4063 Y2.5908  
G01 X-0.4039 Y2.5851  
G01 X-0.4005 Y2.5799  
G01 X-0.3961 Y2.5755  
G01 X-0.3909 Y2.5721  
G00 Z0.0500  
G00 X-0.3909 Y2.6721  
G01 Z-0.0035 F10    
G01 X-0.3852 Y2.6697  F20    
G01 X-0.3791 Y2.6685  
G01 X-0.3209 Y2.6685  
G01 X-0.3159 Y2.6695  
G01 X-0.1974 Y2.6695  
G01 X-0.1964 Y2.6688  
G01 X-0.1899 Y2.6662  
G01 X-0.1832 Y2.6648  
G01 X-0.1168 Y2.6648  
G01 X-0.1101 Y2.6662  
G01 X-0.1036 Y2.6688  
G01 X-0.0979 Y2.6727  
G01 X-0.0930 Y2.6776  
G01 X-0.0891 Y2.6833  
G01 X-0.0865 Y2.6897  
G01 X-0.0851 Y2.6965  
G01 X-0.0851 Y2.7035  
G01 X-0.0865 Y2.7103  
G01 X-0.0891 Y2.7167  
G01 X-0.0930 Y2.7224  
G01 X-0.0979 Y2.7273  
G01 X-0.1036 Y2.7312  
G01 X-0.1101 Y2.7338  
G01 X-0.1168 Y2.7352  
G01 X-0.1832 Y2.7352  
G01 X-0.1899 Y2.7338  
G01 X-0.1964 Y2.7312  
G01 X-0.1974 Y2.7305  
G01 X-0.3159 Y2.7305  
G01 X-0.3209 Y2.7315  
G01 X-0.3791 Y2.7315  
G01 X-0.3852 Y2.7303  
G01 X-0.3909 Y2.7279  
G01 X-0.3961 Y2.7245  
G01 X-0.4005 Y2.7201  
G01 X-0.4039 Y2.7149  
G01 X-0.4063 Y2.7092  
G01 X-0.4075 Y2.7031  
G01 X-0.4075 Y2.6969  
G01 X-0.4063 Y2.6908  
G01 X-0.4039 Y2.6851  
G01 X-0.4005 Y2.6799  
G01 X-0.3961 Y2.6755  
G01 X-0.3909 Y2.6721  
G00 Z0.0500  
G00 X-0.3909 Y2.7721  
G01 Z-0.0035 F10    
G01 X-0.3852 Y2.7697  F20    
G01 X-0.3791 Y2.7685  
G01 X-0.3209 Y2.7685  
G01 X-0.3159 Y2.7695  
G01 X-0.1974 Y2.7695  
G01 X-0.1964 Y2.7688  
G01 X-0.1899 Y2.7662  
G01 X-0.1832 Y2.7648  
G01 X-0.1168 Y2.7648  
G01 X-0.1101 Y2.7662  
G01 X-0.1036 Y2.7688  
G01 X-0.0979 Y2.7727  
G01 X-0.0930 Y2.7776  
G01 X-0.0891 Y2.7833  
G01 X-0.0865 Y2.7897  
G01 X-0.0851 Y2.7965  
G01 X-0.0851 Y2.8035  
G01 X-0.0865 Y2.8103  
G01 X-0.0891 Y2.8167  
G01 X-0.0930 Y2.8224  
G01 X-0.0979 Y2.8273  
G01 X-0.1036 Y2.8312  
G01 X-0.1101 Y2.8338  
G01 X-0.1168 Y2.8352  
G01 X-0.1832 Y2.8352  
G01 X-0.1899 Y2.8338  
G01 X-0.1964 Y2.8312  
G01 X-0.1974 Y2.8305  
G01 X-0.3159 Y2.8305  
G01 X-0.3209 Y2.8315  
G01 X-0.3791 Y2.8315  
G01 X-0.3852 Y2.8303  
G01 X-0.3909 Y2.8279  
G01 X-0.3961 Y2.8245  
G01 X-0.4005 Y2.8201  
G01 X-0.4039 Y2.8149  
G01 X-0.4063 Y2.8092  
G01 X-0.4075 Y2.8031  
G01 X-0.4075 Y2.7969  
G01 X-0.4063 Y2.7908  
G01 X-0.4039 Y2.7851  
G01 X-0.4005 Y2.7799  
G01 X-0.3961 Y2.7755  
G01 X-0.3909 Y2.7721  
G00 Z0.0500  
G00 X-0.3909 Y2.8721  
G01 Z-0.0035 F10    
G01 X-0.3852 Y2.8697  F20    
G01 X-0.3791 Y2.8685  
G01 X-0.3209 Y2.8685  
G01 X-0.3159 Y2.8695  
G01 X-0.1974 Y2.8695  
G01 X-0.1964 Y2.8688  
G01 X-0.1899 Y2.8662  
G01 X-0.1832 Y2.8648  
G01 X-0.1168 Y2.8648  
G01 X-0.1101 Y2.8662  
G01 X-0.1036 Y2.8688  
G01 X-0.0979 Y2.8727  
G01 X-0.0930 Y2.8776  
G01 X-0.0891 Y2.8833  
G01 X-0.0865 Y2.8897  
G01 X-0.0851 Y2.8965  
G01 X-0.0851 Y2.9035  
G01 X-0.0865 Y2.9103  
G01 X-0.0891 Y2.9167  
G01 X-0.0930 Y2.9224  
G01 X-0.0979 Y2.9273  
G01 X-0.1036 Y2.9312  
G01 X-0.1101 Y2.9338  
G01 X-0.1168 Y2.9352  
G01 X-0.1832 Y2.9352  
G01 X-0.1899 Y2.9338  
G01 X-0.1964 Y2.9312  
G01 X-0.1974 Y2.9305  
G01 X-0.3159 Y2.9305  
G01 X-0.3209 Y2.9315  
G01 X-0.3791 Y2.9315  
G01 X-0.3852 Y2.9303  
G01 X-0.3909 Y2.9279  
G01 X-0.3961 Y2.9245  
G01 X-0.4005 Y2.9201  
G01 X-0.4039 Y2.9149  
G01 X-0.4063 Y2.9092  
G01 X-0.4075 Y2.9031  
G01 X-0.4075 Y2.8969  
G01 X-0.4063 Y2.8908  
G01 X-0.4039 Y2.8851  
G01 X-0.4005 Y2.8799  
G01 X-0.3961 Y2.8755  
G01 X-0.3909 Y2.8721  
G00 Z0.0500  
G00 X-0.8995 Y2.8799  
G01 Z-0.0035 F10    
G01 X-0.8961 Y2.8851  F20    
G01 X-0.8937 Y2.8908  
G01 X-0.8925 Y2.8969  
G01 X-0.8925 Y2.9031  
G01 X-0.8937 Y2.9092  
G01 X-0.8961 Y2.9149  
G01 X-0.8995 Y2.9201  
G01 X-0.9039 Y2.9245  
G01 X-0.9091 Y2.9279  
G01 X-0.9148 Y2.9303  
G01 X-0.9209 Y2.9315  
G01 X-0.9791 Y2.9315  
G01 X-0.9841 Y2.9305  
G01 X-1.1526 Y2.9305  
G01 X-1.1536 Y2.9312  
G01 X-1.1601 Y2.9338  
G01 X-1.1668 Y2.9352  
G01 X-1.2332 Y2.9352  
G01 X-1.2399 Y2.9338  
G01 X-1.2464 Y2.9312  
G01 X-1.2521 Y2.9273  
G01 X-1.2570 Y2.9224  
G01 X-1.2609 Y2.9167  
G01 X-1.2635 Y2.9103  
G01 X-1.2649 Y2.9035  
G01 X-1.2649 Y2.8965  
G01 X-1.2635 Y2.8897  
G01 X-1.2609 Y2.8833  
G01 X-1.2570 Y2.8776  
G01 X-1.2521 Y2.8727  
G01 X-1.2464 Y2.8688  
G01 X-1.2399 Y2.8662  
G01 X-1.2332 Y2.8648  
G01 X-1.1668 Y2.8648  
G01 X-1.1601 Y2.8662  
G01 X-1.1536 Y2.8688  
G01 X-1.1526 Y2.8695  
G01 X-0.9841 Y2.8695  
G01 X-0.9791 Y2.8685  
G01 X-0.9209 Y2.8685  
G01 X-0.9148 Y2.8697  
G01 X-0.9091 Y2.8721  
G01 X-0.9039 Y2.8755  
G01 X-0.8995 Y2.8799  
G00 Z0.0500  
G00 X-0.9039 Y2.8245  
G01 Z-0.0035 F10    
G01 X-0.9091 Y2.8279  F20    
G01 X-0.9148 Y2.8303  
G01 X-0.9209 Y2.8315  
G01 X-0.9791 Y2.8315  
G01 X-0.9841 Y2.8305  
G01 X-1.1526 Y2.8305  
G01 X-1.1536 Y2.8312  
G01 X-1.1601 Y2.8338  
G01 X-1.1668 Y2.8352  
G01 X-1.2332 Y2.8352  
G01 X-1.2399 Y2.8338  
G01 X-1.2464 Y2.8312  
G01 X-1.2521 Y2.8273  
G01 X-1.2570 Y2.8224  
G01 X-1.2609 Y2.8167  
G01 X-1.2635 Y2.8103  
G01 X-1.2649 Y2.8035  
G01 X-1.2649 Y2.7965  
G01 X-1.2635 Y2.7897  
G01 X-1.2609 Y2.7833  
G01 X-1.2570 Y2.7776  
G01 X-1.2521 Y2.7727  
G01 X-1.2464 Y2.7688  
G01 X-1.2399 Y2.7662  
G01 X-1.2332 Y2.7648  
G01 X-1.1668 Y2.7648  
G01 X-1.1601 Y2.7662  
G01 X-1.1536 Y2.7688  
G01 X-1.1526 Y2.7695  
G01 X-0.9841 Y2.7695  
G01 X-0.9791 Y2.7685  
G01 X-0.9209 Y2.7685  
G01 X-0.9148 Y2.7697  
G01 X-0.9091 Y2.7721  
G01 X-0.9039 Y2.7755  
G01 X-0.8995 Y2.7799  
G01 X-0.8961 Y2.7851  
G01 X-0.8937 Y2.7908  
G01 X-0.8925 Y2.7969  
G01 X-0.8925 Y2.8031  
G01 X-0.8937 Y2.8092  
G01 X-0.8961 Y2.8149  
G01 X-0.8995 Y2.8201  
G01 X-0.9039 Y2.8245  
G00 Z0.0500  
G00 X-0.9039 Y2.7245  
G01 Z-0.0035 F10    
G01 X-0.9091 Y2.7279  F20    
G01 X-0.9148 Y2.7303  
G01 X-0.9209 Y2.7315  
G01 X-0.9791 Y2.7315  
G01 X-0.9841 Y2.7305  
G01 X-1.1526 Y2.7305  
G01 X-1.1536 Y2.7312  
G01 X-1.1601 Y2.7338  
G01 X-1.1668 Y2.7352  
G01 X-1.2332 Y2.7352  
G01 X-1.2399 Y2.7338  
G01 X-1.2464 Y2.7312  
G01 X-1.2521 Y2.7273  
G01 X-1.2570 Y2.7224  
G01 X-1.2609 Y2.7167  
G01 X-1.2635 Y2.7103  
G01 X-1.2649 Y2.7035  
G01 X-1.2649 Y2.6965  
G01 X-1.2635 Y2.6897  
G01 X-1.2609 Y2.6833  
G01 X-1.2570 Y2.6776  
G01 X-1.2521 Y2.6727  
G01 X-1.2464 Y2.6688  
G01 X-1.2399 Y2.6662  
G01 X-1.2332 Y2.6648  
G01 X-1.1668 Y2.6648  
G01 X-1.1601 Y2.6662  
G01 X-1.1536 Y2.6688  
G01 X-1.1526 Y2.6695  
G01 X-0.9841 Y2.6695  
G01 X-0.9791 Y2.6685  
G01 X-0.9209 Y2.6685  
G01 X-0.9148 Y2.6697  
G01 X-0.9091 Y2.6721  
G01 X-0.9039 Y2.6755  
G01 X-0.8995 Y2.6799  
G01 X-0.8961 Y2.6851  
G01 X-0.8937 Y2.6908  
G01 X-0.8925 Y2.6969  
G01 X-0.8925 Y2.7031  
G01 X-0.8937 Y2.7092  
G01 X-0.8961 Y2.7149  
G01 X-0.8995 Y2.7201  
G01 X-0.9039 Y2.7245  
G00 Z0.0500  
G00 X-0.9039 Y2.6245  
G01 Z-0.0035 F10    
G01 X-0.9091 Y2.6279  F20    
G01 X-0.9148 Y2.6303  
G01 X-0.9209 Y2.6315  
G01 X-0.9791 Y2.6315  
G01 X-0.9841 Y2.6305  
G01 X-1.1526 Y2.6305  
G01 X-1.1536 Y2.6312  
G01 X-1.1601 Y2.6338  
G01 X-1.1668 Y2.6352  
G01 X-1.2332 Y2.6352  
G01 X-1.2399 Y2.6338  
G01 X-1.2464 Y2.6312  
G01 X-1.2521 Y2.6273  
G01 X-1.2570 Y2.6224  
G01 X-1.2609 Y2.6167  
G01 X-1.2635 Y2.6103  
G01 X-1.2649 Y2.6035  
G01 X-1.2649 Y2.5965  
G01 X-1.2635 Y2.5897  
G01 X-1.2609 Y2.5833  
G01 X-1.2570 Y2.5776  
G01 X-1.2521 Y2.5727  
G01 X-1.2464 Y2.5688  
G01 X-1.2399 Y2.5662  
G01 X-1.2332 Y2.5648  
G01 X-1.1668 Y2.5648  
G01 X-1.1601 Y2.5662  
G01 X-1.1536 Y2.5688  
G01 X-1.1526 Y2.5695  
G01 X-0.9841 Y2.5695  
G01 X-0.9791 Y2.5685  
G01 X-0.9209 Y2.5685  
G01 X-0.9148 Y2.5697  
G01 X-0.9091 Y2.5721  
G01 X-0.9039 Y2.5755  
G01 X-0.8995 Y2.5799  
G01 X-0.8961 Y2.5851  
G01 X-0.8937 Y2.5908  
G01 X-0.8925 Y2.5969  
G01 X-0.8925 Y2.6031  
G01 X-0.8937 Y2.6092  
G01 X-0.8961 Y2.6149  
G01 X-0.8995 Y2.6201  
G01 X-0.9039 Y2.6245  
G00 Z0.0500  
G00 X-0.9039 Y2.5245  
G01 Z-0.0035 F10    
G01 X-0.9091 Y2.5279  F20    
G01 X-0.9148 Y2.5303  
G01 X-0.9209 Y2.5315  
G01 X-0.9791 Y2.5315  
G01 X-0.9841 Y2.5305  
G01 X-1.1526 Y2.5305  
G01 X-1.1536 Y2.5312  
G01 X-1.1601 Y2.5338  
G01 X-1.1668 Y2.5352  
G01 X-1.2332 Y2.5352  
G01 X-1.2399 Y2.5338  
G01 X-1.2464 Y2.5312  
G01 X-1.2521 Y2.5273  
G01 X-1.2570 Y2.5224  
G01 X-1.2609 Y2.5167  
G01 X-1.2635 Y2.5103  
G01 X-1.2649 Y2.5035  
G01 X-1.2649 Y2.4965  
G01 X-1.2635 Y2.4897  
G01 X-1.2609 Y2.4833  
G01 X-1.2570 Y2.4776  
G01 X-1.2521 Y2.4727  
G01 X-1.2464 Y2.4688  
G01 X-1.2399 Y2.4662  
G01 X-1.2332 Y2.4648  
G01 X-1.1668 Y2.4648  
G01 X-1.1601 Y2.4662  
G01 X-1.1536 Y2.4688  
G01 X-1.1526 Y2.4695  
G01 X-0.9841 Y2.4695  
G01 X-0.9791 Y2.4685  
G01 X-0.9209 Y2.4685  
G01 X-0.9148 Y2.4697  
G01 X-0.9091 Y2.4721  
G01 X-0.9039 Y2.4755  
G01 X-0.8995 Y2.4799  
G01 X-0.8961 Y2.4851  
G01 X-0.8937 Y2.4908  
G01 X-0.8925 Y2.4969  
G01 X-0.8925 Y2.5031  
G01 X-0.8937 Y2.5092  
G01 X-0.8961 Y2.5149  
G01 X-0.8995 Y2.5201  
G01 X-0.9039 Y2.5245  
G00 Z0.0500  
G00 X-0.9039 Y2.4245  
G01 Z-0.0035 F10    
G01 X-0.9091 Y2.4279  F20    
G01 X-0.9148 Y2.4303  
G01 X-0.9209 Y2.4315  
G01 X-0.9791 Y2.4315  
G01 X-0.9841 Y2.4305  
G01 X-1.1526 Y2.4305  
G01 X-1.1536 Y2.4312  
G01 X-1.1601 Y2.4338  
G01 X-1.1668 Y2.4352  
G01 X-1.2332 Y2.4352  
G01 X-1.2399 Y2.4338  
G01 X-1.2464 Y2.4312  
G01 X-1.2521 Y2.4273  
G01 X-1.2570 Y2.4224  
G01 X-1.2609 Y2.4167  
G01 X-1.2635 Y2.4103  
G01 X-1.2649 Y2.4035  
G01 X-1.2649 Y2.3965  
G01 X-1.2635 Y2.3897  
G01 X-1.2609 Y2.3833  
G01 X-1.2570 Y2.3776  
G01 X-1.2521 Y2.3727  
G01 X-1.2464 Y2.3688  
G01 X-1.2399 Y2.3662  
G01 X-1.2332 Y2.3648  
G01 X-1.1668 Y2.3648  
G01 X-1.1601 Y2.3662  
G01 X-1.1536 Y2.3688  
G01 X-1.1526 Y2.3695  
G01 X-0.9841 Y2.3695  
G01 X-0.9791 Y2.3685  
G01 X-0.9209 Y2.3685  
G01 X-0.9148 Y2.3697  
G01 X-0.9091 Y2.3721  
G01 X-0.9039 Y2.3755  
G01 X-0.8995 Y2.3799  
G01 X-0.8961 Y2.3851  
G01 X-0.8937 Y2.3908  
G01 X-0.8925 Y2.3969  
G01 X-0.8925 Y2.4031  
G01 X-0.8937 Y2.4092  
G01 X-0.8961 Y2.4149  
G01 X-0.8995 Y2.4201  
G01 X-0.9039 Y2.4245  
G00 Z0.0500  
G00 X-0.9039 Y2.3245  
G01 Z-0.0035 F10    
G01 X-0.9091 Y2.3279  F20    
G01 X-0.9148 Y2.3303  
G01 X-0.9209 Y2.3315  
G01 X-0.9791 Y2.3315  
G01 X-0.9841 Y2.3305  
G01 X-1.1526 Y2.3305  
G01 X-1.1536 Y2.3312  
G01 X-1.1601 Y2.3338  
G01 X-1.1668 Y2.3352  
G01 X-1.2332 Y2.3352  
G01 X-1.2399 Y2.3338  
G01 X-1.2464 Y2.3312  
G01 X-1.2521 Y2.3273  
G01 X-1.2570 Y2.3224  
G01 X-1.2609 Y2.3167  
G01 X-1.2635 Y2.3103  
G01 X-1.2649 Y2.3035  
G01 X-1.2649 Y2.2965  
G01 X-1.2635 Y2.2897  
G01 X-1.2609 Y2.2833  
G01 X-1.2570 Y2.2776  
G01 X-1.2521 Y2.2727  
G01 X-1.2464 Y2.2688  
G01 X-1.2399 Y2.2662  
G01 X-1.2332 Y2.2648  
G01 X-1.1668 Y2.2648  
G01 X-1.1601 Y2.2662  
G01 X-1.1536 Y2.2688  
G01 X-1.1526 Y2.2695  
G01 X-0.9841 Y2.2695  
G01 X-0.9791 Y2.2685  
G01 X-0.9209 Y2.2685  
G01 X-0.9148 Y2.2697  
G01 X-0.9091 Y2.2721  
G01 X-0.9039 Y2.2755  
G01 X-0.8995 Y2.2799  
G01 X-0.8961 Y2.2851  
G01 X-0.8937 Y2.2908  
G01 X-0.8925 Y2.2969  
G01 X-0.8925 Y2.3031  
G01 X-0.8937 Y2.3092  
G01 X-0.8961 Y2.3149  
G01 X-0.8995 Y2.3201  
G01 X-0.9039 Y2.3245  
G00 Z0.0500  
G00 X-0.9039 Y2.2245  
G01 Z-0.0035 F10    
G01 X-0.9091 Y2.2279  F20    
G01 X-0.9148 Y2.2303  
G01 X-0.9209 Y2.2315  
G01 X-0.9791 Y2.2315  
G01 X-0.9841 Y2.2305  
G01 X-1.1526 Y2.2305  
G01 X-1.1536 Y2.2312  
G01 X-1.1601 Y2.2338  
G01 X-1.1668 Y2.2352  
G01 X-1.2332 Y2.2352  
G01 X-1.2399 Y2.2338  
G01 X-1.2464 Y2.2312  
G01 X-1.2521 Y2.2273  
G01 X-1.2570 Y2.2224  
G01 X-1.2609 Y2.2167  
G01 X-1.2635 Y2.2103  
G01 X-1.2649 Y2.2035  
G01 X-1.2649 Y2.1965  
G01 X-1.2635 Y2.1897  
G01 X-1.2609 Y2.1833  
G01 X-1.2570 Y2.1776  
G01 X-1.2521 Y2.1727  
G01 X-1.2464 Y2.1688  
G01 X-1.2399 Y2.1662  
G01 X-1.2332 Y2.1648  
G01 X-1.1668 Y2.1648  
G01 X-1.1601 Y2.1662  
G01 X-1.1536 Y2.1688  
G01 X-1.1526 Y2.1695  
G01 X-0.9841 Y2.1695  
G01 X-0.9791 Y2.1685  
G01 X-0.9209 Y2.1685  
G01 X-0.9148 Y2.1697  
G01 X-0.9091 Y2.1721  
G01 X-0.9039 Y2.1755  
G01 X-0.8995 Y2.1799  
G01 X-0.8961 Y2.1851  
G01 X-0.8937 Y2.1908  
G01 X-0.8925 Y2.1969  
G01 X-0.8925 Y2.2031  
G01 X-0.8937 Y2.2092  
G01 X-0.8961 Y2.2149  
G01 X-0.8995 Y2.2201  
G01 X-0.9039 Y2.2245  
G00 Z0.0500  
G00 X-0.9039 Y2.0245  
G01 Z-0.0035 F10    
G01 X-0.9091 Y2.0279  F20    
G01 X-0.9148 Y2.0303  
G01 X-0.9209 Y2.0315  
G01 X-0.9791 Y2.0315  
G01 X-0.9852 Y2.0303  
G01 X-0.9909 Y2.0279  
G01 X-0.9961 Y2.0245  
G01 X-1.0005 Y2.0201  
G01 X-1.0039 Y2.0149  
G01 X-1.0063 Y2.0092  
G01 X-1.0075 Y2.0031  
G01 X-1.0075 Y1.9969  
G01 X-1.0063 Y1.9908  
G01 X-1.0039 Y1.9851  
G01 X-1.0005 Y1.9799  
G01 X-0.9961 Y1.9755  
G01 X-0.9909 Y1.9721  
G01 X-0.9852 Y1.9697  
G01 X-0.9791 Y1.9685  
G01 X-0.9209 Y1.9685  
G01 X-0.9148 Y1.9697  
G01 X-0.9091 Y1.9721  
G01 X-0.9039 Y1.9755  
G01 X-0.9010 Y1.9785  
G01 X-0.8569 Y1.9785  
G01 X-0.6140 Y1.8036  
G01 X-0.6132 Y1.8028  
G01 X-0.6117 Y1.8019  
G01 X-0.6103 Y1.8009  
G01 X-0.6092 Y1.8005  
G01 X-0.6083 Y1.8000  
G01 X-0.6066 Y1.7995  
G01 X-0.6050 Y1.7989  
G01 X-0.6039 Y1.7988  
G01 X-0.6028 Y1.7985  
G01 X-0.6011 Y1.7985  
G01 X-0.5993 Y1.7983  
G01 X-0.5983 Y1.7985  
G01 X-0.2626 Y1.7985  
G01 X-0.2625 Y1.7985  
G01 X-0.2598 Y1.7985  
G01 X-0.2572 Y1.7985  
G01 X-0.2570 Y1.7985  
G01 X-0.2568 Y1.7986  
G01 X-0.2543 Y1.7993  
G01 X-0.2517 Y1.8000  
G01 X-0.2515 Y1.8001  
G01 X-0.2514 Y1.8001  
G01 X-0.2491 Y1.8015  
G01 X-0.2468 Y1.8028  
G01 X-0.2467 Y1.8029  
G01 X-0.2065 Y1.8270  
G01 X-0.2021 Y1.8227  
G01 X-0.1964 Y1.8188  
G01 X-0.1899 Y1.8162  
G01 X-0.1832 Y1.8148  
G01 X-0.1168 Y1.8148  
G01 X-0.1101 Y1.8162  
G01 X-0.1036 Y1.8188  
G01 X-0.0979 Y1.8227  
G01 X-0.0930 Y1.8276  
G01 X-0.0891 Y1.8333  
G01 X-0.0865 Y1.8397  
G01 X-0.0851 Y1.8465  
G01 X-0.0851 Y1.8535  
G01 X-0.0865 Y1.8603  
G01 X-0.0891 Y1.8667  
G01 X-0.0930 Y1.8724  
G01 X-0.0979 Y1.8773  
G01 X-0.1036 Y1.8812  
G01 X-0.1101 Y1.8838  
G01 X-0.1168 Y1.8852  
G01 X-0.1832 Y1.8852  
G01 X-0.1899 Y1.8838  
G01 X-0.1964 Y1.8812  
G01 X-0.2021 Y1.8773  
G01 X-0.2070 Y1.8724  
G01 X-0.2076 Y1.8715  
G01 X-0.2102 Y1.8715  
G01 X-0.2128 Y1.8715  
G01 X-0.2130 Y1.8715  
G01 X-0.2132 Y1.8714  
G01 X-0.2157 Y1.8707  
G01 X-0.2183 Y1.8700  
G01 X-0.2185 Y1.8699  
G01 X-0.2186 Y1.8699  
G01 X-0.2209 Y1.8685  
G01 X-0.2232 Y1.8672  
G01 X-0.2233 Y1.8671  
G01 X-0.2660 Y1.8415  
G01 X-0.5931 Y1.8415  
G01 X-0.8360 Y2.0164  
G01 X-0.8368 Y2.0172  
G01 X-0.8383 Y2.0181  
G01 X-0.8397 Y2.0191  
G01 X-0.8408 Y2.0195  
G01 X-0.8417 Y2.0200  
G01 X-0.8434 Y2.0205  
G01 X-0.8450 Y2.0211  
G01 X-0.8461 Y2.0212  
G01 X-0.8472 Y2.0215  
G01 X-0.8489 Y2.0215  
G01 X-0.8507 Y2.0217  
G01 X-0.8517 Y2.0215  
G01 X-0.9010 Y2.0215  
G01 X-0.9039 Y2.0245  
G00 Z0.0500  
G00 X-0.9039 Y1.9245  
G01 Z-0.0035 F10    
G01 X-0.9091 Y1.9279  F20    
G01 X-0.9148 Y1.9303  
G01 X-0.9209 Y1.9315  
G01 X-0.9791 Y1.9315  
G01 X-0.9852 Y1.9303  
G01 X-0.9909 Y1.9279  
G01 X-0.9961 Y1.9245  
G01 X-1.0005 Y1.9201  
G01 X-1.0039 Y1.9149  
G01 X-1.0063 Y1.9092  
G01 X-1.0075 Y1.9031  
G01 X-1.0075 Y1.8969  
G01 X-1.0063 Y1.8908  
G01 X-1.0039 Y1.8851  
G01 X-1.0005 Y1.8799  
G01 X-0.9961 Y1.8755  
G01 X-0.9909 Y1.8721  
G01 X-0.9852 Y1.8697  
G01 X-0.9791 Y1.8685  
G01 X-0.9438 Y1.8685  
G01 X-0.7641 Y1.7337  
G01 X-0.7632 Y1.7328  
G01 X-0.7619 Y1.7320  
G01 X-0.7606 Y1.7311  
G01 X-0.7594 Y1.7306  
G01 X-0.7583 Y1.7300  
G01 X-0.7568 Y1.7296  
G01 X-0.7554 Y1.7290  
G01 X-0.7541 Y1.7288  
G01 X-0.7528 Y1.7285  
G01 X-0.7513 Y1.7285  
G01 X-0.7498 Y1.7283  
G01 X-0.7485 Y1.7285  
G01 X-0.2076 Y1.7285  
G01 X-0.2070 Y1.7276  
G01 X-0.2021 Y1.7227  
G01 X-0.1964 Y1.7188  
G01 X-0.1899 Y1.7162  
G01 X-0.1832 Y1.7148  
G01 X-0.1168 Y1.7148  
G01 X-0.1101 Y1.7162  
G01 X-0.1036 Y1.7188  
G01 X-0.0979 Y1.7227  
G01 X-0.0930 Y1.7276  
G01 X-0.0891 Y1.7333  
G01 X-0.0865 Y1.7397  
G01 X-0.0851 Y1.7465  
G01 X-0.0851 Y1.7535  
G01 X-0.0865 Y1.7603  
G01 X-0.0891 Y1.7667  
G01 X-0.0930 Y1.7724  
G01 X-0.0979 Y1.7773  
G01 X-0.1036 Y1.7812  
G01 X-0.1101 Y1.7838  
G01 X-0.1168 Y1.7852  
G01 X-0.1832 Y1.7852  
G01 X-0.1899 Y1.7838  
G01 X-0.1964 Y1.7812  
G01 X-0.2021 Y1.7773  
G01 X-0.2070 Y1.7724  
G01 X-0.2076 Y1.7715  
G01 X-0.7428 Y1.7715  
G01 X-0.8957 Y1.8861  
G01 X-0.8937 Y1.8908  
G01 X-0.8925 Y1.8969  
G01 X-0.8925 Y1.9031  
G01 X-0.8937 Y1.9092  
G01 X-0.8961 Y1.9149  
G01 X-0.8995 Y1.9201  
G01 X-0.9039 Y1.9245  
G00 Z0.0500  
G00 X-1.4430 Y1.9276  
G01 Z-0.0035 F10    
G01 X-1.4391 Y1.9333  F20    
G01 X-1.4365 Y1.9397  
G01 X-1.4351 Y1.9465  
G01 X-1.4351 Y1.9535  
G01 X-1.4365 Y1.9603  
G01 X-1.4391 Y1.9667  
G01 X-1.4430 Y1.9724  
G01 X-1.4479 Y1.9773  
G01 X-1.4536 Y1.9812  
G01 X-1.4601 Y1.9838  
G01 X-1.4668 Y1.9852  
G01 X-1.5332 Y1.9852  
G01 X-1.5399 Y1.9838  
G01 X-1.5464 Y1.9812  
G01 X-1.5521 Y1.9773  
G01 X-1.5536 Y1.9758  
G01 X-1.6398 Y2.0189  
G01 X-1.6417 Y2.0200  
G01 X-1.6423 Y2.0202  
G01 X-1.6429 Y2.0205  
G01 X-1.6451 Y2.0209  
G01 X-1.6472 Y2.0215  
G01 X-1.6478 Y2.0215  
G01 X-1.6485 Y2.0216  
G01 X-1.6506 Y2.0215  
G01 X-1.6510 Y2.0215  
G01 X-1.6539 Y2.0245  
G01 X-1.6591 Y2.0279  
G01 X-1.6648 Y2.0303  
G01 X-1.6709 Y2.0315  
G01 X-1.7291 Y2.0315  
G01 X-1.7352 Y2.0303  
G01 X-1.7409 Y2.0279  
G01 X-1.7461 Y2.0245  
G01 X-1.7505 Y2.0201  
G01 X-1.7539 Y2.0149  
G01 X-1.7563 Y2.0092  
G01 X-1.7575 Y2.0031  
G01 X-1.7575 Y1.9969  
G01 X-1.7563 Y1.9908  
G01 X-1.7539 Y1.9851  
G01 X-1.7505 Y1.9799  
G01 X-1.7461 Y1.9755  
G01 X-1.7409 Y1.9721  
G01 X-1.7352 Y1.9697  
G01 X-1.7291 Y1.9685  
G01 X-1.6709 Y1.9685  
G01 X-1.6648 Y1.9697  
G01 X-1.6591 Y1.9721  
G01 X-1.6539 Y1.9755  
G01 X-1.6523 Y1.9771  
G01 X-1.5602 Y1.9311  
G01 X-1.5588 Y1.9303  
G01 X-1.5570 Y1.9276  
G01 X-1.5521 Y1.9227  
G01 X-1.5464 Y1.9188  
G01 X-1.5399 Y1.9162  
G01 X-1.5332 Y1.9148  
G01 X-1.4668 Y1.9148  
G01 X-1.4601 Y1.9162  
G01 X-1.4536 Y1.9188  
G01 X-1.4479 Y1.9227  
G01 X-1.4430 Y1.9276  
G00 Z0.0500  
G00 X-1.4479 Y1.8773  
G01 Z-0.0035 F10    
G01 X-1.4536 Y1.8812  F20    
G01 X-1.4601 Y1.8838  
G01 X-1.4668 Y1.8852  
G01 X-1.5332 Y1.8852  
G01 X-1.5399 Y1.8838  
G01 X-1.5464 Y1.8812  
G01 X-1.5521 Y1.8773  
G01 X-1.5570 Y1.8724  
G01 X-1.5588 Y1.8697  
G01 X-1.5602 Y1.8689  
G01 X-1.6151 Y1.8415  
G01 X-1.9528 Y1.8415  
G01 X-2.1859 Y2.0163  
G01 X-2.1868 Y2.0172  
G01 X-2.1881 Y2.0180  
G01 X-2.1894 Y2.0189  
G01 X-2.1906 Y2.0194  
G01 X-2.1917 Y2.0200  
G01 X-2.1932 Y2.0204  
G01 X-2.1946 Y2.0210  
G01 X-2.1959 Y2.0212  
G01 X-2.1972 Y2.0215  
G01 X-2.1987 Y2.0215  
G01 X-2.2002 Y2.0217  
G01 X-2.2015 Y2.0215  
G01 X-2.2510 Y2.0215  
G01 X-2.2539 Y2.0245  
G01 X-2.2591 Y2.0279  
G01 X-2.2648 Y2.0303  
G01 X-2.2709 Y2.0315  
G01 X-2.3291 Y2.0315  
G01 X-2.3352 Y2.0303  
G01 X-2.3409 Y2.0279  
G01 X-2.3461 Y2.0245  
G01 X-2.3505 Y2.0201  
G01 X-2.3539 Y2.0149  
G01 X-2.3563 Y2.0092  
G01 X-2.3575 Y2.0031  
G01 X-2.3575 Y1.9969  
G01 X-2.3563 Y1.9908  
G01 X-2.3539 Y1.9851  
G01 X-2.3505 Y1.9799  
G01 X-2.3461 Y1.9755  
G01 X-2.3409 Y1.9721  
G01 X-2.3352 Y1.9697  
G01 X-2.3291 Y1.9685  
G01 X-2.2709 Y1.9685  
G01 X-2.2648 Y1.9697  
G01 X-2.2591 Y1.9721  
G01 X-2.2539 Y1.9755  
G01 X-2.2510 Y1.9785  
G01 X-2.2072 Y1.9785  
G01 X-1.9741 Y1.8037  
G01 X-1.9732 Y1.8028  
G01 X-1.9719 Y1.8020  
G01 X-1.9706 Y1.8011  
G01 X-1.9694 Y1.8006  
G01 X-1.9683 Y1.8000  
G01 X-1.9668 Y1.7996  
G01 X-1.9654 Y1.7990  
G01 X-1.9641 Y1.7988  
G01 X-1.9628 Y1.7985  
G01 X-1.9613 Y1.7985  
G01 X-1.9598 Y1.7983  
G01 X-1.9585 Y1.7985  
G01 X-1.6106 Y1.7985  
G01 X-1.6085 Y1.7984  
G01 X-1.6078 Y1.7985  
G01 X-1.6072 Y1.7985  
G01 X-1.6051 Y1.7991  
G01 X-1.6029 Y1.7995  
G01 X-1.6023 Y1.7998  
G01 X-1.6017 Y1.8000  
G01 X-1.5998 Y1.8011  
G01 X-1.5536 Y1.8242  
G01 X-1.5521 Y1.8227  
G01 X-1.5464 Y1.8188  
G01 X-1.5399 Y1.8162  
G01 X-1.5332 Y1.8148  
G01 X-1.4668 Y1.8148  
G01 X-1.4601 Y1.8162  
G01 X-1.4536 Y1.8188  
G01 X-1.4479 Y1.8227  
G01 X-1.4430 Y1.8276  
G01 X-1.4391 Y1.8333  
G01 X-1.4365 Y1.8397  
G01 X-1.4351 Y1.8465  
G01 X-1.4351 Y1.8535  
G01 X-1.4365 Y1.8603  
G01 X-1.4391 Y1.8667  
G01 X-1.4430 Y1.8724  
G01 X-1.4479 Y1.8773  
G00 Z0.0500  
G00 X-1.4479 Y1.7773  
G01 Z-0.0035 F10    
G01 X-1.4536 Y1.7812  F20    
G01 X-1.4601 Y1.7838  
G01 X-1.4668 Y1.7852  
G01 X-1.5332 Y1.7852  
G01 X-1.5399 Y1.7838  
G01 X-1.5464 Y1.7812  
G01 X-1.5521 Y1.7773  
G01 X-1.5570 Y1.7724  
G01 X-1.5576 Y1.7715  
G01 X-2.0928 Y1.7715  
G01 X-2.2457 Y1.8861  
G01 X-2.2437 Y1.8908  
G01 X-2.2425 Y1.8969  
G01 X-2.2425 Y1.9031  
G01 X-2.2437 Y1.9092  
G01 X-2.2461 Y1.9149  
G01 X-2.2495 Y1.9201  
G01 X-2.2539 Y1.9245  
G01 X-2.2591 Y1.9279  
G01 X-2.2648 Y1.9303  
G01 X-2.2709 Y1.9315  
G01 X-2.3291 Y1.9315  
G01 X-2.3352 Y1.9303  
G01 X-2.3409 Y1.9279  
G01 X-2.3461 Y1.9245  
G01 X-2.3505 Y1.9201  
G01 X-2.3539 Y1.9149  
G01 X-2.3563 Y1.9092  
G01 X-2.3575 Y1.9031  
G01 X-2.3575 Y1.8969  
G01 X-2.3563 Y1.8908  
G01 X-2.3539 Y1.8851  
G01 X-2.3505 Y1.8799  
G01 X-2.3461 Y1.8755  
G01 X-2.3409 Y1.8721  
G01 X-2.3352 Y1.8697  
G01 X-2.3291 Y1.8685  
G01 X-2.2938 Y1.8685  
G01 X-2.1141 Y1.7337  
G01 X-2.1132 Y1.7328  
G01 X-2.1119 Y1.7320  
G01 X-2.1106 Y1.7311  
G01 X-2.1094 Y1.7306  
G01 X-2.1083 Y1.7300  
G01 X-2.1068 Y1.7296  
G01 X-2.1054 Y1.7290  
G01 X-2.1041 Y1.7288  
G01 X-2.1028 Y1.7285  
G01 X-2.1013 Y1.7285  
G01 X-2.0998 Y1.7283  
G01 X-2.0985 Y1.7285  
G01 X-1.5576 Y1.7285  
G01 X-1.5570 Y1.7276  
G01 X-1.5521 Y1.7227  
G01 X-1.5464 Y1.7188  
G01 X-1.5399 Y1.7162  
G01 X-1.5332 Y1.7148  
G01 X-1.4668 Y1.7148  
G01 X-1.4601 Y1.7162  
G01 X-1.4536 Y1.7188  
G01 X-1.4479 Y1.7227  
G01 X-1.4430 Y1.7276  
G01 X-1.4391 Y1.7333  
G01 X-1.4365 Y1.7397  
G01 X-1.4351 Y1.7465  
G01 X-1.4351 Y1.7535  
G01 X-1.4365 Y1.7603  
G01 X-1.4391 Y1.7667  
G01 X-1.4430 Y1.7724  
G01 X-1.4479 Y1.7773  
G00 Z0.0500  
G00 X-1.3989 Y1.6815  
G01 Z-0.0035 F10    
G01 X-1.6928 Y1.6815  F20    
G01 X-1.6983 Y1.6800  
G01 X-1.7032 Y1.6772  
G01 X-1.8132 Y1.5672  
G01 X-1.8172 Y1.5632  
G01 X-1.8200 Y1.5583  
G01 X-1.8215 Y1.5528  
G01 X-1.8215 Y1.4990  
G01 X-1.8245 Y1.4961  
G01 X-1.8279 Y1.4909  
G01 X-1.8303 Y1.4852  
G01 X-1.8315 Y1.4791  
G01 X-1.8315 Y1.4209  
G01 X-1.8303 Y1.4148  
G01 X-1.8279 Y1.4091  
G01 X-1.8245 Y1.4039  
G01 X-1.8201 Y1.3995  
G01 X-1.8149 Y1.3961  
G01 X-1.8092 Y1.3937  
G01 X-1.8031 Y1.3925  
G01 X-1.7969 Y1.3925  
G01 X-1.7908 Y1.3937  
G01 X-1.7851 Y1.3961  
G01 X-1.7799 Y1.3995  
G01 X-1.7755 Y1.4039  
G01 X-1.7721 Y1.4091  
G01 X-1.7697 Y1.4148  
G01 X-1.7685 Y1.4209  
G01 X-1.7685 Y1.4791  
G01 X-1.7697 Y1.4852  
G01 X-1.7721 Y1.4909  
G01 X-1.7755 Y1.4961  
G01 X-1.7785 Y1.4990  
G01 X-1.7785 Y1.5411  
G01 X-1.6811 Y1.6385  
G01 X-1.3872 Y1.6385  
G01 X-1.3817 Y1.6400  
G01 X-1.3768 Y1.6428  
G01 X-1.3728 Y1.6468  
G01 X-1.3328 Y1.6868  
G01 X-1.3300 Y1.6917  
G01 X-1.3285 Y1.6972  
G01 X-1.3285 Y2.9193  
G01 X-1.3284 Y2.9214  
G01 X-1.3285 Y2.9221  
G01 X-1.3285 Y2.9228  
G01 X-1.3290 Y2.9249  
G01 X-1.3295 Y2.9269  
G01 X-1.3298 Y2.9276  
G01 X-1.3300 Y2.9283  
G01 X-1.3310 Y2.9301  
G01 X-1.3320 Y2.9320  
G01 X-1.3324 Y2.9326  
G01 X-1.3328 Y2.9332  
G01 X-1.3343 Y2.9347  
G01 X-1.4024 Y3.0126  
G01 X-1.4028 Y3.0132  
G01 X-1.4043 Y3.0147  
G01 X-1.4057 Y3.0163  
G01 X-1.4063 Y3.0167  
G01 X-1.4068 Y3.0172  
G01 X-1.4086 Y3.0183  
G01 X-1.4104 Y3.0194  
G01 X-1.4111 Y3.0197  
G01 X-1.4117 Y3.0200  
G01 X-1.4137 Y3.0206  
G01 X-1.4157 Y3.0213  
G01 X-1.4165 Y3.0213  
G01 X-1.4172 Y3.0215  
G01 X-1.4193 Y3.0215  
G01 X-1.4214 Y3.0216  
G01 X-1.4221 Y3.0215  
G01 X-1.6510 Y3.0215  
G01 X-1.6539 Y3.0245  
G01 X-1.6591 Y3.0279  
G01 X-1.6648 Y3.0303  
G01 X-1.6709 Y3.0315  
G01 X-1.7291 Y3.0315  
G01 X-1.7352 Y3.0303  
G01 X-1.7409 Y3.0279  
G01 X-1.7461 Y3.0245  
G01 X-1.7505 Y3.0201  
G01 X-1.7539 Y3.0149  
G01 X-1.7563 Y3.0092  
G01 X-1.7575 Y3.0031  
G01 X-1.7575 Y2.9969  
G01 X-1.7563 Y2.9908  
G01 X-1.7539 Y2.9851  
G01 X-1.7505 Y2.9799  
G01 X-1.7461 Y2.9755  
G01 X-1.7409 Y2.9721  
G01 X-1.7352 Y2.9697  
G01 X-1.7291 Y2.9685  
G01 X-1.6709 Y2.9685  
G01 X-1.6648 Y2.9697  
G01 X-1.6591 Y2.9721  
G01 X-1.6539 Y2.9755  
G01 X-1.6510 Y2.9785  
G01 X-1.4298 Y2.9785  
G01 X-1.3715 Y2.9119  
G01 X-1.3715 Y1.7089  
G01 X-1.3989 Y1.6815  
G00 Z0.0500  
G00 X-1.5799 Y1.5005  
G01 Z-0.0035 F10    
G01 X-1.5851 Y1.5039  F20    
G01 X-1.5908 Y1.5063  
G01 X-1.5969 Y1.5075  
G01 X-1.6031 Y1.5075  
G01 X-1.6092 Y1.5063  
G01 X-1.6149 Y1.5039  
G01 X-1.6201 Y1.5005  
G01 X-1.6245 Y1.4961  
G01 X-1.6279 Y1.4909  
G01 X-1.6303 Y1.4852  
G01 X-1.6315 Y1.4791  
G01 X-1.6315 Y1.4209  
G01 X-1.6303 Y1.4148  
G01 X-1.6279 Y1.4091  
G01 X-1.6245 Y1.4039  
G01 X-1.6201 Y1.3995  
G01 X-1.6149 Y1.3961  
G01 X-1.6092 Y1.3937  
G01 X-1.6031 Y1.3925  
G01 X-1.5969 Y1.3925  
G01 X-1.5908 Y1.3937  
G01 X-1.5851 Y1.3961  
G01 X-1.5799 Y1.3995  
G01 X-1.5755 Y1.4039  
G01 X-1.5721 Y1.4091  
G01 X-1.5697 Y1.4148  
G01 X-1.5685 Y1.4209  
G01 X-1.5685 Y1.4791  
G01 X-1.5697 Y1.4852  
G01 X-1.5721 Y1.4909  
G01 X-1.5755 Y1.4961  
G01 X-1.5799 Y1.5005  
G00 Z0.0500  
G00 X-1.5799 Y1.2005  
G01 Z-0.0035 F10    
G01 X-1.5851 Y1.2039  F20    
G01 X-1.5908 Y1.2063  
G01 X-1.5969 Y1.2075  
G01 X-1.6031 Y1.2075  
G01 X-1.6092 Y1.2063  
G01 X-1.6149 Y1.2039  
G01 X-1.6201 Y1.2005  
G01 X-1.6245 Y1.1961  
G01 X-1.6279 Y1.1909  
G01 X-1.6303 Y1.1852  
G01 X-1.6315 Y1.1791  
G01 X-1.6315 Y1.1209  
G01 X-1.6303 Y1.1148  
G01 X-1.6279 Y1.1091  
G01 X-1.6245 Y1.1039  
G01 X-1.6215 Y1.1010  
G01 X-1.6215 Y1.0472  
G01 X-1.6200 Y1.0417  
G01 X-1.6172 Y1.0368  
G01 X-1.6132 Y1.0328  
G01 X-1.1952 Y0.6148  
G01 X-1.1985 Y0.6114  
G01 X-1.1985 Y0.5712  
G01 X-1.1701 Y0.5428  
G01 X-1.1299 Y0.5428  
G01 X-1.1015 Y0.5712  
G01 X-1.1015 Y0.6114  
G01 X-1.1299 Y0.6398  
G01 X-1.1594 Y0.6398  
G01 X-1.5785 Y1.0589  
G01 X-1.5785 Y1.1010  
G01 X-1.5755 Y1.1039  
G01 X-1.5721 Y1.1091  
G01 X-1.5697 Y1.1148  
G01 X-1.5685 Y1.1209  
G01 X-1.5685 Y1.1791  
G01 X-1.5697 Y1.1852  
G01 X-1.5721 Y1.1909  
G01 X-1.5755 Y1.1961  
G01 X-1.5799 Y1.2005  
G00 Z0.0500  
G00 X-1.5245 Y1.1961  
G01 Z-0.0035 F10    
G01 X-1.5279 Y1.1909  F20    
G01 X-1.5303 Y1.1852  
G01 X-1.5315 Y1.1791  
G01 X-1.5315 Y1.1209  
G01 X-1.5303 Y1.1148  
G01 X-1.5279 Y1.1091  
G01 X-1.5245 Y1.1039  
G01 X-1.5201 Y1.0995  
G01 X-1.5149 Y1.0961  
G01 X-1.5092 Y1.0937  
G01 X-1.5031 Y1.0925  
G01 X-1.4969 Y1.0925  
G01 X-1.4908 Y1.0937  
G01 X-1.4851 Y1.0961  
G01 X-1.4799 Y1.0995  
G01 X-1.4755 Y1.1039  
G01 X-1.4721 Y1.1091  
G01 X-1.4697 Y1.1148  
G01 X-1.4685 Y1.1209  
G01 X-1.4685 Y1.1709  
G01 X-1.4454 Y1.2285  
G01 X-1.3534 Y1.2285  
G01 X-1.2349 Y1.1195  
G01 X-1.2332 Y1.1178  
G01 X-1.2328 Y1.1176  
G01 X-1.2325 Y1.1173  
G01 X-1.2304 Y1.1162  
G01 X-1.2283 Y1.1150  
G01 X-1.2279 Y1.1148  
G01 X-1.2275 Y1.1146  
G01 X-1.2251 Y1.1141  
G01 X-1.2228 Y1.1135  
G01 X-1.2224 Y1.1135  
G01 X-1.2219 Y1.1134  
G01 X-1.2196 Y1.1135  
G01 X-0.9252 Y1.1135  
G01 X-0.8115 Y0.9745  
G01 X-0.8115 Y0.9570  
G01 X-0.7930 Y0.9385  
G01 X-0.7670 Y0.9385  
G01 X-0.7485 Y0.9570  
G01 X-0.7485 Y0.9617  
G01 X-0.6836 Y0.9942  
G01 X-0.6801 Y0.9935  
G01 X-0.6219 Y0.9935  
G01 X-0.6158 Y0.9947  
G01 X-0.6101 Y0.9971  
G01 X-0.6049 Y1.0005  
G01 X-0.6005 Y1.0049  
G01 X-0.5971 Y1.0101  
G01 X-0.5947 Y1.0158  
G01 X-0.5935 Y1.0219  
G01 X-0.5935 Y1.0281  
G01 X-0.5947 Y1.0342  
G01 X-0.5971 Y1.0399  
G01 X-0.6005 Y1.0451  
G01 X-0.6049 Y1.0495  
G01 X-0.6101 Y1.0529  
G01 X-0.6158 Y1.0553  
G01 X-0.6219 Y1.0565  
G01 X-0.6801 Y1.0565  
G01 X-0.6862 Y1.0553  
G01 X-0.6919 Y1.0529  
G01 X-0.6971 Y1.0495  
G01 X-0.7015 Y1.0451  
G01 X-0.7049 Y1.0399  
G01 X-0.7073 Y1.0342  
G01 X-0.7081 Y1.0300  
G01 X-0.7663 Y1.0009  
G01 X-0.7670 Y1.0015  
G01 X-0.7780 Y1.0015  
G01 X-0.8973 Y1.1473  
G01 X-0.8978 Y1.1482  
G01 X-0.8990 Y1.1494  
G01 X-0.9002 Y1.1508  
G01 X-0.9010 Y1.1514  
G01 X-0.9018 Y1.1522  
G01 X-0.9033 Y1.1531  
G01 X-0.9047 Y1.1541  
G01 X-0.9058 Y1.1545  
G01 X-0.9067 Y1.1550  
G01 X-0.9084 Y1.1555  
G01 X-0.9100 Y1.1561  
G01 X-0.9111 Y1.1562  
G01 X-0.9122 Y1.1565  
G01 X-0.9139 Y1.1565  
G01 X-0.9157 Y1.1567  
G01 X-0.9167 Y1.1565  
G01 X-1.2116 Y1.1565  
G01 X-1.3301 Y1.2655  
G01 X-1.3318 Y1.2672  
G01 X-1.3322 Y1.2674  
G01 X-1.3325 Y1.2677  
G01 X-1.3346 Y1.2688  
G01 X-1.3367 Y1.2700  
G01 X-1.3371 Y1.2702  
G01 X-1.3375 Y1.2704  
G01 X-1.3399 Y1.2709  
G01 X-1.3422 Y1.2715  
G01 X-1.3426 Y1.2715  
G01 X-1.3431 Y1.2716  
G01 X-1.3454 Y1.2715  
G01 X-1.4587 Y1.2715  
G01 X-1.4603 Y1.2717  
G01 X-1.4615 Y1.2715  
G01 X-1.4628 Y1.2715  
G01 X-1.4643 Y1.2711  
G01 X-1.4659 Y1.2709  
G01 X-1.4671 Y1.2704  
G01 X-1.4683 Y1.2700  
G01 X-1.4696 Y1.2693  
G01 X-1.4711 Y1.2686  
G01 X-1.4721 Y1.2678  
G01 X-1.4732 Y1.2672  
G01 X-1.4743 Y1.2661  
G01 X-1.4755 Y1.2651  
G01 X-1.4763 Y1.2641  
G01 X-1.4772 Y1.2632  
G01 X-1.4780 Y1.2619  
G01 X-1.4789 Y1.2606  
G01 X-1.4794 Y1.2594  
G01 X-1.4800 Y1.2583  
G01 X-1.4804 Y1.2568  
G01 X-1.5002 Y1.2075  
G01 X-1.5031 Y1.2075  
G01 X-1.5092 Y1.2063  
G01 X-1.5149 Y1.2039  
G01 X-1.5201 Y1.2005  
G01 X-1.5245 Y1.1961  
G00 Z0.0500  
G00 X-1.4245 Y1.1961  
G01 Z-0.0035 F10    
G01 X-1.4279 Y1.1909  F20    
G01 X-1.4303 Y1.1852  
G01 X-1.4315 Y1.1791  
G01 X-1.4315 Y1.1209  
G01 X-1.4303 Y1.1148  
G01 X-1.4279 Y1.1091  
G01 X-1.4245 Y1.1039  
G01 X-1.4201 Y1.0995  
G01 X-1.4149 Y1.0961  
G01 X-1.4092 Y1.0937  
G01 X-1.4031 Y1.0925  
G01 X-1.3969 Y1.0925  
G01 X-1.3908 Y1.0937  
G01 X-1.3851 Y1.0961  
G01 X-1.3833 Y1.0973  
G01 X-1.2649 Y0.9788  
G01 X-1.2649 Y0.9765  
G01 X-1.2635 Y0.9697  
G01 X-1.2609 Y0.9633  
G01 X-1.2570 Y0.9576  
G01 X-1.2521 Y0.9527  
G01 X-1.2464 Y0.9488  
G01 X-1.2399 Y0.9462  
G01 X-1.2332 Y0.9448  
G01 X-1.1668 Y0.9448  
G01 X-1.1601 Y0.9462  
G01 X-1.1536 Y0.9488  
G01 X-1.1532 Y0.9491  
G01 X-1.1139 Y0.9448  
G01 X-1.1125 Y0.9445  
G01 X-1.1114 Y0.9445  
G01 X-1.1103 Y0.9444  
G01 X-1.1089 Y0.9445  
G01 X-0.9190 Y0.9445  
G01 X-0.9130 Y0.9385  
G01 X-0.8870 Y0.9385  
G01 X-0.8685 Y0.9570  
G01 X-0.8685 Y0.9830  
G01 X-0.8870 Y1.0015  
G01 X-0.9130 Y1.0015  
G01 X-0.9190 Y0.9955  
G01 X-1.1086 Y0.9955  
G01 X-1.1407 Y0.9991  
G01 X-1.1430 Y1.0024  
G01 X-1.1479 Y1.0073  
G01 X-1.1536 Y1.0112  
G01 X-1.1601 Y1.0138  
G01 X-1.1668 Y1.0152  
G01 X-1.2291 Y1.0152  
G01 X-1.3685 Y1.1546  
G01 X-1.3685 Y1.1791  
G01 X-1.3697 Y1.1852  
G01 X-1.3721 Y1.1909  
G01 X-1.3755 Y1.1961  
G01 X-1.3799 Y1.2005  
G01 X-1.3851 Y1.2039  
G01 X-1.3908 Y1.2063  
G01 X-1.3969 Y1.2075  
G01 X-1.4031 Y1.2075  
G01 X-1.4092 Y1.2063  
G01 X-1.4149 Y1.2039  
G01 X-1.4201 Y1.2005  
G01 X-1.4245 Y1.1961  
G00 Z0.0500  
G00 X-1.6755 Y1.1961  
G01 Z-0.0035 F10    
G01 X-1.6799 Y1.2005  F20    
G01 X-1.6851 Y1.2039  
G01 X-1.6908 Y1.2063  
G01 X-1.6969 Y1.2075  
G01 X-1.7031 Y1.2075  
G01 X-1.7092 Y1.2063  
G01 X-1.7149 Y1.2039  
G01 X-1.7201 Y1.2005  
G01 X-1.7245 Y1.1961  
G01 X-1.7279 Y1.1909  
G01 X-1.7303 Y1.1852  
G01 X-1.7315 Y1.1791  
G01 X-1.7315 Y1.1209  
G01 X-1.7303 Y1.1148  
G01 X-1.7279 Y1.1091  
G01 X-1.7255 Y1.1055  
G01 X-1.7255 Y0.6585  
G01 X-1.8693 Y0.4667  
G01 X-1.8698 Y0.4663  
G01 X-1.8708 Y0.4647  
G01 X-1.8719 Y0.4633  
G01 X-1.8722 Y0.4627  
G01 X-1.8726 Y0.4621  
G01 X-1.8733 Y0.4604  
G01 X-1.8741 Y0.4588  
G01 X-1.8743 Y0.4581  
G01 X-1.8745 Y0.4574  
G01 X-1.8749 Y0.4557  
G01 X-1.8752 Y0.4542  
G01 X-1.8773 Y0.4521  
G01 X-1.8812 Y0.4464  
G01 X-1.8838 Y0.4399  
G01 X-1.8852 Y0.4332  
G01 X-1.8852 Y0.3668  
G01 X-1.8838 Y0.3601  
G01 X-1.8812 Y0.3536  
G01 X-1.8773 Y0.3479  
G01 X-1.8724 Y0.3430  
G01 X-1.8667 Y0.3391  
G01 X-1.8603 Y0.3365  
G01 X-1.8535 Y0.3351  
G01 X-1.8465 Y0.3351  
G01 X-1.8397 Y0.3365  
G01 X-1.8333 Y0.3391  
G01 X-1.8276 Y0.3430  
G01 X-1.8227 Y0.3479  
G01 X-1.8188 Y0.3536  
G01 X-1.8162 Y0.3601  
G01 X-1.8148 Y0.3668  
G01 X-1.8148 Y0.4332  
G01 X-1.8162 Y0.4399  
G01 X-1.8188 Y0.4464  
G01 X-1.8198 Y0.4478  
G01 X-1.6807 Y0.6333  
G01 X-1.6802 Y0.6337  
G01 X-1.6792 Y0.6353  
G01 X-1.6781 Y0.6367  
G01 X-1.6778 Y0.6373  
G01 X-1.6774 Y0.6379  
G01 X-1.6767 Y0.6396  
G01 X-1.6759 Y0.6412  
G01 X-1.6757 Y0.6419  
G01 X-1.6755 Y0.6426  
G01 X-1.6751 Y0.6443  
G01 X-1.6747 Y0.6461  
G01 X-1.6746 Y0.6468  
G01 X-1.6745 Y0.6475  
G01 X-1.6745 Y0.6493  
G01 X-1.6744 Y0.6511  
G01 X-1.6745 Y0.6518  
G01 X-1.6745 Y1.1055  
G01 X-1.6721 Y1.1091  
G01 X-1.6697 Y1.1148  
G01 X-1.6685 Y1.1209  
G01 X-1.6685 Y1.1791  
G01 X-1.6697 Y1.1852  
G01 X-1.6721 Y1.1909  
G01 X-1.6755 Y1.1961  
G00 Z0.0500  
G00 X-1.7755 Y1.1961  
G01 Z-0.0035 F10    
G01 X-1.7799 Y1.2005  F20    
G01 X-1.7851 Y1.2039  
G01 X-1.7908 Y1.2063  
G01 X-1.7969 Y1.2075  
G01 X-1.8031 Y1.2075  
G01 X-1.8092 Y1.2063  
G01 X-1.8149 Y1.2039  
G01 X-1.8201 Y1.2005  
G01 X-1.8245 Y1.1961  
G01 X-1.8279 Y1.1909  
G01 X-1.8303 Y1.1852  
G01 X-1.8315 Y1.1791  
G01 X-1.8315 Y1.1209  
G01 X-1.8303 Y1.1148  
G01 X-1.8279 Y1.1091  
G01 X-1.8255 Y1.1055  
G01 X-1.8255 Y0.6585  
G01 X-1.9693 Y0.4667  
G01 X-1.9698 Y0.4663  
G01 X-1.9708 Y0.4647  
G01 X-1.9719 Y0.4633  
G01 X-1.9722 Y0.4627  
G01 X-1.9726 Y0.4621  
G01 X-1.9733 Y0.4604  
G01 X-1.9741 Y0.4588  
G01 X-1.9743 Y0.4581  
G01 X-1.9745 Y0.4574  
G01 X-1.9749 Y0.4557  
G01 X-1.9752 Y0.4542  
G01 X-1.9773 Y0.4521  
G01 X-1.9812 Y0.4464  
G01 X-1.9838 Y0.4399  
G01 X-1.9852 Y0.4332  
G01 X-1.9852 Y0.3668  
G01 X-1.9838 Y0.3601  
G01 X-1.9812 Y0.3536  
G01 X-1.9773 Y0.3479  
G01 X-1.9724 Y0.3430  
G01 X-1.9667 Y0.3391  
G01 X-1.9603 Y0.3365  
G01 X-1.9535 Y0.3351  
G01 X-1.9465 Y0.3351  
G01 X-1.9397 Y0.3365  
G01 X-1.9333 Y0.3391  
G01 X-1.9276 Y0.3430  
G01 X-1.9227 Y0.3479  
G01 X-1.9188 Y0.3536  
G01 X-1.9162 Y0.3601  
G01 X-1.9148 Y0.3668  
G01 X-1.9148 Y0.4332  
G01 X-1.9162 Y0.4399  
G01 X-1.9188 Y0.4464  
G01 X-1.9198 Y0.4478  
G01 X-1.7807 Y0.6333  
G01 X-1.7802 Y0.6337  
G01 X-1.7792 Y0.6353  
G01 X-1.7781 Y0.6367  
G01 X-1.7778 Y0.6373  
G01 X-1.7774 Y0.6379  
G01 X-1.7767 Y0.6396  
G01 X-1.7759 Y0.6412  
G01 X-1.7757 Y0.6419  
G01 X-1.7755 Y0.6426  
G01 X-1.7751 Y0.6443  
G01 X-1.7747 Y0.6461  
G01 X-1.7746 Y0.6468  
G01 X-1.7745 Y0.6475  
G01 X-1.7745 Y0.6493  
G01 X-1.7744 Y0.6511  
G01 X-1.7745 Y0.6518  
G01 X-1.7745 Y1.1055  
G01 X-1.7721 Y1.1091  
G01 X-1.7697 Y1.1148  
G01 X-1.7685 Y1.1209  
G01 X-1.7685 Y1.1791  
G01 X-1.7697 Y1.1852  
G01 X-1.7721 Y1.1909  
G01 X-1.7755 Y1.1961  
G00 Z0.0500  
G00 X-1.8755 Y1.1961  
G01 Z-0.0035 F10    
G01 X-1.8799 Y1.2005  F20    
G01 X-1.8851 Y1.2039  
G01 X-1.8908 Y1.2063  
G01 X-1.8969 Y1.2075  
G01 X-1.9031 Y1.2075  
G01 X-1.9092 Y1.2063  
G01 X-1.9149 Y1.2039  
G01 X-1.9201 Y1.2005  
G01 X-1.9245 Y1.1961  
G01 X-1.9279 Y1.1909  
G01 X-1.9303 Y1.1852  
G01 X-1.9315 Y1.1791  
G01 X-1.9315 Y1.1209  
G01 X-1.9303 Y1.1148  
G01 X-1.9279 Y1.1091  
G01 X-1.9255 Y1.1055  
G01 X-1.9255 Y0.6585  
G01 X-2.0693 Y0.4667  
G01 X-2.0698 Y0.4663  
G01 X-2.0708 Y0.4647  
G01 X-2.0719 Y0.4633  
G01 X-2.0722 Y0.4627  
G01 X-2.0726 Y0.4621  
G01 X-2.0733 Y0.4604  
G01 X-2.0741 Y0.4588  
G01 X-2.0743 Y0.4581  
G01 X-2.0745 Y0.4574  
G01 X-2.0749 Y0.4557  
G01 X-2.0752 Y0.4542  
G01 X-2.0773 Y0.4521  
G01 X-2.0812 Y0.4464  
G01 X-2.0838 Y0.4399  
G01 X-2.0852 Y0.4332  
G01 X-2.0852 Y0.3668  
G01 X-2.0838 Y0.3601  
G01 X-2.0812 Y0.3536  
G01 X-2.0773 Y0.3479  
G01 X-2.0724 Y0.3430  
G01 X-2.0667 Y0.3391  
G01 X-2.0603 Y0.3365  
G01 X-2.0535 Y0.3351  
G01 X-2.0465 Y0.3351  
G01 X-2.0397 Y0.3365  
G01 X-2.0333 Y0.3391  
G01 X-2.0276 Y0.3430  
G01 X-2.0227 Y0.3479  
G01 X-2.0188 Y0.3536  
G01 X-2.0162 Y0.3601  
G01 X-2.0148 Y0.3668  
G01 X-2.0148 Y0.4332  
G01 X-2.0162 Y0.4399  
G01 X-2.0188 Y0.4464  
G01 X-2.0198 Y0.4478  
G01 X-1.8807 Y0.6333  
G01 X-1.8802 Y0.6337  
G01 X-1.8792 Y0.6353  
G01 X-1.8781 Y0.6367  
G01 X-1.8778 Y0.6373  
G01 X-1.8774 Y0.6379  
G01 X-1.8767 Y0.6396  
G01 X-1.8759 Y0.6412  
G01 X-1.8757 Y0.6419  
G01 X-1.8755 Y0.6426  
G01 X-1.8751 Y0.6443  
G01 X-1.8747 Y0.6461  
G01 X-1.8746 Y0.6468  
G01 X-1.8745 Y0.6475  
G01 X-1.8745 Y0.6493  
G01 X-1.8744 Y0.6511  
G01 X-1.8745 Y0.6518  
G01 X-1.8745 Y1.1055  
G01 X-1.8721 Y1.1091  
G01 X-1.8697 Y1.1148  
G01 X-1.8685 Y1.1209  
G01 X-1.8685 Y1.1791  
G01 X-1.8697 Y1.1852  
G01 X-1.8721 Y1.1909  
G01 X-1.8755 Y1.1961  
G00 Z0.0500  
G00 X-2.0745 Y1.1945  
G01 Z-0.0035 F10    
G01 X-2.0745 Y1.2694  F20    
G01 X-1.9837 Y1.3602  
G01 X-1.9802 Y1.3637  
G01 X-1.9774 Y1.3679  
G01 X-1.9755 Y1.3726  
G01 X-1.9745 Y1.3775  
G01 X-1.9745 Y1.4055  
G01 X-1.9721 Y1.4091  
G01 X-1.9697 Y1.4148  
G01 X-1.9685 Y1.4209  
G01 X-1.9685 Y1.4791  
G01 X-1.9695 Y1.4841  
G01 X-1.9695 Y1.6030  
G01 X-1.9707 Y1.6089  
G01 X-1.9708 Y1.6091  
G01 X-1.9708 Y1.6248  
G01 X-1.9716 Y1.6269  
G01 X-1.9731 Y1.6284  
G01 X-1.9752 Y1.6292  
G01 X-1.9909 Y1.6292  
G01 X-1.9911 Y1.6293  
G01 X-1.9970 Y1.6305  
G01 X-2.4530 Y1.6305  
G01 X-2.4589 Y1.6293  
G01 X-2.4591 Y1.6292  
G01 X-2.4748 Y1.6292  
G01 X-2.4769 Y1.6284  
G01 X-2.4784 Y1.6269  
G01 X-2.4792 Y1.6248  
G01 X-2.4792 Y1.6091  
G01 X-2.4793 Y1.6089  
G01 X-2.4805 Y1.6030  
G01 X-2.4805 Y1.5970  
G01 X-2.4793 Y1.5911  
G01 X-2.4792 Y1.5909  
G01 X-2.4792 Y1.5752  
G01 X-2.4784 Y1.5731  
G01 X-2.4769 Y1.5716  
G01 X-2.4748 Y1.5708  
G01 X-2.4591 Y1.5708  
G01 X-2.4589 Y1.5707  
G01 X-2.4530 Y1.5695  
G01 X-2.0305 Y1.5695  
G01 X-2.0305 Y1.4841  
G01 X-2.0315 Y1.4791  
G01 X-2.0315 Y1.4209  
G01 X-2.0303 Y1.4148  
G01 X-2.0279 Y1.4091  
G01 X-2.0255 Y1.4055  
G01 X-2.0255 Y1.3906  
G01 X-2.1198 Y1.2963  
G01 X-2.1226 Y1.2921  
G01 X-2.1245 Y1.2874  
G01 X-2.1255 Y1.2825  
G01 X-2.1255 Y1.1945  
G01 X-2.1279 Y1.1909  
G01 X-2.1303 Y1.1852  
G01 X-2.1315 Y1.1791  
G01 X-2.1315 Y1.1209  
G01 X-2.1303 Y1.1148  
G01 X-2.1286 Y1.1107  
G01 X-2.1293 Y1.1089  
G01 X-2.1305 Y1.1030  
G01 X-2.1305 Y1.0240  
G01 X-2.1315 Y1.0230  
G01 X-2.1315 Y0.9970  
G01 X-2.1305 Y0.9960  
G01 X-2.1305 Y0.7426  
G01 X-2.1647 Y0.7085  
G01 X-2.2065 Y0.7015  
G01 X-2.2230 Y0.7015  
G01 X-2.2415 Y0.6830  
G01 X-2.2415 Y0.6570  
G01 X-2.2405 Y0.6560  
G01 X-2.2405 Y0.6526  
G01 X-2.2694 Y0.6237  
G01 X-2.2737 Y0.6194  
G01 X-2.2770 Y0.6144  
G01 X-2.2793 Y0.6089  
G01 X-2.2805 Y0.6030  
G01 X-2.2805 Y0.4474  
G01 X-2.2812 Y0.4464  
G01 X-2.2838 Y0.4399  
G01 X-2.2852 Y0.4332  
G01 X-2.2852 Y0.4079  
G01 X-2.3126 Y0.3805  
G01 X-2.5282 Y0.3805  
G01 X-2.5325 Y0.3848  
G01 X-2.6395 Y0.6167  
G01 X-2.6395 Y0.6360  
G01 X-2.6385 Y0.6370  
G01 X-2.6385 Y0.6630  
G01 X-2.6570 Y0.6815  
G01 X-2.6830 Y0.6815  
G01 X-2.7015 Y0.6630  
G01 X-2.7015 Y0.6370  
G01 X-2.7005 Y0.6360  
G01 X-2.7005 Y0.6124  
G01 X-2.7006 Y0.6118  
G01 X-2.7005 Y0.6094  
G01 X-2.7005 Y0.6070  
G01 X-2.7004 Y0.6064  
G01 X-2.7004 Y0.6058  
G01 X-2.6998 Y0.6035  
G01 X-2.6993 Y0.6011  
G01 X-2.6991 Y0.6005  
G01 X-2.6990 Y0.5999  
G01 X-2.6979 Y0.5978  
G01 X-2.6970 Y0.5956  
G01 X-2.6967 Y0.5950  
G01 X-2.5977 Y0.3805  
G01 X-2.8517 Y0.3805  
G01 X-2.8532 Y0.3815  
G01 X-2.8596 Y0.3841  
G01 X-2.8665 Y0.3855  
G01 X-2.9335 Y0.3855  
G01 X-2.9404 Y0.3841  
G01 X-2.9468 Y0.3815  
G01 X-2.9483 Y0.3805  
G01 X-3.1282 Y0.3805  
G01 X-3.1347 Y0.3870  
G01 X-3.1653 Y0.3870  
G01 X-3.1718 Y0.3805  
G01 X-3.2374 Y0.3805  
G01 X-3.2555 Y0.3986  
G01 X-3.2555 Y0.4184  
G01 X-3.2816 Y0.4445  
G01 X-3.3184 Y0.4445  
G01 X-3.3445 Y0.4184  
G01 X-3.3445 Y0.3816  
G01 X-3.3305 Y0.3676  
G01 X-3.3305 Y0.2626  
G01 X-3.3626 Y0.2305  
G01 X-3.5874 Y0.2305  
G01 X-3.7695 Y0.4126  
G01 X-3.7695 Y0.4676  
G01 X-3.7661 Y0.4710  
G01 X-3.7619 Y0.4767  
G01 X-3.7588 Y0.4829  
G01 X-3.7566 Y0.4896  
G01 X-3.7555 Y0.4965  
G01 X-3.7555 Y0.5035  
G01 X-3.7566 Y0.5104  
G01 X-3.7588 Y0.5171  
G01 X-3.7619 Y0.5233  
G01 X-3.7661 Y0.5290  
G01 X-3.7695 Y0.5324  
G01 X-3.7695 Y0.6676  
G01 X-3.7661 Y0.6710  
G01 X-3.7619 Y0.6767  
G01 X-3.7588 Y0.6829  
G01 X-3.7566 Y0.6896  
G01 X-3.7555 Y0.6965  
G01 X-3.7555 Y0.7035  
G01 X-3.7566 Y0.7104  
G01 X-3.7588 Y0.7171  
G01 X-3.7619 Y0.7233  
G01 X-3.7652 Y0.7278  
G01 X-3.7199 Y1.0449  
G01 X-3.7195 Y1.0470  
G01 X-3.7195 Y1.0478  
G01 X-3.7194 Y1.0487  
G01 X-3.7195 Y1.0508  
G01 X-3.7195 Y1.1526  
G01 X-3.7188 Y1.1536  
G01 X-3.7162 Y1.1601  
G01 X-3.7148 Y1.1668  
G01 X-3.7148 Y1.2332  
G01 X-3.7162 Y1.2399  
G01 X-3.7188 Y1.2464  
G01 X-3.7195 Y1.2474  
G01 X-3.7195 Y1.4026  
G01 X-3.7188 Y1.4036  
G01 X-3.7162 Y1.4101  
G01 X-3.7148 Y1.4168  
G01 X-3.7148 Y1.4832  
G01 X-3.7162 Y1.4899  
G01 X-3.7188 Y1.4964  
G01 X-3.7195 Y1.4974  
G01 X-3.7195 Y1.6526  
G01 X-3.7188 Y1.6536  
G01 X-3.7162 Y1.6601  
G01 X-3.7148 Y1.6668  
G01 X-3.7148 Y1.7332  
G01 X-3.7162 Y1.7399  
G01 X-3.7188 Y1.7464  
G01 X-3.7195 Y1.7474  
G01 X-3.7195 Y2.0311  
G01 X-3.6391 Y2.0713  
G01 X-3.6352 Y2.0697  
G01 X-3.6291 Y2.0685  
G01 X-3.5709 Y2.0685  
G01 X-3.5648 Y2.0697  
G01 X-3.5591 Y2.0721  
G01 X-3.5555 Y2.0745  
G01 X-3.4589 Y2.0745  
G01 X-3.2170 Y1.8810  
G01 X-3.2163 Y1.8802  
G01 X-3.2151 Y1.8794  
G01 X-3.2140 Y1.8785  
G01 X-3.2130 Y1.8780  
G01 X-3.2121 Y1.8774  
G01 X-3.2108 Y1.8769  
G01 X-3.2095 Y1.8762  
G01 X-3.2085 Y1.8759  
G01 X-3.2074 Y1.8755  
G01 X-3.2060 Y1.8752  
G01 X-3.2047 Y1.8748  
G01 X-3.2036 Y1.8747  
G01 X-3.2025 Y1.8745  
G01 X-3.2011 Y1.8745  
G01 X-3.1997 Y1.8744  
G01 X-3.1986 Y1.8745  
G01 X-3.0445 Y1.8745  
G01 X-3.0409 Y1.8721  
G01 X-3.0352 Y1.8697  
G01 X-3.0291 Y1.8685  
G01 X-2.9709 Y1.8685  
G01 X-2.9648 Y1.8697  
G01 X-2.9591 Y1.8721  
G01 X-2.9539 Y1.8755  
G01 X-2.9495 Y1.8799  
G01 X-2.9461 Y1.8851  
G01 X-2.9437 Y1.8908  
G01 X-2.9425 Y1.8969  
G01 X-2.9425 Y1.9031  
G01 X-2.9437 Y1.9092  
G01 X-2.9461 Y1.9149  
G01 X-2.9495 Y1.9201  
G01 X-2.9539 Y1.9245  
G01 X-2.9591 Y1.9279  
G01 X-2.9648 Y1.9303  
G01 X-2.9709 Y1.9315  
G01 X-3.0291 Y1.9315  
G01 X-3.0352 Y1.9303  
G01 X-3.0409 Y1.9279  
G01 X-3.0445 Y1.9255  
G01 X-3.1911 Y1.9255  
G01 X-3.4330 Y2.1190  
G01 X-3.4337 Y2.1198  
G01 X-3.4349 Y2.1206  
G01 X-3.4360 Y2.1215  
G01 X-3.4370 Y2.1220  
G01 X-3.4379 Y2.1226  
G01 X-3.4392 Y2.1231  
G01 X-3.4405 Y2.1238  
G01 X-3.4415 Y2.1241  
G01 X-3.4426 Y2.1245  
G01 X-3.4440 Y2.1248  
G01 X-3.4453 Y2.1252  
G01 X-3.4464 Y2.1253  
G01 X-3.4475 Y2.1255  
G01 X-3.4489 Y2.1255  
G01 X-3.4503 Y2.1256  
G01 X-3.4514 Y2.1255  
G01 X-3.5555 Y2.1255  
G01 X-3.5591 Y2.1279  
G01 X-3.5648 Y2.1303  
G01 X-3.5709 Y2.1315  
G01 X-3.6291 Y2.1315  
G01 X-3.6352 Y2.1303  
G01 X-3.6393 Y2.1286  
G01 X-3.6432 Y2.1299  
G01 X-3.6492 Y2.1306  
G01 X-3.6552 Y2.1302  
G01 X-3.6610 Y2.1286  
G01 X-3.7627 Y2.0778  
G01 X-3.7644 Y2.0770  
G01 X-3.7654 Y2.0764  
G01 X-3.7663 Y2.0759  
G01 X-3.7678 Y2.0748  
G01 X-3.7694 Y2.0737  
G01 X-3.7702 Y2.0729  
G01 X-3.7711 Y2.0723  
G01 X-3.7723 Y2.0708  
G01 X-3.7737 Y2.0694  
G01 X-3.7743 Y2.0685  
G01 X-3.7750 Y2.0677  
G01 X-3.7760 Y2.0660  
G01 X-3.7770 Y2.0644  
G01 X-3.7774 Y2.0634  
G01 X-3.7780 Y2.0625  
G01 X-3.7786 Y2.0607  
G01 X-3.7793 Y2.0589  
G01 X-3.7795 Y2.0578  
G01 X-3.7799 Y2.0568  
G01 X-3.7801 Y2.0549  
G01 X-3.7805 Y2.0530  
G01 X-3.7805 Y2.0519  
G01 X-3.7806 Y2.0508  
G01 X-3.7805 Y2.0489  
G01 X-3.7805 Y1.7474  
G01 X-3.7812 Y1.7464  
G01 X-3.7838 Y1.7399  
G01 X-3.7852 Y1.7332  
G01 X-3.7852 Y1.6668  
G01 X-3.7838 Y1.6601  
G01 X-3.7812 Y1.6536  
G01 X-3.7805 Y1.6526  
G01 X-3.7805 Y1.4974  
G01 X-3.7812 Y1.4964  
G01 X-3.7838 Y1.4899  
G01 X-3.7852 Y1.4832  
G01 X-3.7852 Y1.4168  
G01 X-3.7838 Y1.4101  
G01 X-3.7812 Y1.4036  
G01 X-3.7805 Y1.4026  
G01 X-3.7805 Y1.2474  
G01 X-3.7812 Y1.2464  
G01 X-3.7838 Y1.2399  
G01 X-3.7852 Y1.2332  
G01 X-3.7852 Y1.1668  
G01 X-3.7838 Y1.1601  
G01 X-3.7812 Y1.1536  
G01 X-3.7805 Y1.1526  
G01 X-3.7805 Y1.0522  
G01 X-3.8256 Y0.7364  
G01 X-3.8290 Y0.7339  
G01 X-3.8339 Y0.7290  
G01 X-3.8381 Y0.7233  
G01 X-3.8412 Y0.7171  
G01 X-3.8434 Y0.7104  
G01 X-3.8445 Y0.7035  
G01 X-3.8445 Y0.6965  
G01 X-3.8434 Y0.6896  
G01 X-3.8412 Y0.6829  
G01 X-3.8381 Y0.6767  
G01 X-3.8339 Y0.6710  
G01 X-3.8305 Y0.6676  
G01 X-3.8305 Y0.5324  
G01 X-3.8339 Y0.5290  
G01 X-3.8381 Y0.5233  
G01 X-3.8412 Y0.5171  
G01 X-3.8434 Y0.5104  
G01 X-3.8445 Y0.5035  
G01 X-3.8445 Y0.4965  
G01 X-3.8434 Y0.4896  
G01 X-3.8412 Y0.4829  
G01 X-3.8381 Y0.4767  
G01 X-3.8339 Y0.4710  
G01 X-3.8305 Y0.4676  
G01 X-3.8305 Y0.3970  
G01 X-3.8293 Y0.3911  
G01 X-3.8270 Y0.3856  
G01 X-3.8237 Y0.3806  
G01 X-3.6237 Y0.1806  
G01 X-3.6194 Y0.1763  
G01 X-3.6144 Y0.1730  
G01 X-3.6089 Y0.1707  
G01 X-3.6030 Y0.1695  
G01 X-3.3470 Y0.1695  
G01 X-3.3411 Y0.1707  
G01 X-3.3356 Y0.1730  
G01 X-3.3306 Y0.1763  
G01 X-3.2806 Y0.2263  
G01 X-3.2763 Y0.2306  
G01 X-3.2730 Y0.2356  
G01 X-3.2707 Y0.2411  
G01 X-3.2695 Y0.2470  
G01 X-3.2695 Y0.3264  
G01 X-3.2644 Y0.3230  
G01 X-3.2589 Y0.3207  
G01 X-3.2530 Y0.3195  
G01 X-3.1718 Y0.3195  
G01 X-3.1653 Y0.3130  
G01 X-3.1347 Y0.3130  
G01 X-3.1282 Y0.3195  
G01 X-2.9483 Y0.3195  
G01 X-2.9468 Y0.3185  
G01 X-2.9404 Y0.3159  
G01 X-2.9335 Y0.3145  
G01 X-2.8665 Y0.3145  
G01 X-2.8596 Y0.3159  
G01 X-2.8532 Y0.3185  
G01 X-2.8517 Y0.3195  
G01 X-2.5718 Y0.3195  
G01 X-2.5653 Y0.3130  
G01 X-2.5347 Y0.3130  
G01 X-2.5282 Y0.3195  
G01 X-2.2970 Y0.3195  
G01 X-2.2911 Y0.3207  
G01 X-2.2856 Y0.3230  
G01 X-2.2806 Y0.3263  
G01 X-2.2673 Y0.3396  
G01 X-2.2667 Y0.3391  
G01 X-2.2603 Y0.3365  
G01 X-2.2535 Y0.3351  
G01 X-2.2465 Y0.3351  
G01 X-2.2397 Y0.3365  
G01 X-2.2333 Y0.3391  
G01 X-2.2276 Y0.3430  
G01 X-2.2227 Y0.3479  
G01 X-2.2188 Y0.3536  
G01 X-2.2162 Y0.3601  
G01 X-2.2148 Y0.3668  
G01 X-2.2148 Y0.4332  
G01 X-2.2162 Y0.4399  
G01 X-2.2188 Y0.4464  
G01 X-2.2195 Y0.4474  
G01 X-2.2195 Y0.5874  
G01 X-2.1863 Y0.6206  
G01 X-2.1830 Y0.6256  
G01 X-2.1807 Y0.6311  
G01 X-2.1795 Y0.6370  
G01 X-2.1795 Y0.6442  
G01 X-2.1475 Y0.6495  
G01 X-2.1470 Y0.6495  
G01 X-2.1445 Y0.6500  
G01 X-2.1420 Y0.6504  
G01 X-2.1416 Y0.6506  
G01 X-2.1411 Y0.6507  
G01 X-2.1388 Y0.6516  
G01 X-2.1364 Y0.6525  
G01 X-2.1360 Y0.6528  
G01 X-2.1356 Y0.6530  
G01 X-2.1335 Y0.6544  
G01 X-2.1313 Y0.6557  
G01 X-2.1310 Y0.6560  
G01 X-2.1306 Y0.6563  
G01 X-2.1288 Y0.6581  
G01 X-2.1269 Y0.6598  
G01 X-2.1266 Y0.6602  
G01 X-2.0806 Y0.7063  
G01 X-2.0763 Y0.7106  
G01 X-2.0730 Y0.7156  
G01 X-2.0707 Y0.7211  
G01 X-2.0695 Y0.7270  
G01 X-2.0695 Y0.9960  
G01 X-2.0685 Y0.9970  
G01 X-2.0685 Y1.0230  
G01 X-2.0695 Y1.0240  
G01 X-2.0695 Y1.1030  
G01 X-2.0707 Y1.1089  
G01 X-2.0714 Y1.1107  
G01 X-2.0697 Y1.1148  
G01 X-2.0685 Y1.1209  
G01 X-2.0685 Y1.1791  
G01 X-2.0697 Y1.1852  
G01 X-2.0721 Y1.1909  
G01 X-2.0745 Y1.1945  
G00 Z0.0500  
G00 X-2.1721 Y1.1909  
G01 Z-0.0035 F10    
G01 X-2.1755 Y1.1961  F20    
G01 X-2.1799 Y1.2005  
G01 X-2.1851 Y1.2039  
G01 X-2.1908 Y1.2063  
G01 X-2.1969 Y1.2075  
G01 X-2.2031 Y1.2075  
G01 X-2.2092 Y1.2063  
G01 X-2.2149 Y1.2039  
G01 X-2.2201 Y1.2005  
G01 X-2.2245 Y1.1961  
G01 X-2.2279 Y1.1909  
G01 X-2.2303 Y1.1852  
G01 X-2.2315 Y1.1791  
G01 X-2.2315 Y1.1209  
G01 X-2.2303 Y1.1148  
G01 X-2.2279 Y1.1091  
G01 X-2.2245 Y1.1039  
G01 X-2.2215 Y1.1010  
G01 X-2.2215 Y0.8415  
G01 X-2.2279 Y0.7966  
G01 X-2.2386 Y0.7860  
G01 X-2.3072 Y0.7715  
G01 X-2.3078 Y0.7715  
G01 X-2.3100 Y0.7709  
G01 X-2.3122 Y0.7705  
G01 X-2.3127 Y0.7702  
G01 X-2.3133 Y0.7700  
G01 X-2.3152 Y0.7689  
G01 X-2.3172 Y0.7679  
G01 X-2.3177 Y0.7675  
G01 X-2.3182 Y0.7672  
G01 X-2.3198 Y0.7656  
G01 X-2.3215 Y0.7641  
G01 X-2.3218 Y0.7636  
G01 X-2.3989 Y0.6865  
G01 X-2.4031 Y0.6865  
G01 X-2.4092 Y0.6853  
G01 X-2.4149 Y0.6829  
G01 X-2.4201 Y0.6795  
G01 X-2.4245 Y0.6751  
G01 X-2.4279 Y0.6699  
G01 X-2.4303 Y0.6642  
G01 X-2.4315 Y0.6581  
G01 X-2.4315 Y0.6562  
G01 X-2.5418 Y0.5815  
G01 X-2.5630 Y0.5815  
G01 X-2.5815 Y0.5630  
G01 X-2.5815 Y0.5370  
G01 X-2.5630 Y0.5185  
G01 X-2.5370 Y0.5185  
G01 X-2.5185 Y0.5370  
G01 X-2.5185 Y0.5454  
G01 X-2.4032 Y0.6235  
G01 X-2.3969 Y0.6235  
G01 X-2.3908 Y0.6247  
G01 X-2.3851 Y0.6271  
G01 X-2.3799 Y0.6305  
G01 X-2.3755 Y0.6349  
G01 X-2.3721 Y0.6401  
G01 X-2.3697 Y0.6458  
G01 X-2.3685 Y0.6519  
G01 X-2.3685 Y0.6561  
G01 X-2.2943 Y0.7303  
G01 X-2.2286 Y0.7441  
G01 X-2.2230 Y0.7385  
G01 X-2.1970 Y0.7385  
G01 X-2.1785 Y0.7570  
G01 X-2.1785 Y0.7830  
G01 X-2.1854 Y0.7900  
G01 X-2.1789 Y0.8357  
G01 X-2.1785 Y0.8372  
G01 X-2.1785 Y0.8385  
G01 X-2.1783 Y0.8398  
G01 X-2.1785 Y0.8413  
G01 X-2.1785 Y1.1010  
G01 X-2.1755 Y1.1039  
G01 X-2.1721 Y1.1091  
G01 X-2.1697 Y1.1148  
G01 X-2.1685 Y1.1209  
G01 X-2.1685 Y1.1791  
G01 X-2.1697 Y1.1852  
G01 X-2.1721 Y1.1909  
G00 Z0.0500  
G00 X-2.2721 Y1.1909  
G01 Z-0.0035 F10    
G01 X-2.2755 Y1.1961  F20    
G01 X-2.2799 Y1.2005  
G01 X-2.2851 Y1.2039  
G01 X-2.2908 Y1.2063  
G01 X-2.2969 Y1.2075  
G01 X-2.3031 Y1.2075  
G01 X-2.3092 Y1.2063  
G01 X-2.3149 Y1.2039  
G01 X-2.3201 Y1.2005  
G01 X-2.3245 Y1.1961  
G01 X-2.3279 Y1.1909  
G01 X-2.3303 Y1.1852  
G01 X-2.3315 Y1.1791  
G01 X-2.3315 Y1.1209  
G01 X-2.3303 Y1.1148  
G01 X-2.3279 Y1.1091  
G01 X-2.3245 Y1.1039  
G01 X-2.3215 Y1.1010  
G01 X-2.3215 Y0.9586  
G01 X-2.3997 Y0.8765  
G01 X-2.4031 Y0.8765  
G01 X-2.4092 Y0.8753  
G01 X-2.4149 Y0.8729  
G01 X-2.4201 Y0.8695  
G01 X-2.4230 Y0.8665  
G01 X-2.5038 Y0.8665  
G01 X-2.5242 Y0.8688  
G01 X-2.5370 Y0.8815  
G01 X-2.5630 Y0.8815  
G01 X-2.5815 Y0.8630  
G01 X-2.5815 Y0.8489  
G01 X-2.6529 Y0.7775  
G01 X-2.6570 Y0.7815  
G01 X-2.6830 Y0.7815  
G01 X-2.7015 Y0.7630  
G01 X-2.7015 Y0.7370  
G01 X-2.6830 Y0.7185  
G01 X-2.6570 Y0.7185  
G01 X-2.6469 Y0.7286  
G01 X-2.6417 Y0.7300  
G01 X-2.6368 Y0.7328  
G01 X-2.5511 Y0.8185  
G01 X-2.5370 Y0.8185  
G01 X-2.5294 Y0.8261  
G01 X-2.5090 Y0.8238  
G01 X-2.5078 Y0.8235  
G01 X-2.5062 Y0.8235  
G01 X-2.5046 Y0.8233  
G01 X-2.5034 Y0.8235  
G01 X-2.4230 Y0.8235  
G01 X-2.4201 Y0.8205  
G01 X-2.4149 Y0.8171  
G01 X-2.4092 Y0.8147  
G01 X-2.4031 Y0.8135  
G01 X-2.3969 Y0.8135  
G01 X-2.3908 Y0.8147  
G01 X-2.3851 Y0.8171  
G01 X-2.3799 Y0.8205  
G01 X-2.3755 Y0.8249  
G01 X-2.3721 Y0.8301  
G01 X-2.3697 Y0.8358  
G01 X-2.3685 Y0.8419  
G01 X-2.3685 Y0.8469  
G01 X-2.2846 Y0.9350  
G01 X-2.2828 Y0.9368  
G01 X-2.2827 Y0.9370  
G01 X-2.2825 Y0.9372  
G01 X-2.2813 Y0.9395  
G01 X-2.2800 Y0.9417  
G01 X-2.2799 Y0.9420  
G01 X-2.2798 Y0.9422  
G01 X-2.2792 Y0.9447  
G01 X-2.2785 Y0.9472  
G01 X-2.2785 Y0.9474  
G01 X-2.2784 Y0.9477  
G01 X-2.2785 Y0.9503  
G01 X-2.2785 Y1.1010  
G01 X-2.2755 Y1.1039  
G01 X-2.2721 Y1.1091  
G01 X-2.2697 Y1.1148  
G01 X-2.2685 Y1.1209  
G01 X-2.2685 Y1.1791  
G01 X-2.2697 Y1.1852  
G01 X-2.2721 Y1.1909  
G00 Z0.0500  
G00 X-2.3721 Y1.1909  
G01 Z-0.0035 F10    
G01 X-2.3755 Y1.1961  F20    
G01 X-2.3799 Y1.2005  
G01 X-2.3851 Y1.2039  
G01 X-2.3908 Y1.2063  
G01 X-2.3969 Y1.2075  
G01 X-2.4031 Y1.2075  
G01 X-2.4092 Y1.2063  
G01 X-2.4149 Y1.2039  
G01 X-2.4201 Y1.2005  
G01 X-2.4245 Y1.1961  
G01 X-2.4279 Y1.1909  
G01 X-2.4303 Y1.1852  
G01 X-2.4315 Y1.1791  
G01 X-2.4315 Y1.1209  
G01 X-2.4303 Y1.1148  
G01 X-2.4279 Y1.1091  
G01 X-2.4245 Y1.1039  
G01 X-2.4220 Y1.1015  
G01 X-2.4574 Y0.9867  
G01 X-2.6160 Y0.9307  
G01 X-2.6175 Y0.9303  
G01 X-2.6186 Y0.9298  
G01 X-2.6198 Y0.9293  
G01 X-2.6211 Y0.9284  
G01 X-3.1747 Y0.6376  
G01 X-3.1816 Y0.6445  
G01 X-3.2184 Y0.6445  
G01 X-3.2445 Y0.6184  
G01 X-3.2445 Y0.5816  
G01 X-3.2184 Y0.5555  
