(.../pcb-gcode-3.6.2.4/pcb-gcode.ulp)
(Copyright 2005 - 2012 by John Johnson)
(See readme.txt for licensing terms.)
(This file generated from the board:)
(.../eagle/eight_slider_breakout.brd)
(Current profile is .../pcb-gcode-3.6.2.4/profiles/mach.pp  )
(This file generated 2/25/17 4:14 PM)
(Settings from pcb-machine.h)
(spindle on time = 0.0000)
(  Tool Size)
(0.0030  )
(spindle speed = 30000.0000)
(tool change at 0.0000  0.0000  1.5000  )
(feed rate xy = F20    )
(feed rate z  = F10    )
(Z Axis Settings)
(  High     Up        Down     Drill)
(0.2500  	0.0500  	-0.0035 	-0.0710 )
(Settings from pcb-defaults.h)
(isolate min = 0.0040)
(isolate max = 0.0200)
(isolate step = 0.0025)
(Generated bottom outlines, bottom drill, )
(Unit of measure: inch)
(Inch Mode)
G20
(Absolute Coordinates)
G90
S30000
G00 Z0.2500  
G00 X0.0000  Y0.0000  
M03
G04 P0.000000
G00 Z0.0500  
G00 X-0.0921 Y0.3184  
G01 Z-0.0035 F10    
G01 X-0.0877 Y0.3246  F20    
G01 X-0.0842 Y0.3314  
G01 X-0.0818 Y0.3386  
G01 X-0.0806 Y0.3462  
G01 X-0.0806 Y0.3538  
G01 X-0.0818 Y0.3614  
G01 X-0.0842 Y0.3686  
G01 X-0.0877 Y0.3754  
G01 X-0.0921 Y0.3816  
G01 X-0.0975 Y0.3870  
G01 X-0.0986 Y0.3878  
G01 X-0.0986 Y0.5057  
G01 X-0.0073 Y0.5752  
G01 X-0.0056 Y0.5763  
G01 X-0.0049 Y0.5770  
G01 X-0.0042 Y0.5775  
G01 X-0.0028 Y0.5791  
G01 X-0.0013 Y0.5806  
G01 X-0.0008 Y0.5813  
G01 X-0.0002 Y0.5820  
G01 X0.0009  Y0.5838  
G01 X0.0020  Y0.5856  
G01 X0.0024  Y0.5864  
G01 X0.0029  Y0.5872  
G01 X0.0035  Y0.5892  
G01 X0.0043  Y0.5911  
G01 X0.0045  Y0.5920  
G01 X0.0048  Y0.5929  
G01 X0.0051  Y0.5950  
G01 X0.0055  Y0.5970  
G01 X0.0055  Y0.5979  
G01 X0.0056  Y0.5989  
G01 X0.0055  Y0.6009  
G01 X0.0055  Y0.7487  
G01 X0.0056  Y0.7504  
G01 X0.0055  Y0.7517  
G01 X0.0055  Y0.7530  
G01 X0.0052  Y0.7547  
G01 X0.0050  Y0.7564  
G01 X0.0046  Y0.7576  
G01 X0.0043  Y0.7589  
G01 X0.0037  Y0.7605  
G01 X0.0032  Y0.7621  
G01 X0.0025  Y0.7632  
G01 X0.0020  Y0.7644  
G01 X0.0011  Y0.7659  
G01 X0.0003  Y0.7673  
G01 X-0.0006 Y0.7683  
G01 X-0.0013 Y0.7694  
G01 X-0.0025 Y0.7706  
G01 X-0.0036 Y0.7719  
G01 X-0.0046 Y0.7728  
G01 X-0.0056 Y0.7737  
G01 X-0.0070 Y0.7746  
G01 X-0.1195 Y0.8647  
G01 X-0.1195 Y2.8850  
G01 X-0.1069 Y2.9642  
G01 X-0.1057 Y2.9648  
G01 X-0.0995 Y2.9693  
G01 X-0.0941 Y2.9747  
G01 X-0.0896 Y2.9809  
G01 X-0.0862 Y2.9877  
G01 X-0.0838 Y2.9949  
G01 X-0.0826 Y3.0025  
G01 X-0.0826 Y3.0101  
G01 X-0.0838 Y3.0177  
G01 X-0.0862 Y3.0249  
G01 X-0.0896 Y3.0317  
G01 X-0.0941 Y3.0379  
G01 X-0.0995 Y3.0433  
G01 X-0.1057 Y3.0478  
G01 X-0.1125 Y3.0512  
G01 X-0.1197 Y3.0536  
G01 X-0.1273 Y3.0548  
G01 X-0.1349 Y3.0548  
G01 X-0.1425 Y3.0536  
G01 X-0.1497 Y3.0512  
G01 X-0.1565 Y3.0478  
G01 X-0.1627 Y3.0433  
G01 X-0.1681 Y3.0379  
G01 X-0.1689 Y3.0368  
G01 X-0.5933 Y3.0368  
G01 X-0.5941 Y3.0379  
G01 X-0.5995 Y3.0433  
G01 X-0.6057 Y3.0478  
G01 X-0.6125 Y3.0512  
G01 X-0.6197 Y3.0536  
G01 X-0.6273 Y3.0548  
G01 X-0.6349 Y3.0548  
G01 X-0.6425 Y3.0536  
G01 X-0.6497 Y3.0512  
G01 X-0.6565 Y3.0478  
G01 X-0.6627 Y3.0433  
G01 X-0.6681 Y3.0379  
G01 X-0.6689 Y3.0368  
G01 X-1.0933 Y3.0368  
G01 X-1.0941 Y3.0379  
G01 X-1.0995 Y3.0433  
G01 X-1.1057 Y3.0478  
G01 X-1.1125 Y3.0512  
G01 X-1.1197 Y3.0536  
G01 X-1.1273 Y3.0548  
G01 X-1.1349 Y3.0548  
G01 X-1.1425 Y3.0536  
G01 X-1.1497 Y3.0512  
G01 X-1.1565 Y3.0478  
G01 X-1.1627 Y3.0433  
G01 X-1.1681 Y3.0379  
G01 X-1.1689 Y3.0368  
G01 X-1.5933 Y3.0368  
G01 X-1.5941 Y3.0379  
G01 X-1.5995 Y3.0433  
G01 X-1.6057 Y3.0478  
G01 X-1.6125 Y3.0512  
G01 X-1.6197 Y3.0536  
G01 X-1.6273 Y3.0548  
G01 X-1.6349 Y3.0548  
G01 X-1.6425 Y3.0536  
G01 X-1.6497 Y3.0512  
G01 X-1.6565 Y3.0478  
G01 X-1.6627 Y3.0433  
G01 X-1.6681 Y3.0379  
G01 X-1.6689 Y3.0368  
G01 X-2.0933 Y3.0368  
G01 X-2.0941 Y3.0379  
G01 X-2.0995 Y3.0433  
G01 X-2.1057 Y3.0478  
G01 X-2.1125 Y3.0512  
G01 X-2.1197 Y3.0536  
G01 X-2.1273 Y3.0548  
G01 X-2.1349 Y3.0548  
G01 X-2.1425 Y3.0536  
G01 X-2.1497 Y3.0512  
G01 X-2.1565 Y3.0478  
G01 X-2.1627 Y3.0433  
G01 X-2.1681 Y3.0379  
G01 X-2.1689 Y3.0368  
G01 X-2.5933 Y3.0368  
G01 X-2.5941 Y3.0379  
G01 X-2.5995 Y3.0433  
G01 X-2.6057 Y3.0478  
G01 X-2.6125 Y3.0512  
G01 X-2.6197 Y3.0536  
G01 X-2.6273 Y3.0548  
G01 X-2.6349 Y3.0548  
G01 X-2.6425 Y3.0536  
G01 X-2.6497 Y3.0512  
G01 X-2.6565 Y3.0478  
G01 X-2.6627 Y3.0433  
G01 X-2.6681 Y3.0379  
G01 X-2.6689 Y3.0368  
G01 X-3.0933 Y3.0368  
G01 X-3.0941 Y3.0379  
G01 X-3.0995 Y3.0433  
G01 X-3.1057 Y3.0478  
G01 X-3.1125 Y3.0512  
G01 X-3.1197 Y3.0536  
G01 X-3.1273 Y3.0548  
G01 X-3.1349 Y3.0548  
G01 X-3.1425 Y3.0536  
G01 X-3.1497 Y3.0512  
G01 X-3.1565 Y3.0478  
G01 X-3.1627 Y3.0433  
G01 X-3.1681 Y3.0379  
G01 X-3.1689 Y3.0368  
G01 X-3.5933 Y3.0368  
G01 X-3.5941 Y3.0379  
G01 X-3.5995 Y3.0433  
G01 X-3.6057 Y3.0478  
G01 X-3.6125 Y3.0512  
G01 X-3.6197 Y3.0536  
G01 X-3.6273 Y3.0548  
G01 X-3.6349 Y3.0548  
G01 X-3.6425 Y3.0536  
G01 X-3.6497 Y3.0512  
G01 X-3.6565 Y3.0478  
G01 X-3.6627 Y3.0433  
G01 X-3.6681 Y3.0379  
G01 X-3.6726 Y3.0317  
G01 X-3.6760 Y3.0249  
G01 X-3.6784 Y3.0177  
G01 X-3.6796 Y3.0101  
G01 X-3.6796 Y3.0025  
G01 X-3.6784 Y2.9949  
G01 X-3.6760 Y2.9877  
G01 X-3.6726 Y2.9809  
G01 X-3.6681 Y2.9747  
G01 X-3.6627 Y2.9693  
G01 X-3.6565 Y2.9648  
G01 X-3.6497 Y2.9614  
G01 X-3.6425 Y2.9590  
G01 X-3.6349 Y2.9578  
G01 X-3.6273 Y2.9578  
G01 X-3.6197 Y2.9590  
G01 X-3.6125 Y2.9614  
G01 X-3.6057 Y2.9648  
G01 X-3.5995 Y2.9693  
G01 X-3.5941 Y2.9747  
G01 X-3.5933 Y2.9758  
G01 X-3.2582 Y2.9758  
G01 X-3.2574 Y2.9755  
G01 X-3.2525 Y2.9745  
G01 X-3.1679 Y2.9745  
G01 X-3.1627 Y2.9693  
G01 X-3.1565 Y2.9648  
G01 X-3.1497 Y2.9614  
G01 X-3.1425 Y2.9590  
G01 X-3.1349 Y2.9578  
G01 X-3.1273 Y2.9578  
G01 X-3.1197 Y2.9590  
G01 X-3.1125 Y2.9614  
G01 X-3.1057 Y2.9648  
G01 X-3.0995 Y2.9693  
G01 X-3.0941 Y2.9747  
G01 X-3.0933 Y2.9758  
G01 X-2.6689 Y2.9758  
G01 X-2.6681 Y2.9747  
G01 X-2.6627 Y2.9693  
G01 X-2.6565 Y2.9648  
G01 X-2.6497 Y2.9614  
G01 X-2.6425 Y2.9590  
G01 X-2.6349 Y2.9578  
G01 X-2.6273 Y2.9578  
G01 X-2.6197 Y2.9590  
G01 X-2.6125 Y2.9614  
G01 X-2.6057 Y2.9648  
G01 X-2.5995 Y2.9693  
G01 X-2.5941 Y2.9747  
G01 X-2.5933 Y2.9758  
G01 X-2.1689 Y2.9758  
G01 X-2.1681 Y2.9747  
G01 X-2.1627 Y2.9693  
G01 X-2.1565 Y2.9648  
G01 X-2.1497 Y2.9614  
G01 X-2.1425 Y2.9590  
G01 X-2.1349 Y2.9578  
G01 X-2.1273 Y2.9578  
G01 X-2.1197 Y2.9590  
G01 X-2.1125 Y2.9614  
G01 X-2.1057 Y2.9648  
G01 X-2.0995 Y2.9693  
G01 X-2.0941 Y2.9747  
G01 X-2.0933 Y2.9758  
G01 X-1.6689 Y2.9758  
G01 X-1.6681 Y2.9747  
G01 X-1.6627 Y2.9693  
G01 X-1.6565 Y2.9648  
G01 X-1.6497 Y2.9614  
G01 X-1.6425 Y2.9590  
G01 X-1.6349 Y2.9578  
G01 X-1.6273 Y2.9578  
G01 X-1.6197 Y2.9590  
G01 X-1.6125 Y2.9614  
G01 X-1.6057 Y2.9648  
G01 X-1.5995 Y2.9693  
G01 X-1.5941 Y2.9747  
G01 X-1.5933 Y2.9758  
G01 X-1.1689 Y2.9758  
G01 X-1.1681 Y2.9747  
G01 X-1.1627 Y2.9693  
G01 X-1.1565 Y2.9648  
G01 X-1.1497 Y2.9614  
G01 X-1.1425 Y2.9590  
G01 X-1.1349 Y2.9578  
G01 X-1.1273 Y2.9578  
G01 X-1.1197 Y2.9590  
G01 X-1.1125 Y2.9614  
G01 X-1.1057 Y2.9648  
G01 X-1.0995 Y2.9693  
G01 X-1.0941 Y2.9747  
G01 X-1.0933 Y2.9758  
G01 X-0.6689 Y2.9758  
G01 X-0.6681 Y2.9747  
G01 X-0.6627 Y2.9693  
G01 X-0.6565 Y2.9648  
G01 X-0.6497 Y2.9614  
G01 X-0.6425 Y2.9590  
G01 X-0.6349 Y2.9578  
G01 X-0.6273 Y2.9578  
G01 X-0.6197 Y2.9590  
G01 X-0.6125 Y2.9614  
G01 X-0.6057 Y2.9648  
G01 X-0.5995 Y2.9693  
G01 X-0.5941 Y2.9747  
G01 X-0.5933 Y2.9758  
G01 X-0.1689 Y2.9758  
G01 X-0.1681 Y2.9747  
G01 X-0.1672 Y2.9738  
G01 X-0.1800 Y2.8928  
G01 X-0.1805 Y2.8904  
G01 X-0.1805 Y2.8898  
G01 X-0.1806 Y2.8892  
G01 X-0.1805 Y2.8868  
G01 X-0.1805 Y0.8513  
G01 X-0.1806 Y0.8496  
G01 X-0.1805 Y0.8483  
G01 X-0.1805 Y0.8470  
G01 X-0.1802 Y0.8453  
G01 X-0.1800 Y0.8436  
G01 X-0.1796 Y0.8424  
G01 X-0.1793 Y0.8411  
G01 X-0.1787 Y0.8395  
G01 X-0.1782 Y0.8379  
G01 X-0.1775 Y0.8368  
G01 X-0.1770 Y0.8356  
G01 X-0.1761 Y0.8341  
G01 X-0.1753 Y0.8327  
G01 X-0.1744 Y0.8317  
G01 X-0.1737 Y0.8306  
G01 X-0.1725 Y0.8294  
G01 X-0.1714 Y0.8281  
G01 X-0.1704 Y0.8272  
G01 X-0.1694 Y0.8263  
G01 X-0.1680 Y0.8254  
G01 X-0.0555 Y0.7353  
G01 X-0.0555 Y0.6151  
G01 X-0.1468 Y0.5457  
G01 X-0.1486 Y0.5446  
G01 X-0.1492 Y0.5439  
G01 X-0.1500 Y0.5433  
G01 X-0.1514 Y0.5418  
G01 X-0.1528 Y0.5403  
G01 X-0.1533 Y0.5395  
G01 X-0.1540 Y0.5388  
G01 X-0.1550 Y0.5370  
G01 X-0.1562 Y0.5353  
G01 X-0.1565 Y0.5345  
G01 X-0.1570 Y0.5336  
G01 X-0.1577 Y0.5317  
G01 X-0.1585 Y0.5298  
G01 X-0.1586 Y0.5288  
G01 X-0.1589 Y0.5280  
G01 X-0.1592 Y0.5259  
G01 X-0.1596 Y0.5239  
G01 X-0.1596 Y0.5229  
G01 X-0.1598 Y0.5220  
G01 X-0.1596 Y0.5199  
G01 X-0.1596 Y0.3878  
G01 X-0.1607 Y0.3870  
G01 X-0.1661 Y0.3816  
G01 X-0.1706 Y0.3754  
G01 X-0.1741 Y0.3686  
G01 X-0.1764 Y0.3614  
G01 X-0.1776 Y0.3538  
G01 X-0.1776 Y0.3462  
G01 X-0.1764 Y0.3386  
G01 X-0.1741 Y0.3314  
G01 X-0.1706 Y0.3246  
G01 X-0.1661 Y0.3184  
G01 X-0.1607 Y0.3130  
G01 X-0.1546 Y0.3085  
G01 X-0.1478 Y0.3051  
G01 X-0.1405 Y0.3027  
G01 X-0.1330 Y0.3015  
G01 X-0.1253 Y0.3015  
G01 X-0.1178 Y0.3027  
G01 X-0.1105 Y0.3051  
G01 X-0.1037 Y0.3085  
G01 X-0.0975 Y0.3130  
G01 X-0.0921 Y0.3184  
G00 Z0.0500  
G00 X-0.2299 Y0.3184  
G01 Z-0.0035 F10    
G01 X-0.2254 Y0.3246  F20    
G01 X-0.2220 Y0.3314  
G01 X-0.2196 Y0.3386  
G01 X-0.2184 Y0.3462  
G01 X-0.2184 Y0.3538  
G01 X-0.2196 Y0.3614  
G01 X-0.2220 Y0.3686  
G01 X-0.2254 Y0.3754  
G01 X-0.2299 Y0.3816  
G01 X-0.2353 Y0.3870  
G01 X-0.2364 Y0.3878  
G01 X-0.2364 Y0.4979  
G01 X-0.1288 Y0.6452  
G01 X-0.1273 Y0.6452  
G01 X-0.1197 Y0.6464  
G01 X-0.1125 Y0.6488  
G01 X-0.1057 Y0.6522  
G01 X-0.0995 Y0.6567  
G01 X-0.0941 Y0.6621  
G01 X-0.0896 Y0.6683  
G01 X-0.0862 Y0.6751  
G01 X-0.0838 Y0.6823  
G01 X-0.0826 Y0.6899  
G01 X-0.0826 Y0.6975  
G01 X-0.0838 Y0.7051  
G01 X-0.0862 Y0.7123  
G01 X-0.0896 Y0.7191  
G01 X-0.0941 Y0.7253  
G01 X-0.0995 Y0.7307  
G01 X-0.1057 Y0.7352  
G01 X-0.1125 Y0.7386  
G01 X-0.1197 Y0.7410  
G01 X-0.1273 Y0.7422  
G01 X-0.1349 Y0.7422  
G01 X-0.1363 Y0.7420  
G01 X-0.2195 Y0.8252  
G01 X-0.2195 Y0.9030  
G01 X-0.2207 Y0.9089  
G01 X-0.2230 Y0.9144  
G01 X-0.2263 Y0.9194  
G01 X-0.2306 Y0.9237  
G01 X-0.3556 Y1.0487  
G01 X-0.3606 Y1.0520  
G01 X-0.3661 Y1.0543  
G01 X-0.3720 Y1.0555  
G01 X-0.6280 Y1.0555  
G01 X-0.6339 Y1.0543  
G01 X-0.6394 Y1.0520  
G01 X-0.6406 Y1.0513  
G01 X-0.6417 Y1.0520  
G01 X-0.6472 Y1.0543  
G01 X-0.6531 Y1.0555  
G01 X-1.1280 Y1.0555  
G01 X-1.1311 Y1.0549  
G01 X-1.1342 Y1.0555  
G01 X-1.6280 Y1.0555  
G01 X-1.6311 Y1.0549  
G01 X-1.6342 Y1.0555  
G01 X-2.1280 Y1.0555  
G01 X-2.1311 Y1.0549  
G01 X-2.1342 Y1.0555  
G01 X-2.6280 Y1.0555  
G01 X-2.6311 Y1.0549  
G01 X-2.6342 Y1.0555  
G01 X-3.1280 Y1.0555  
G01 X-3.1339 Y1.0543  
G01 X-3.1394 Y1.0520  
G01 X-3.1406 Y1.0513  
G01 X-3.1417 Y1.0520  
G01 X-3.1472 Y1.0543  
G01 X-3.1531 Y1.0555  
G01 X-3.6280 Y1.0555  
G01 X-3.6339 Y1.0543  
G01 X-3.6394 Y1.0520  
G01 X-3.6444 Y1.0487  
G01 X-3.6487 Y1.0444  
G01 X-3.6494 Y1.0433  
G01 X-3.6505 Y1.0426  
G01 X-3.6548 Y1.0383  
G01 X-3.6581 Y1.0333  
G01 X-3.6604 Y1.0278  
G01 X-3.6616 Y1.0219  
G01 X-3.6616 Y0.7315  
G01 X-3.6627 Y0.7307  
G01 X-3.6681 Y0.7253  
G01 X-3.6726 Y0.7191  
G01 X-3.6760 Y0.7123  
G01 X-3.6784 Y0.7051  
G01 X-3.6796 Y0.6975  
G01 X-3.6796 Y0.6899  
G01 X-3.6784 Y0.6823  
G01 X-3.6760 Y0.6751  
G01 X-3.6726 Y0.6683  
G01 X-3.6681 Y0.6621  
G01 X-3.6627 Y0.6567  
G01 X-3.6565 Y0.6522  
G01 X-3.6497 Y0.6488  
G01 X-3.6425 Y0.6464  
G01 X-3.6349 Y0.6452  
G01 X-3.6273 Y0.6452  
G01 X-3.6197 Y0.6464  
G01 X-3.6125 Y0.6488  
G01 X-3.6057 Y0.6522  
G01 X-3.5995 Y0.6567  
G01 X-3.5941 Y0.6621  
G01 X-3.5896 Y0.6683  
G01 X-3.5862 Y0.6751  
G01 X-3.5838 Y0.6823  
G01 X-3.5826 Y0.6899  
G01 X-3.5826 Y0.6975  
G01 X-3.5838 Y0.7051  
G01 X-3.5862 Y0.7123  
G01 X-3.5896 Y0.7191  
G01 X-3.5941 Y0.7253  
G01 X-3.5995 Y0.7307  
G01 X-3.6006 Y0.7315  
G01 X-3.6006 Y0.9945  
G01 X-3.1617 Y0.9945  
G01 X-3.1616 Y0.7315  
G01 X-3.1627 Y0.7307  
G01 X-3.1681 Y0.7253  
G01 X-3.1726 Y0.7191  
G01 X-3.1760 Y0.7123  
G01 X-3.1784 Y0.7051  
G01 X-3.1796 Y0.6975  
G01 X-3.1796 Y0.6899  
G01 X-3.1784 Y0.6823  
G01 X-3.1760 Y0.6751  
G01 X-3.1726 Y0.6683  
G01 X-3.1681 Y0.6621  
G01 X-3.1627 Y0.6567  
G01 X-3.1565 Y0.6522  
G01 X-3.1497 Y0.6488  
G01 X-3.1425 Y0.6464  
G01 X-3.1349 Y0.6452  
G01 X-3.1273 Y0.6452  
G01 X-3.1197 Y0.6464  
G01 X-3.1125 Y0.6488  
G01 X-3.1057 Y0.6522  
G01 X-3.0995 Y0.6567  
G01 X-3.0941 Y0.6621  
G01 X-3.0896 Y0.6683  
G01 X-3.0862 Y0.6751  
G01 X-3.0838 Y0.6823  
G01 X-3.0826 Y0.6899  
G01 X-3.0826 Y0.6975  
G01 X-3.0838 Y0.7051  
G01 X-3.0862 Y0.7123  
G01 X-3.0896 Y0.7191  
G01 X-3.0941 Y0.7253  
G01 X-3.0995 Y0.7307  
G01 X-3.1006 Y0.7315  
G01 X-3.1006 Y0.9945  
G01 X-2.6616 Y0.9945  
G01 X-2.6616 Y0.7315  
G01 X-2.6627 Y0.7307  
G01 X-2.6681 Y0.7253  
G01 X-2.6726 Y0.7191  
G01 X-2.6760 Y0.7123  
G01 X-2.6784 Y0.7051  
G01 X-2.6796 Y0.6975  
G01 X-2.6796 Y0.6899  
G01 X-2.6784 Y0.6823  
G01 X-2.6760 Y0.6751  
G01 X-2.6726 Y0.6683  
G01 X-2.6681 Y0.6621  
G01 X-2.6627 Y0.6567  
G01 X-2.6565 Y0.6522  
G01 X-2.6497 Y0.6488  
G01 X-2.6425 Y0.6464  
G01 X-2.6349 Y0.6452  
G01 X-2.6273 Y0.6452  
G01 X-2.6197 Y0.6464  
G01 X-2.6125 Y0.6488  
G01 X-2.6057 Y0.6522  
G01 X-2.5995 Y0.6567  
G01 X-2.5941 Y0.6621  
G01 X-2.5896 Y0.6683  
G01 X-2.5862 Y0.6751  
G01 X-2.5838 Y0.6823  
G01 X-2.5826 Y0.6899  
G01 X-2.5826 Y0.6975  
G01 X-2.5838 Y0.7051  
G01 X-2.5862 Y0.7123  
G01 X-2.5896 Y0.7191  
G01 X-2.5941 Y0.7253  
G01 X-2.5995 Y0.7307  
G01 X-2.6006 Y0.7315  
G01 X-2.6006 Y0.9945  
G01 X-2.1616 Y0.9945  
G01 X-2.1616 Y0.7315  
G01 X-2.1627 Y0.7307  
G01 X-2.1681 Y0.7253  
G01 X-2.1726 Y0.7191  
G01 X-2.1760 Y0.7123  
G01 X-2.1784 Y0.7051  
G01 X-2.1796 Y0.6975  
G01 X-2.1796 Y0.6899  
G01 X-2.1784 Y0.6823  
G01 X-2.1760 Y0.6751  
G01 X-2.1726 Y0.6683  
G01 X-2.1681 Y0.6621  
G01 X-2.1627 Y0.6567  
G01 X-2.1565 Y0.6522  
G01 X-2.1497 Y0.6488  
G01 X-2.1425 Y0.6464  
G01 X-2.1349 Y0.6452  
G01 X-2.1273 Y0.6452  
G01 X-2.1197 Y0.6464  
G01 X-2.1125 Y0.6488  
G01 X-2.1057 Y0.6522  
G01 X-2.0995 Y0.6567  
G01 X-2.0941 Y0.6621  
G01 X-2.0896 Y0.6683  
G01 X-2.0862 Y0.6751  
G01 X-2.0838 Y0.6823  
G01 X-2.0826 Y0.6899  
G01 X-2.0826 Y0.6975  
G01 X-2.0838 Y0.7051  
G01 X-2.0862 Y0.7123  
G01 X-2.0896 Y0.7191  
G01 X-2.0941 Y0.7253  
G01 X-2.0995 Y0.7307  
G01 X-2.1006 Y0.7315  
G01 X-2.1006 Y0.9945  
G01 X-1.6616 Y0.9945  
G01 X-1.6616 Y0.7315  
G01 X-1.6627 Y0.7307  
G01 X-1.6681 Y0.7253  
G01 X-1.6726 Y0.7191  
G01 X-1.6760 Y0.7123  
G01 X-1.6784 Y0.7051  
G01 X-1.6796 Y0.6975  
G01 X-1.6796 Y0.6899  
G01 X-1.6784 Y0.6823  
G01 X-1.6760 Y0.6751  
G01 X-1.6726 Y0.6683  
G01 X-1.6681 Y0.6621  
G01 X-1.6627 Y0.6567  
G01 X-1.6565 Y0.6522  
G01 X-1.6497 Y0.6488  
G01 X-1.6425 Y0.6464  
G01 X-1.6349 Y0.6452  
G01 X-1.6273 Y0.6452  
G01 X-1.6197 Y0.6464  
G01 X-1.6125 Y0.6488  
G01 X-1.6057 Y0.6522  
G01 X-1.5995 Y0.6567  
G01 X-1.5941 Y0.6621  
G01 X-1.5896 Y0.6683  
G01 X-1.5862 Y0.6751  
G01 X-1.5838 Y0.6823  
G01 X-1.5826 Y0.6899  
G01 X-1.5826 Y0.6975  
G01 X-1.5838 Y0.7051  
G01 X-1.5862 Y0.7123  
G01 X-1.5896 Y0.7191  
G01 X-1.5941 Y0.7253  
G01 X-1.5995 Y0.7307  
G01 X-1.6006 Y0.7315  
G01 X-1.6006 Y0.9945  
G01 X-1.1616 Y0.9945  
G01 X-1.1616 Y0.7315  
G01 X-1.1627 Y0.7307  
G01 X-1.1681 Y0.7253  
G01 X-1.1726 Y0.7191  
G01 X-1.1760 Y0.7123  
G01 X-1.1784 Y0.7051  
G01 X-1.1796 Y0.6975  
G01 X-1.1796 Y0.6899  
G01 X-1.1784 Y0.6823  
G01 X-1.1760 Y0.6751  
G01 X-1.1726 Y0.6683  
G01 X-1.1681 Y0.6621  
G01 X-1.1627 Y0.6567  
G01 X-1.1565 Y0.6522  
G01 X-1.1497 Y0.6488  
G01 X-1.1425 Y0.6464  
G01 X-1.1349 Y0.6452  
G01 X-1.1273 Y0.6452  
G01 X-1.1197 Y0.6464  
G01 X-1.1125 Y0.6488  
G01 X-1.1057 Y0.6522  
G01 X-1.0995 Y0.6567  
G01 X-1.0941 Y0.6621  
G01 X-1.0896 Y0.6683  
G01 X-1.0862 Y0.6751  
G01 X-1.0838 Y0.6823  
G01 X-1.0826 Y0.6899  
G01 X-1.0826 Y0.6975  
G01 X-1.0838 Y0.7051  
G01 X-1.0862 Y0.7123  
G01 X-1.0896 Y0.7191  
G01 X-1.0941 Y0.7253  
G01 X-1.0995 Y0.7307  
G01 X-1.1006 Y0.7315  
G01 X-1.1006 Y0.9945  
G01 X-0.6617 Y0.9945  
G01 X-0.6616 Y0.7315  
G01 X-0.6627 Y0.7307  
G01 X-0.6681 Y0.7253  
G01 X-0.6726 Y0.7191  
G01 X-0.6760 Y0.7123  
G01 X-0.6784 Y0.7051  
G01 X-0.6796 Y0.6975  
G01 X-0.6796 Y0.6899  
G01 X-0.6784 Y0.6823  
G01 X-0.6760 Y0.6751  
G01 X-0.6726 Y0.6683  
G01 X-0.6681 Y0.6621  
G01 X-0.6627 Y0.6567  
G01 X-0.6565 Y0.6522  
G01 X-0.6497 Y0.6488  
G01 X-0.6425 Y0.6464  
G01 X-0.6349 Y0.6452  
G01 X-0.6273 Y0.6452  
G01 X-0.6197 Y0.6464  
G01 X-0.6125 Y0.6488  
G01 X-0.6057 Y0.6522  
G01 X-0.5995 Y0.6567  
G01 X-0.5941 Y0.6621  
G01 X-0.5896 Y0.6683  
G01 X-0.5862 Y0.6751  
G01 X-0.5838 Y0.6823  
G01 X-0.5826 Y0.6899  
G01 X-0.5826 Y0.6975  
G01 X-0.5838 Y0.7051  
G01 X-0.5862 Y0.7123  
G01 X-0.5896 Y0.7191  
G01 X-0.5941 Y0.7253  
G01 X-0.5995 Y0.7307  
G01 X-0.6006 Y0.7315  
G01 X-0.6006 Y0.9945  
G01 X-0.3876 Y0.9945  
G01 X-0.2805 Y0.8874  
G01 X-0.2805 Y0.8096  
G01 X-0.2793 Y0.8037  
G01 X-0.2770 Y0.7982  
G01 X-0.2737 Y0.7932  
G01 X-0.1794 Y0.6989  
G01 X-0.1796 Y0.6975  
G01 X-0.1796 Y0.6899  
G01 X-0.1784 Y0.6823  
G01 X-0.1780 Y0.6812  
G01 X-0.2902 Y0.5278  
G01 X-0.2906 Y0.5273  
G01 X-0.2919 Y0.5254  
G01 X-0.2933 Y0.5234  
G01 X-0.2936 Y0.5229  
G01 X-0.2940 Y0.5223  
G01 X-0.2949 Y0.5201  
G01 X-0.2959 Y0.5180  
G01 X-0.2960 Y0.5174  
G01 X-0.2963 Y0.5168  
G01 X-0.2967 Y0.5145  
G01 X-0.2973 Y0.5122  
G01 X-0.2973 Y0.5115  
G01 X-0.2974 Y0.5109  
G01 X-0.2974 Y0.5085  
G01 X-0.2975 Y0.5062  
G01 X-0.2974 Y0.5055  
G01 X-0.2974 Y0.3878  
G01 X-0.2985 Y0.3870  
G01 X-0.3039 Y0.3816  
G01 X-0.3084 Y0.3754  
G01 X-0.3119 Y0.3686  
G01 X-0.3142 Y0.3614  
G01 X-0.3154 Y0.3538  
G01 X-0.3154 Y0.3462  
G01 X-0.3142 Y0.3386  
G01 X-0.3119 Y0.3314  
G01 X-0.3084 Y0.3246  
G01 X-0.3039 Y0.3184  
G01 X-0.2985 Y0.3130  
G01 X-0.2923 Y0.3085  
G01 X-0.2855 Y0.3051  
G01 X-0.2783 Y0.3027  
G01 X-0.2707 Y0.3015  
G01 X-0.2631 Y0.3015  
G01 X-0.2556 Y0.3027  
G01 X-0.2483 Y0.3051  
G01 X-0.2415 Y0.3085  
G01 X-0.2353 Y0.3130  
G01 X-0.2299 Y0.3184  
G00 Z0.0500  
G00 X-0.2319 Y0.6621  
G01 Z-0.0035 F10    
G01 X-0.2274 Y0.6683  F20    
G01 X-0.2240 Y0.6751  
G01 X-0.2216 Y0.6823  
G01 X-0.2204 Y0.6899  
G01 X-0.2204 Y0.6975  
G01 X-0.2216 Y0.7051  
G01 X-0.2240 Y0.7123  
G01 X-0.2274 Y0.7191  
G01 X-0.2319 Y0.7253  
G01 X-0.2373 Y0.7307  
G01 X-0.2435 Y0.7352  
G01 X-0.2503 Y0.7386  
G01 X-0.2575 Y0.7410  
G01 X-0.2651 Y0.7422  
G01 X-0.2727 Y0.7422  
G01 X-0.2803 Y0.7410  
G01 X-0.2875 Y0.7386  
G01 X-0.2943 Y0.7352  
G01 X-0.3005 Y0.7307  
G01 X-0.3059 Y0.7253  
G01 X-0.3104 Y0.7191  
G01 X-0.3105 Y0.7189  
G01 X-0.3137 Y0.7182  
G01 X-0.3184 Y0.7163  
G01 X-0.3226 Y0.7135  
G01 X-0.6606 Y0.3755  
G01 X-1.6148 Y0.3755  
G01 X-1.6148 Y0.3832  
G01 X-1.6162 Y0.3899  
G01 X-1.6188 Y0.3964  
G01 X-1.6227 Y0.4021  
G01 X-1.6276 Y0.4070  
G01 X-1.6333 Y0.4109  
G01 X-1.6397 Y0.4135  
G01 X-1.6465 Y0.4149  
G01 X-1.6535 Y0.4149  
G01 X-1.6603 Y0.4135  
G01 X-1.6667 Y0.4109  
G01 X-1.6724 Y0.4070  
G01 X-1.6773 Y0.4021  
G01 X-1.6812 Y0.3964  
G01 X-1.6838 Y0.3899  
G01 X-1.6852 Y0.3832  
G01 X-1.6852 Y0.3168  
G01 X-1.6838 Y0.3101  
G01 X-1.6812 Y0.3036  
G01 X-1.6773 Y0.2979  
G01 X-1.6724 Y0.2930  
G01 X-1.6667 Y0.2891  
G01 X-1.6603 Y0.2865  
G01 X-1.6535 Y0.2851  
G01 X-1.6465 Y0.2851  
G01 X-1.6397 Y0.2865  
G01 X-1.6333 Y0.2891  
G01 X-1.6276 Y0.2930  
G01 X-1.6227 Y0.2979  
G01 X-1.6188 Y0.3036  
G01 X-1.6162 Y0.3101  
G01 X-1.6148 Y0.3168  
G01 X-1.6148 Y0.3245  
G01 X-0.6475 Y0.3245  
G01 X-0.6426 Y0.3255  
G01 X-0.6379 Y0.3274  
G01 X-0.6337 Y0.3302  
G01 X-0.6302 Y0.3337  
G01 X-0.3039 Y0.6601  
G01 X-0.3005 Y0.6567  
G01 X-0.2943 Y0.6522  
G01 X-0.2875 Y0.6488  
G01 X-0.2803 Y0.6464  
G01 X-0.2727 Y0.6452  
G01 X-0.2651 Y0.6452  
G01 X-0.2575 Y0.6464  
G01 X-0.2503 Y0.6488  
G01 X-0.2435 Y0.6522  
G01 X-0.2373 Y0.6567  
G01 X-0.2319 Y0.6621  
G00 Z0.0500  
G00 X-0.3229 Y0.8208  
G01 Z-0.0035 F10    
G01 X-0.3177 Y0.8279  F20    
G01 X-0.3137 Y0.8357  
G01 X-0.3110 Y0.8440  
G01 X-0.3097 Y0.8527  
G01 X-0.3097 Y0.8615  
G01 X-0.3110 Y0.8701  
G01 X-0.3137 Y0.8785  
G01 X-0.3177 Y0.8863  
G01 X-0.3229 Y0.8934  
G01 X-0.3291 Y0.8996  
G01 X-0.3362 Y0.9047  
G01 X-0.3440 Y0.9087  
G01 X-0.3523 Y0.9114  
G01 X-0.3610 Y0.9128  
G01 X-0.3697 Y0.9128  
G01 X-0.3784 Y0.9114  
G01 X-0.3867 Y0.9087  
G01 X-0.3945 Y0.9047  
G01 X-0.4016 Y0.8996  
G01 X-0.4078 Y0.8934  
G01 X-0.4130 Y0.8863  
G01 X-0.4170 Y0.8785  
G01 X-0.4197 Y0.8701  
G01 X-0.4211 Y0.8615  
G01 X-0.4211 Y0.8527  
G01 X-0.4197 Y0.8440  
G01 X-0.4170 Y0.8357  
G01 X-0.4130 Y0.8279  
G01 X-0.4078 Y0.8208  
G01 X-0.4016 Y0.8146  
G01 X-0.3945 Y0.8095  
G01 X-0.3867 Y0.8055  
G01 X-0.3784 Y0.8028  
G01 X-0.3697 Y0.8014  
G01 X-0.3610 Y0.8014  
G01 X-0.3523 Y0.8028  
G01 X-0.3440 Y0.8055  
G01 X-0.3362 Y0.8095  
G01 X-0.3291 Y0.8146  
G01 X-0.3229 Y0.8208  
G00 Z0.0500  
G00 X-0.4922 Y0.8680  
G01 Z-0.0035 F10    
G01 X-0.4870 Y0.8751  F20    
G01 X-0.4830 Y0.8830  
G01 X-0.4803 Y0.8913  
G01 X-0.4789 Y0.8999  
G01 X-0.4789 Y0.9087  
G01 X-0.4803 Y0.9174  
G01 X-0.4830 Y0.9257  
G01 X-0.4870 Y0.9335  
G01 X-0.4922 Y0.9406  
G01 X-0.4984 Y0.9468  
G01 X-0.5055 Y0.9520  
G01 X-0.5133 Y0.9559  
G01 X-0.5216 Y0.9587  
G01 X-0.5303 Y0.9600  
G01 X-0.5390 Y0.9600  
G01 X-0.5477 Y0.9587  
G01 X-0.5560 Y0.9559  
G01 X-0.5638 Y0.9520  
G01 X-0.5709 Y0.9468  
G01 X-0.5771 Y0.9406  
G01 X-0.5823 Y0.9335  
G01 X-0.5863 Y0.9257  
G01 X-0.5890 Y0.9174  
G01 X-0.5903 Y0.9087  
G01 X-0.5903 Y0.8999  
G01 X-0.5890 Y0.8913  
G01 X-0.5863 Y0.8830  
G01 X-0.5823 Y0.8751  
G01 X-0.5771 Y0.8680  
G01 X-0.5709 Y0.8618  
G01 X-0.5638 Y0.8567  
G01 X-0.5560 Y0.8527  
G01 X-0.5477 Y0.8500  
G01 X-0.5390 Y0.8486  
G01 X-0.5303 Y0.8486  
G01 X-0.5216 Y0.8500  
G01 X-0.5133 Y0.8527  
G01 X-0.5055 Y0.8567  
G01 X-0.4984 Y0.8618  
G01 X-0.4922 Y0.8680  
G00 Z0.0500  
G00 X-0.8110 Y0.8701  
G01 Z-0.0035 F10    
G01 X-0.8137 Y0.8785  F20    
G01 X-0.8177 Y0.8863  
G01 X-0.8229 Y0.8934  
G01 X-0.8291 Y0.8996  
G01 X-0.8362 Y0.9047  
G01 X-0.8440 Y0.9087  
G01 X-0.8523 Y0.9114  
G01 X-0.8610 Y0.9128  
G01 X-0.8697 Y0.9128  
G01 X-0.8784 Y0.9114  
G01 X-0.8867 Y0.9087  
G01 X-0.8945 Y0.9047  
G01 X-0.9016 Y0.8996  
G01 X-0.9078 Y0.8934  
G01 X-0.9130 Y0.8863  
G01 X-0.9170 Y0.8785  
G01 X-0.9197 Y0.8701  
G01 X-0.9211 Y0.8615  
G01 X-0.9211 Y0.8527  
G01 X-0.9197 Y0.8440  
G01 X-0.9170 Y0.8357  
G01 X-0.9130 Y0.8279  
G01 X-0.9078 Y0.8208  
G01 X-0.9016 Y0.8146  
G01 X-0.8945 Y0.8095  
G01 X-0.8867 Y0.8055  
G01 X-0.8784 Y0.8028  
G01 X-0.8697 Y0.8014  
G01 X-0.8610 Y0.8014  
G01 X-0.8523 Y0.8028  
G01 X-0.8440 Y0.8055  
G01 X-0.8362 Y0.8095  
G01 X-0.8291 Y0.8146  
G01 X-0.8229 Y0.8208  
G01 X-0.8177 Y0.8279  
G01 X-0.8137 Y0.8357  
G01 X-0.8110 Y0.8440  
G01 X-0.8097 Y0.8527  
G01 X-0.8097 Y0.8615  
G01 X-0.8110 Y0.8701  
G00 Z0.0500  
G00 X-0.8059 Y0.7253  
G01 Z-0.0035 F10    
G01 X-0.8104 Y0.7191  F20    
G01 X-0.8138 Y0.7123  
G01 X-0.8162 Y0.7051  
G01 X-0.8174 Y0.6975  
G01 X-0.8174 Y0.6899  
G01 X-0.8162 Y0.6823  
G01 X-0.8138 Y0.6751  
G01 X-0.8104 Y0.6683  
G01 X-0.8059 Y0.6621  
G01 X-0.8005 Y0.6567  
G01 X-0.7944 Y0.6523  
G01 X-0.7944 Y0.6417  
G01 X-0.9106 Y0.5255  
G01 X-1.6525 Y0.5255  
G01 X-1.6574 Y0.5245  
G01 X-1.6621 Y0.5226  
G01 X-1.6663 Y0.5198  
G01 X-1.7698 Y0.4163  
G01 X-1.7726 Y0.4121  
G01 X-1.7745 Y0.4074  
G01 X-1.7751 Y0.4043  
G01 X-1.7773 Y0.4021  
G01 X-1.7812 Y0.3964  
G01 X-1.7838 Y0.3899  
G01 X-1.7852 Y0.3832  
G01 X-1.7852 Y0.3168  
G01 X-1.7838 Y0.3101  
G01 X-1.7812 Y0.3036  
G01 X-1.7773 Y0.2979  
G01 X-1.7724 Y0.2930  
G01 X-1.7667 Y0.2891  
G01 X-1.7603 Y0.2865  
G01 X-1.7535 Y0.2851  
G01 X-1.7465 Y0.2851  
G01 X-1.7397 Y0.2865  
G01 X-1.7333 Y0.2891  
G01 X-1.7276 Y0.2930  
G01 X-1.7227 Y0.2979  
G01 X-1.7188 Y0.3036  
G01 X-1.7162 Y0.3101  
G01 X-1.7148 Y0.3168  
G01 X-1.7148 Y0.3832  
G01 X-1.7162 Y0.3899  
G01 X-1.7185 Y0.3955  
G01 X-1.6394 Y0.4745  
G01 X-0.8975 Y0.4745  
G01 X-0.8926 Y0.4755  
G01 X-0.8879 Y0.4774  
G01 X-0.8837 Y0.4802  
G01 X-0.8802 Y0.4837  
G01 X-0.7491 Y0.6148  
G01 X-0.7463 Y0.6190  
G01 X-0.7444 Y0.6237  
G01 X-0.7434 Y0.6286  
G01 X-0.7434 Y0.6523  
G01 X-0.7373 Y0.6567  
G01 X-0.7319 Y0.6621  
G01 X-0.7274 Y0.6683  
G01 X-0.7240 Y0.6751  
G01 X-0.7216 Y0.6823  
G01 X-0.7204 Y0.6899  
G01 X-0.7204 Y0.6975  
G01 X-0.7216 Y0.7051  
G01 X-0.7240 Y0.7123  
G01 X-0.7274 Y0.7191  
G01 X-0.7319 Y0.7253  
G01 X-0.7373 Y0.7307  
G01 X-0.7435 Y0.7352  
G01 X-0.7503 Y0.7386  
G01 X-0.7575 Y0.7410  
G01 X-0.7651 Y0.7422  
G01 X-0.7727 Y0.7422  
G01 X-0.7803 Y0.7410  
G01 X-0.7875 Y0.7386  
G01 X-0.7943 Y0.7352  
G01 X-0.8005 Y0.7307  
G01 X-0.8059 Y0.7253  
G00 Z0.0500  
G00 X-0.9922 Y0.8680  
G01 Z-0.0035 F10    
G01 X-0.9870 Y0.8751  F20    
G01 X-0.9830 Y0.8830  
G01 X-0.9803 Y0.8913  
G01 X-0.9789 Y0.8999  
G01 X-0.9789 Y0.9087  
G01 X-0.9803 Y0.9174  
G01 X-0.9830 Y0.9257  
G01 X-0.9870 Y0.9335  
G01 X-0.9922 Y0.9406  
G01 X-0.9984 Y0.9468  
G01 X-1.0055 Y0.9520  
G01 X-1.0133 Y0.9559  
G01 X-1.0216 Y0.9587  
G01 X-1.0303 Y0.9600  
G01 X-1.0390 Y0.9600  
G01 X-1.0477 Y0.9587  
G01 X-1.0560 Y0.9559  
G01 X-1.0638 Y0.9520  
G01 X-1.0709 Y0.9468  
G01 X-1.0771 Y0.9406  
G01 X-1.0823 Y0.9335  
G01 X-1.0863 Y0.9257  
G01 X-1.0890 Y0.9174  
G01 X-1.0903 Y0.9087  
G01 X-1.0903 Y0.8999  
G01 X-1.0890 Y0.8913  
G01 X-1.0863 Y0.8830  
G01 X-1.0823 Y0.8751  
G01 X-1.0771 Y0.8680  
G01 X-1.0709 Y0.8618  
G01 X-1.0638 Y0.8567  
G01 X-1.0560 Y0.8527  
G01 X-1.0477 Y0.8500  
G01 X-1.0390 Y0.8486  
G01 X-1.0303 Y0.8486  
G01 X-1.0216 Y0.8500  
G01 X-1.0133 Y0.8527  
G01 X-1.0055 Y0.8567  
G01 X-0.9984 Y0.8618  
G01 X-0.9922 Y0.8680  
G00 Z0.0500  
G00 X-1.3110 Y0.8701  
G01 Z-0.0035 F10    
G01 X-1.3137 Y0.8785  F20    
G01 X-1.3177 Y0.8863  
G01 X-1.3229 Y0.8934  
G01 X-1.3291 Y0.8996  
G01 X-1.3362 Y0.9047  
G01 X-1.3440 Y0.9087  
G01 X-1.3523 Y0.9114  
G01 X-1.3610 Y0.9128  
G01 X-1.3697 Y0.9128  
G01 X-1.3784 Y0.9114  
G01 X-1.3867 Y0.9087  
G01 X-1.3945 Y0.9047  
G01 X-1.4016 Y0.8996  
G01 X-1.4078 Y0.8934  
G01 X-1.4130 Y0.8863  
G01 X-1.4170 Y0.8785  
G01 X-1.4197 Y0.8701  
G01 X-1.4211 Y0.8615  
G01 X-1.4211 Y0.8527  
G01 X-1.4197 Y0.8440  
G01 X-1.4170 Y0.8357  
G01 X-1.4130 Y0.8279  
G01 X-1.4078 Y0.8208  
G01 X-1.4016 Y0.8146  
G01 X-1.3945 Y0.8095  
G01 X-1.3867 Y0.8055  
G01 X-1.3784 Y0.8028  
G01 X-1.3697 Y0.8014  
G01 X-1.3610 Y0.8014  
G01 X-1.3523 Y0.8028  
G01 X-1.3440 Y0.8055  
G01 X-1.3362 Y0.8095  
G01 X-1.3291 Y0.8146  
G01 X-1.3229 Y0.8208  
G01 X-1.3177 Y0.8279  
G01 X-1.3137 Y0.8357  
G01 X-1.3110 Y0.8440  
G01 X-1.3097 Y0.8527  
G01 X-1.3097 Y0.8615  
G01 X-1.3110 Y0.8701  
G00 Z0.0500  
G00 X-1.3059 Y0.7253  
G01 Z-0.0035 F10    
G01 X-1.3104 Y0.7191  F20    
G01 X-1.3138 Y0.7123  
G01 X-1.3162 Y0.7051  
G01 X-1.3174 Y0.6975  
G01 X-1.3174 Y0.6899  
G01 X-1.3162 Y0.6823  
G01 X-1.3138 Y0.6751  
G01 X-1.3129 Y0.6732  
G01 X-1.3606 Y0.6255  
G01 X-1.7025 Y0.6255  
G01 X-1.7074 Y0.6245  
G01 X-1.7121 Y0.6226  
G01 X-1.7163 Y0.6198  
G01 X-1.8663 Y0.4698  
G01 X-1.8698 Y0.4663  
G01 X-1.8726 Y0.4621  
G01 X-1.8745 Y0.4574  
G01 X-1.8755 Y0.4525  
G01 X-1.8755 Y0.4039  
G01 X-1.8773 Y0.4021  
G01 X-1.8812 Y0.3964  
G01 X-1.8838 Y0.3899  
G01 X-1.8852 Y0.3832  
G01 X-1.8852 Y0.3168  
G01 X-1.8838 Y0.3101  
G01 X-1.8812 Y0.3036  
G01 X-1.8773 Y0.2979  
G01 X-1.8724 Y0.2930  
G01 X-1.8667 Y0.2891  
G01 X-1.8603 Y0.2865  
G01 X-1.8535 Y0.2851  
G01 X-1.8465 Y0.2851  
G01 X-1.8397 Y0.2865  
G01 X-1.8333 Y0.2891  
G01 X-1.8276 Y0.2930  
G01 X-1.8227 Y0.2979  
G01 X-1.8188 Y0.3036  
G01 X-1.8162 Y0.3101  
G01 X-1.8148 Y0.3168  
G01 X-1.8148 Y0.3832  
G01 X-1.8162 Y0.3899  
G01 X-1.8188 Y0.3964  
G01 X-1.8227 Y0.4021  
G01 X-1.8245 Y0.4039  
G01 X-1.8245 Y0.4394  
G01 X-1.6894 Y0.5745  
G01 X-1.3475 Y0.5745  
G01 X-1.3426 Y0.5755  
G01 X-1.3379 Y0.5774  
G01 X-1.3337 Y0.5802  
G01 X-1.3302 Y0.5837  
G01 X-1.2687 Y0.6452  
G01 X-1.2651 Y0.6452  
G01 X-1.2575 Y0.6464  
G01 X-1.2503 Y0.6488  
G01 X-1.2435 Y0.6522  
G01 X-1.2373 Y0.6567  
G01 X-1.2319 Y0.6621  
G01 X-1.2274 Y0.6683  
G01 X-1.2240 Y0.6751  
G01 X-1.2216 Y0.6823  
G01 X-1.2204 Y0.6899  
G01 X-1.2204 Y0.6975  
G01 X-1.2216 Y0.7051  
G01 X-1.2240 Y0.7123  
G01 X-1.2274 Y0.7191  
G01 X-1.2319 Y0.7253  
G01 X-1.2373 Y0.7307  
G01 X-1.2435 Y0.7352  
G01 X-1.2503 Y0.7386  
G01 X-1.2575 Y0.7410  
G01 X-1.2651 Y0.7422  
G01 X-1.2727 Y0.7422  
G01 X-1.2803 Y0.7410  
G01 X-1.2875 Y0.7386  
G01 X-1.2943 Y0.7352  
G01 X-1.3005 Y0.7307  
G01 X-1.3059 Y0.7253  
G00 Z0.0500  
G00 X-1.4922 Y0.8680  
G01 Z-0.0035 F10    
G01 X-1.4870 Y0.8751  F20    
G01 X-1.4830 Y0.8830  
G01 X-1.4803 Y0.8913  
G01 X-1.4789 Y0.8999  
G01 X-1.4789 Y0.9087  
G01 X-1.4803 Y0.9174  
G01 X-1.4830 Y0.9257  
G01 X-1.4870 Y0.9335  
G01 X-1.4922 Y0.9406  
G01 X-1.4984 Y0.9468  
G01 X-1.5055 Y0.9520  
G01 X-1.5133 Y0.9559  
G01 X-1.5216 Y0.9587  
G01 X-1.5303 Y0.9600  
G01 X-1.5390 Y0.9600  
G01 X-1.5477 Y0.9587  
G01 X-1.5560 Y0.9559  
G01 X-1.5638 Y0.9520  
G01 X-1.5709 Y0.9468  
G01 X-1.5771 Y0.9406  
G01 X-1.5823 Y0.9335  
G01 X-1.5863 Y0.9257  
G01 X-1.5890 Y0.9174  
G01 X-1.5903 Y0.9087  
G01 X-1.5903 Y0.8999  
G01 X-1.5890 Y0.8913  
G01 X-1.5863 Y0.8830  
G01 X-1.5823 Y0.8751  
G01 X-1.5771 Y0.8680  
G01 X-1.5709 Y0.8618  
G01 X-1.5638 Y0.8567  
G01 X-1.5560 Y0.8527  
G01 X-1.5477 Y0.8500  
G01 X-1.5390 Y0.8486  
G01 X-1.5303 Y0.8486  
G01 X-1.5216 Y0.8500  
G01 X-1.5133 Y0.8527  
G01 X-1.5055 Y0.8567  
G01 X-1.4984 Y0.8618  
G01 X-1.4922 Y0.8680  
G00 Z0.0500  
G00 X-1.8110 Y0.8701  
G01 Z-0.0035 F10    
G01 X-1.8137 Y0.8785  F20    
G01 X-1.8177 Y0.8863  
G01 X-1.8229 Y0.8934  
G01 X-1.8291 Y0.8996  
G01 X-1.8362 Y0.9047  
G01 X-1.8440 Y0.9087  
G01 X-1.8523 Y0.9114  
G01 X-1.8610 Y0.9128  
G01 X-1.8697 Y0.9128  
G01 X-1.8784 Y0.9114  
G01 X-1.8867 Y0.9087  
G01 X-1.8945 Y0.9047  
G01 X-1.9016 Y0.8996  
G01 X-1.9078 Y0.8934  
G01 X-1.9130 Y0.8863  
G01 X-1.9170 Y0.8785  
G01 X-1.9197 Y0.8701  
G01 X-1.9211 Y0.8615  
G01 X-1.9211 Y0.8527  
G01 X-1.9197 Y0.8440  
G01 X-1.9170 Y0.8357  
G01 X-1.9130 Y0.8279  
G01 X-1.9078 Y0.8208  
G01 X-1.9016 Y0.8146  
G01 X-1.8945 Y0.8095  
G01 X-1.8867 Y0.8055  
G01 X-1.8784 Y0.8028  
G01 X-1.8697 Y0.8014  
G01 X-1.8610 Y0.8014  
G01 X-1.8523 Y0.8028  
G01 X-1.8440 Y0.8055  
G01 X-1.8362 Y0.8095  
G01 X-1.8291 Y0.8146  
G01 X-1.8229 Y0.8208  
G01 X-1.8177 Y0.8279  
G01 X-1.8137 Y0.8357  
G01 X-1.8110 Y0.8440  
G01 X-1.8097 Y0.8527  
G01 X-1.8097 Y0.8615  
G01 X-1.8110 Y0.8701  
G00 Z0.0500  
G00 X-1.8059 Y0.7253  
G01 Z-0.0035 F10    
G01 X-1.8104 Y0.7191  F20    
G01 X-1.8105 Y0.7189  
G01 X-1.8137 Y0.7182  
G01 X-1.8184 Y0.7163  
G01 X-1.8226 Y0.7135  
G01 X-1.9663 Y0.5698  
G01 X-1.9698 Y0.5663  
G01 X-1.9726 Y0.5621  
G01 X-1.9745 Y0.5574  
G01 X-1.9755 Y0.5525  
G01 X-1.9755 Y0.4039  
G01 X-1.9773 Y0.4021  
G01 X-1.9812 Y0.3964  
G01 X-1.9838 Y0.3899  
G01 X-1.9852 Y0.3832  
G01 X-1.9852 Y0.3168  
G01 X-1.9838 Y0.3101  
G01 X-1.9812 Y0.3036  
G01 X-1.9773 Y0.2979  
G01 X-1.9724 Y0.2930  
G01 X-1.9667 Y0.2891  
G01 X-1.9603 Y0.2865  
G01 X-1.9535 Y0.2851  
G01 X-1.9465 Y0.2851  
G01 X-1.9397 Y0.2865  
G01 X-1.9333 Y0.2891  
G01 X-1.9276 Y0.2930  
G01 X-1.9227 Y0.2979  
G01 X-1.9188 Y0.3036  
G01 X-1.9162 Y0.3101  
G01 X-1.9148 Y0.3168  
G01 X-1.9148 Y0.3832  
G01 X-1.9162 Y0.3899  
G01 X-1.9188 Y0.3964  
G01 X-1.9227 Y0.4021  
G01 X-1.9245 Y0.4039  
G01 X-1.9245 Y0.5394  
G01 X-1.8039 Y0.6601  
G01 X-1.8005 Y0.6567  
G01 X-1.7943 Y0.6522  
G01 X-1.7875 Y0.6488  
G01 X-1.7803 Y0.6464  
G01 X-1.7727 Y0.6452  
G01 X-1.7651 Y0.6452  
G01 X-1.7575 Y0.6464  
G01 X-1.7503 Y0.6488  
G01 X-1.7435 Y0.6522  
G01 X-1.7373 Y0.6567  
G01 X-1.7319 Y0.6621  
G01 X-1.7274 Y0.6683  
G01 X-1.7240 Y0.6751  
G01 X-1.7216 Y0.6823  
G01 X-1.7204 Y0.6899  
G01 X-1.7204 Y0.6975  
G01 X-1.7216 Y0.7051  
G01 X-1.7240 Y0.7123  
G01 X-1.7274 Y0.7191  
G01 X-1.7319 Y0.7253  
G01 X-1.7373 Y0.7307  
G01 X-1.7435 Y0.7352  
G01 X-1.7503 Y0.7386  
G01 X-1.7575 Y0.7410  
G01 X-1.7651 Y0.7422  
G01 X-1.7727 Y0.7422  
G01 X-1.7803 Y0.7410  
G01 X-1.7875 Y0.7386  
G01 X-1.7943 Y0.7352  
G01 X-1.8005 Y0.7307  
G01 X-1.8059 Y0.7253  
G00 Z0.0500  
G00 X-1.9922 Y0.8680  
G01 Z-0.0035 F10    
G01 X-1.9870 Y0.8751  F20    
G01 X-1.9830 Y0.8830  
G01 X-1.9803 Y0.8913  
G01 X-1.9789 Y0.8999  
G01 X-1.9789 Y0.9087  
G01 X-1.9803 Y0.9174  
G01 X-1.9830 Y0.9257  
G01 X-1.9870 Y0.9335  
G01 X-1.9922 Y0.9406  
G01 X-1.9984 Y0.9468  
G01 X-2.0055 Y0.9520  
G01 X-2.0133 Y0.9559  
G01 X-2.0216 Y0.9587  
G01 X-2.0303 Y0.9600  
G01 X-2.0390 Y0.9600  
G01 X-2.0477 Y0.9587  
G01 X-2.0560 Y0.9559  
G01 X-2.0638 Y0.9520  
G01 X-2.0709 Y0.9468  
G01 X-2.0771 Y0.9406  
G01 X-2.0823 Y0.9335  
G01 X-2.0863 Y0.9257  
G01 X-2.0890 Y0.9174  
G01 X-2.0903 Y0.9087  
G01 X-2.0903 Y0.8999  
G01 X-2.0890 Y0.8913  
G01 X-2.0863 Y0.8830  
G01 X-2.0823 Y0.8751  
G01 X-2.0771 Y0.8680  
G01 X-2.0709 Y0.8618  
G01 X-2.0638 Y0.8567  
G01 X-2.0560 Y0.8527  
G01 X-2.0477 Y0.8500  
G01 X-2.0390 Y0.8486  
G01 X-2.0303 Y0.8486  
G01 X-2.0216 Y0.8500  
G01 X-2.0133 Y0.8527  
G01 X-2.0055 Y0.8567  
G01 X-1.9984 Y0.8618  
G01 X-1.9922 Y0.8680  
G00 Z0.0500  
G00 X-2.3110 Y0.8701  
G01 Z-0.0035 F10    
G01 X-2.3137 Y0.8785  F20    
G01 X-2.3177 Y0.8863  
G01 X-2.3229 Y0.8934  
G01 X-2.3291 Y0.8996  
G01 X-2.3362 Y0.9047  
G01 X-2.3440 Y0.9087  
G01 X-2.3523 Y0.9114  
G01 X-2.3610 Y0.9128  
G01 X-2.3697 Y0.9128  
G01 X-2.3784 Y0.9114  
G01 X-2.3867 Y0.9087  
G01 X-2.3945 Y0.9047  
G01 X-2.4016 Y0.8996  
G01 X-2.4078 Y0.8934  
G01 X-2.4130 Y0.8863  
G01 X-2.4170 Y0.8785  
G01 X-2.4197 Y0.8701  
G01 X-2.4211 Y0.8615  
G01 X-2.4211 Y0.8527  
G01 X-2.4197 Y0.8440  
G01 X-2.4170 Y0.8357  
G01 X-2.4130 Y0.8279  
G01 X-2.4078 Y0.8208  
G01 X-2.4016 Y0.8146  
G01 X-2.3945 Y0.8095  
G01 X-2.3867 Y0.8055  
G01 X-2.3784 Y0.8028  
G01 X-2.3697 Y0.8014  
G01 X-2.3610 Y0.8014  
G01 X-2.3523 Y0.8028  
G01 X-2.3440 Y0.8055  
G01 X-2.3362 Y0.8095  
G01 X-2.3291 Y0.8146  
G01 X-2.3229 Y0.8208  
G01 X-2.3177 Y0.8279  
G01 X-2.3137 Y0.8357  
G01 X-2.3110 Y0.8440  
G01 X-2.3097 Y0.8527  
G01 X-2.3097 Y0.8615  
G01 X-2.3110 Y0.8701  
G00 Z0.0500  
G00 X-2.3059 Y0.7253  
G01 Z-0.0035 F10    
G01 X-2.3104 Y0.7191  F20    
G01 X-2.3138 Y0.7123  
G01 X-2.3162 Y0.7051  
G01 X-2.3174 Y0.6975  
G01 X-2.3174 Y0.6899  
G01 X-2.3162 Y0.6823  
G01 X-2.3138 Y0.6751  
G01 X-2.3104 Y0.6683  
G01 X-2.3059 Y0.6621  
G01 X-2.3005 Y0.6567  
G01 X-2.2943 Y0.6522  
G01 X-2.2875 Y0.6488  
G01 X-2.2803 Y0.6464  
G01 X-2.2727 Y0.6452  
G01 X-2.2651 Y0.6452  
G01 X-2.2575 Y0.6464  
G01 X-2.0755 Y0.4644  
G01 X-2.0755 Y0.4039  
G01 X-2.0773 Y0.4021  
G01 X-2.0812 Y0.3964  
G01 X-2.0838 Y0.3899  
G01 X-2.0852 Y0.3832  
G01 X-2.0852 Y0.3168  
G01 X-2.0838 Y0.3101  
G01 X-2.0812 Y0.3036  
G01 X-2.0773 Y0.2979  
G01 X-2.0724 Y0.2930  
G01 X-2.0667 Y0.2891  
G01 X-2.0603 Y0.2865  
G01 X-2.0535 Y0.2851  
G01 X-2.0465 Y0.2851  
G01 X-2.0397 Y0.2865  
G01 X-2.0333 Y0.2891  
G01 X-2.0276 Y0.2930  
G01 X-2.0227 Y0.2979  
G01 X-2.0188 Y0.3036  
G01 X-2.0162 Y0.3101  
G01 X-2.0148 Y0.3168  
G01 X-2.0148 Y0.3832  
G01 X-2.0162 Y0.3899  
G01 X-2.0188 Y0.3964  
G01 X-2.0227 Y0.4021  
G01 X-2.0245 Y0.4039  
G01 X-2.0245 Y0.4775  
G01 X-2.0255 Y0.4824  
G01 X-2.0274 Y0.4871  
G01 X-2.0302 Y0.4913  
G01 X-2.0337 Y0.4948  
G01 X-2.2215 Y0.6826  
G01 X-2.2204 Y0.6899  
G01 X-2.2204 Y0.6975  
G01 X-2.2216 Y0.7051  
G01 X-2.2240 Y0.7123  
G01 X-2.2274 Y0.7191  
G01 X-2.2319 Y0.7253  
G01 X-2.2373 Y0.7307  
G01 X-2.2435 Y0.7352  
G01 X-2.2503 Y0.7386  
G01 X-2.2575 Y0.7410  
G01 X-2.2651 Y0.7422  
G01 X-2.2727 Y0.7422  
G01 X-2.2803 Y0.7410  
G01 X-2.2875 Y0.7386  
G01 X-2.2943 Y0.7352  
G01 X-2.3005 Y0.7307  
G01 X-2.3059 Y0.7253  
G00 Z0.0500  
G00 X-2.2475 Y0.5755  
G01 Z-0.0035 F10    
G01 X-2.6146 Y0.5755  F20    
G01 X-2.7216 Y0.6824  
G01 X-2.7204 Y0.6899  
G01 X-2.7204 Y0.6975  
G01 X-2.7216 Y0.7051  
G01 X-2.7240 Y0.7123  
G01 X-2.7274 Y0.7191  
G01 X-2.7319 Y0.7253  
G01 X-2.7373 Y0.7307  
G01 X-2.7435 Y0.7352  
G01 X-2.7503 Y0.7386  
G01 X-2.7575 Y0.7410  
G01 X-2.7651 Y0.7422  
G01 X-2.7727 Y0.7422  
G01 X-2.7803 Y0.7410  
G01 X-2.7875 Y0.7386  
G01 X-2.7943 Y0.7352  
G01 X-2.8005 Y0.7307  
G01 X-2.8059 Y0.7253  
G01 X-2.8104 Y0.7191  
G01 X-2.8138 Y0.7123  
G01 X-2.8162 Y0.7051  
G01 X-2.8174 Y0.6975  
G01 X-2.8174 Y0.6899  
G01 X-2.8162 Y0.6823  
G01 X-2.8138 Y0.6751  
G01 X-2.8104 Y0.6683  
G01 X-2.8059 Y0.6621  
G01 X-2.8005 Y0.6567  
G01 X-2.7943 Y0.6522  
G01 X-2.7875 Y0.6488  
G01 X-2.7803 Y0.6464  
G01 X-2.7727 Y0.6452  
G01 X-2.7651 Y0.6452  
G01 X-2.7576 Y0.6464  
G01 X-2.6415 Y0.5302  
G01 X-2.6373 Y0.5274  
G01 X-2.6326 Y0.5255  
G01 X-2.6277 Y0.5245  
G01 X-2.2606 Y0.5245  
G01 X-2.1755 Y0.4394  
G01 X-2.1755 Y0.4039  
G01 X-2.1773 Y0.4021  
G01 X-2.1812 Y0.3964  
G01 X-2.1838 Y0.3899  
G01 X-2.1852 Y0.3832  
G01 X-2.1852 Y0.3168  
G01 X-2.1838 Y0.3101  
G01 X-2.1812 Y0.3036  
G01 X-2.1773 Y0.2979  
G01 X-2.1724 Y0.2930  
G01 X-2.1667 Y0.2891  
G01 X-2.1603 Y0.2865  
G01 X-2.1535 Y0.2851  
G01 X-2.1465 Y0.2851  
G01 X-2.1397 Y0.2865  
G01 X-2.1333 Y0.2891  
G01 X-2.1276 Y0.2930  
G01 X-2.1227 Y0.2979  
G01 X-2.1188 Y0.3036  
G01 X-2.1162 Y0.3101  
G01 X-2.1148 Y0.3168  
G01 X-2.1148 Y0.3832  
G01 X-2.1162 Y0.3899  
G01 X-2.1188 Y0.3964  
G01 X-2.1227 Y0.4021  
G01 X-2.1245 Y0.4039  
G01 X-2.1245 Y0.4525  
G01 X-2.1255 Y0.4574  
G01 X-2.1274 Y0.4621  
G01 X-2.1302 Y0.4663  
G01 X-2.2302 Y0.5663  
G01 X-2.2337 Y0.5698  
G01 X-2.2379 Y0.5726  
G01 X-2.2426 Y0.5745  
G01 X-2.2475 Y0.5755  
G00 Z0.0500  
G00 X-2.2837 Y0.4698  
G01 Z-0.0035 F10    
G01 X-2.2879 Y0.4726  F20    
G01 X-2.2926 Y0.4745  
G01 X-2.2975 Y0.4755  
G01 X-3.0146 Y0.4755  
G01 X-3.2216 Y0.6824  
G01 X-3.2204 Y0.6899  
G01 X-3.2204 Y0.6975  
G01 X-3.2216 Y0.7051  
G01 X-3.2240 Y0.7123  
G01 X-3.2274 Y0.7191  
G01 X-3.2319 Y0.7253  
G01 X-3.2373 Y0.7307  
G01 X-3.2435 Y0.7352  
G01 X-3.2503 Y0.7386  
G01 X-3.2575 Y0.7410  
G01 X-3.2651 Y0.7422  
G01 X-3.2727 Y0.7422  
G01 X-3.2803 Y0.7410  
G01 X-3.2875 Y0.7386  
G01 X-3.2943 Y0.7352  
G01 X-3.3005 Y0.7307  
G01 X-3.3059 Y0.7253  
G01 X-3.3104 Y0.7191  
G01 X-3.3138 Y0.7123  
G01 X-3.3162 Y0.7051  
G01 X-3.3174 Y0.6975  
G01 X-3.3174 Y0.6899  
G01 X-3.3162 Y0.6823  
G01 X-3.3138 Y0.6751  
G01 X-3.3104 Y0.6683  
G01 X-3.3059 Y0.6621  
G01 X-3.3005 Y0.6567  
G01 X-3.2943 Y0.6522  
G01 X-3.2875 Y0.6488  
G01 X-3.2803 Y0.6464  
G01 X-3.2727 Y0.6452  
G01 X-3.2651 Y0.6452  
G01 X-3.2576 Y0.6464  
G01 X-3.0415 Y0.4302  
G01 X-3.0373 Y0.4274  
G01 X-3.0326 Y0.4255  
G01 X-3.0277 Y0.4245  
G01 X-2.3106 Y0.4245  
G01 X-2.2815 Y0.3955  
G01 X-2.2838 Y0.3899  
G01 X-2.2852 Y0.3832  
G01 X-2.2852 Y0.3168  
G01 X-2.2838 Y0.3101  
G01 X-2.2812 Y0.3036  
G01 X-2.2773 Y0.2979  
G01 X-2.2724 Y0.2930  
G01 X-2.2667 Y0.2891  
G01 X-2.2603 Y0.2865  
G01 X-2.2535 Y0.2851  
G01 X-2.2465 Y0.2851  
G01 X-2.2397 Y0.2865  
G01 X-2.2333 Y0.2891  
G01 X-2.2276 Y0.2930  
G01 X-2.2227 Y0.2979  
G01 X-2.2188 Y0.3036  
G01 X-2.2162 Y0.3101  
G01 X-2.2148 Y0.3168  
G01 X-2.2148 Y0.3832  
G01 X-2.2162 Y0.3899  
G01 X-2.2188 Y0.3964  
G01 X-2.2227 Y0.4021  
G01 X-2.2249 Y0.4043  
G01 X-2.2255 Y0.4074  
G01 X-2.2274 Y0.4121  
G01 X-2.2302 Y0.4163  
G01 X-2.2802 Y0.4663  
G01 X-2.2837 Y0.4698  
G00 Z0.0500  
G00 X-2.3276 Y0.4070  
G01 Z-0.0035 F10    
G01 X-2.3333 Y0.4109  F20    
G01 X-2.3397 Y0.4135  
G01 X-2.3465 Y0.4149  
G01 X-2.3535 Y0.4149  
G01 X-2.3603 Y0.4135  
G01 X-2.3667 Y0.4109  
G01 X-2.3724 Y0.4070  
G01 X-2.3773 Y0.4021  
G01 X-2.3812 Y0.3964  
G01 X-2.3838 Y0.3899  
G01 X-2.3852 Y0.3832  
G01 X-2.3852 Y0.3755  
G01 X-3.4394 Y0.3755  
G01 X-3.7294 Y0.6655  
G01 X-3.7274 Y0.6683  
G01 X-3.7240 Y0.6751  
G01 X-3.7216 Y0.6823  
G01 X-3.7204 Y0.6899  
G01 X-3.7204 Y0.6975  
G01 X-3.7216 Y0.7051  
G01 X-3.7240 Y0.7123  
G01 X-3.7274 Y0.7191  
G01 X-3.7319 Y0.7253  
G01 X-3.7373 Y0.7307  
G01 X-3.7435 Y0.7352  
G01 X-3.7503 Y0.7386  
G01 X-3.7575 Y0.7410  
G01 X-3.7651 Y0.7422  
G01 X-3.7727 Y0.7422  
G01 X-3.7803 Y0.7410  
G01 X-3.7875 Y0.7386  
G01 X-3.7943 Y0.7352  
G01 X-3.8005 Y0.7307  
G01 X-3.8059 Y0.7253  
G01 X-3.8063 Y0.7247  
G01 X-3.8074 Y0.7245  
G01 X-3.8121 Y0.7226  
G01 X-3.8163 Y0.7198  
G01 X-3.8198 Y0.7163  
G01 X-3.8226 Y0.7121  
G01 X-3.8245 Y0.7074  
G01 X-3.8255 Y0.7025  
G01 X-3.8255 Y0.6975  
G01 X-3.8245 Y0.6926  
G01 X-3.8226 Y0.6879  
G01 X-3.8198 Y0.6837  
G01 X-3.8163 Y0.6802  
G01 X-3.8151 Y0.6791  
G01 X-3.8138 Y0.6751  
G01 X-3.8104 Y0.6683  
G01 X-3.8059 Y0.6621  
G01 X-3.8005 Y0.6567  
G01 X-3.7943 Y0.6522  
G01 X-3.7875 Y0.6488  
G01 X-3.7835 Y0.6475  
G01 X-3.4663 Y0.3302  
G01 X-3.4621 Y0.3274  
G01 X-3.4574 Y0.3255  
G01 X-3.4525 Y0.3245  
G01 X-2.3852 Y0.3245  
G01 X-2.3852 Y0.3168  
G01 X-2.3838 Y0.3101  
G01 X-2.3812 Y0.3036  
G01 X-2.3773 Y0.2979  
G01 X-2.3724 Y0.2930  
G01 X-2.3667 Y0.2891  
G01 X-2.3603 Y0.2865  
G01 X-2.3535 Y0.2851  
G01 X-2.3465 Y0.2851  
G01 X-2.3397 Y0.2865  
G01 X-2.3333 Y0.2891  
G01 X-2.3276 Y0.2930  
G01 X-2.3227 Y0.2979  
G01 X-2.3188 Y0.3036  
G01 X-2.3162 Y0.3101  
G01 X-2.3148 Y0.3168  
G01 X-2.3148 Y0.3832  
G01 X-2.3162 Y0.3899  
G01 X-2.3188 Y0.3964  
G01 X-2.3227 Y0.4021  
G01 X-2.3276 Y0.4070  
G00 Z0.0500  
G00 X-2.4922 Y0.8680  
G01 Z-0.0035 F10    
G01 X-2.4870 Y0.8751  F20    
G01 X-2.4830 Y0.8830  
G01 X-2.4803 Y0.8913  
G01 X-2.4789 Y0.8999  
G01 X-2.4789 Y0.9087  
G01 X-2.4803 Y0.9174  
G01 X-2.4830 Y0.9257  
G01 X-2.4870 Y0.9335  
G01 X-2.4922 Y0.9406  
G01 X-2.4984 Y0.9468  
G01 X-2.5055 Y0.9520  
G01 X-2.5133 Y0.9559  
G01 X-2.5216 Y0.9587  
G01 X-2.5303 Y0.9600  
G01 X-2.5390 Y0.9600  
G01 X-2.5477 Y0.9587  
G01 X-2.5560 Y0.9559  
G01 X-2.5638 Y0.9520  
G01 X-2.5709 Y0.9468  
G01 X-2.5771 Y0.9406  
G01 X-2.5823 Y0.9335  
G01 X-2.5863 Y0.9257  
G01 X-2.5890 Y0.9174  
G01 X-2.5903 Y0.9087  
G01 X-2.5903 Y0.8999  
G01 X-2.5890 Y0.8913  
G01 X-2.5863 Y0.8830  
G01 X-2.5823 Y0.8751  
G01 X-2.5771 Y0.8680  
G01 X-2.5709 Y0.8618  
G01 X-2.5638 Y0.8567  
G01 X-2.5560 Y0.8527  
G01 X-2.5477 Y0.8500  
G01 X-2.5390 Y0.8486  
G01 X-2.5303 Y0.8486  
G01 X-2.5216 Y0.8500  
G01 X-2.5133 Y0.8527  
G01 X-2.5055 Y0.8567  
G01 X-2.4984 Y0.8618  
G01 X-2.4922 Y0.8680  
G00 Z0.0500  
G00 X-2.8110 Y0.8701  
G01 Z-0.0035 F10    
G01 X-2.8137 Y0.8785  F20    
G01 X-2.8177 Y0.8863  
G01 X-2.8229 Y0.8934  
G01 X-2.8291 Y0.8996  
G01 X-2.8362 Y0.9047  
G01 X-2.8440 Y0.9087  
G01 X-2.8523 Y0.9114  
G01 X-2.8610 Y0.9128  
G01 X-2.8697 Y0.9128  
G01 X-2.8784 Y0.9114  
G01 X-2.8867 Y0.9087  
G01 X-2.8945 Y0.9047  
G01 X-2.9016 Y0.8996  
G01 X-2.9078 Y0.8934  
G01 X-2.9130 Y0.8863  
G01 X-2.9170 Y0.8785  
G01 X-2.9197 Y0.8701  
G01 X-2.9211 Y0.8615  
G01 X-2.9211 Y0.8527  
G01 X-2.9197 Y0.8440  
G01 X-2.9170 Y0.8357  
G01 X-2.9130 Y0.8279  
G01 X-2.9078 Y0.8208  
G01 X-2.9016 Y0.8146  
G01 X-2.8945 Y0.8095  
G01 X-2.8867 Y0.8055  
G01 X-2.8784 Y0.8028  
G01 X-2.8697 Y0.8014  
G01 X-2.8610 Y0.8014  
G01 X-2.8523 Y0.8028  
G01 X-2.8440 Y0.8055  
G01 X-2.8362 Y0.8095  
G01 X-2.8291 Y0.8146  
G01 X-2.8229 Y0.8208  
G01 X-2.8177 Y0.8279  
G01 X-2.8137 Y0.8357  
G01 X-2.8110 Y0.8440  
G01 X-2.8097 Y0.8527  
G01 X-2.8097 Y0.8615  
G01 X-2.8110 Y0.8701  
G00 Z0.0500  
G00 X-2.9870 Y0.8751  
G01 Z-0.0035 F10    
G01 X-2.9830 Y0.8830  F20    
G01 X-2.9803 Y0.8913  
G01 X-2.9789 Y0.8999  
G01 X-2.9789 Y0.9087  
G01 X-2.9803 Y0.9174  
G01 X-2.9830 Y0.9257  
G01 X-2.9870 Y0.9335  
G01 X-2.9922 Y0.9406  
G01 X-2.9984 Y0.9468  
G01 X-3.0055 Y0.9520  
G01 X-3.0133 Y0.9559  
G01 X-3.0216 Y0.9587  
G01 X-3.0303 Y0.9600  
G01 X-3.0390 Y0.9600  
G01 X-3.0477 Y0.9587  
G01 X-3.0560 Y0.9559  
G01 X-3.0638 Y0.9520  
G01 X-3.0709 Y0.9468  
G01 X-3.0771 Y0.9406  
G01 X-3.0823 Y0.9335  
G01 X-3.0863 Y0.9257  
G01 X-3.0890 Y0.9174  
G01 X-3.0903 Y0.9087  
G01 X-3.0903 Y0.8999  
G01 X-3.0890 Y0.8913  
G01 X-3.0863 Y0.8830  
G01 X-3.0823 Y0.8751  
G01 X-3.0771 Y0.8680  
G01 X-3.0709 Y0.8618  
G01 X-3.0638 Y0.8567  
G01 X-3.0560 Y0.8527  
G01 X-3.0477 Y0.8500  
G01 X-3.0390 Y0.8486  
G01 X-3.0303 Y0.8486  
G01 X-3.0216 Y0.8500  
G01 X-3.0133 Y0.8527  
G01 X-3.0055 Y0.8567  
G01 X-2.9984 Y0.8618  
G01 X-2.9922 Y0.8680  
G01 X-2.9870 Y0.8751  
G00 Z0.0500  
G00 X-3.3110 Y0.8701  
G01 Z-0.0035 F10    
G01 X-3.3137 Y0.8785  F20    
G01 X-3.3177 Y0.8863  
G01 X-3.3229 Y0.8934  
G01 X-3.3291 Y0.8996  
G01 X-3.3362 Y0.9047  
G01 X-3.3440 Y0.9087  
G01 X-3.3523 Y0.9114  
G01 X-3.3610 Y0.9128  
G01 X-3.3697 Y0.9128  
G01 X-3.3784 Y0.9114  
G01 X-3.3867 Y0.9087  
G01 X-3.3945 Y0.9047  
G01 X-3.4016 Y0.8996  
G01 X-3.4078 Y0.8934  
G01 X-3.4130 Y0.8863  
G01 X-3.4170 Y0.8785  
G01 X-3.4197 Y0.8701  
G01 X-3.4211 Y0.8615  
G01 X-3.4211 Y0.8527  
G01 X-3.4197 Y0.8440  
G01 X-3.4170 Y0.8357  
G01 X-3.4130 Y0.8279  
G01 X-3.4078 Y0.8208  
G01 X-3.4016 Y0.8146  
G01 X-3.3945 Y0.8095  
G01 X-3.3867 Y0.8055  
G01 X-3.3784 Y0.8028  
G01 X-3.3697 Y0.8014  
G01 X-3.3610 Y0.8014  
G01 X-3.3523 Y0.8028  
G01 X-3.3440 Y0.8055  
G01 X-3.3362 Y0.8095  
G01 X-3.3291 Y0.8146  
G01 X-3.3229 Y0.8208  
G01 X-3.3177 Y0.8279  
G01 X-3.3137 Y0.8357  
G01 X-3.3110 Y0.8440  
G01 X-3.3097 Y0.8527  
G01 X-3.3097 Y0.8615  
G01 X-3.3110 Y0.8701  
G00 Z0.0500  
G00 X-3.4870 Y0.8751  
G01 Z-0.0035 F10    
G01 X-3.4830 Y0.8830  F20    
G01 X-3.4803 Y0.8913  
G01 X-3.4789 Y0.8999  
G01 X-3.4789 Y0.9087  
G01 X-3.4803 Y0.9174  
G01 X-3.4830 Y0.9257  
G01 X-3.4870 Y0.9335  
G01 X-3.4922 Y0.9406  
G01 X-3.4984 Y0.9468  
G01 X-3.5055 Y0.9520  
G01 X-3.5133 Y0.9559  
G01 X-3.5216 Y0.9587  
G01 X-3.5303 Y0.9600  
G01 X-3.5390 Y0.9600  
G01 X-3.5477 Y0.9587  
G01 X-3.5560 Y0.9559  
G01 X-3.5638 Y0.9520  
G01 X-3.5709 Y0.9468  
G01 X-3.5771 Y0.9406  
G01 X-3.5823 Y0.9335  
G01 X-3.5863 Y0.9257  
G01 X-3.5890 Y0.9174  
G01 X-3.5903 Y0.9087  
G01 X-3.5903 Y0.8999  
G01 X-3.5890 Y0.8913  
G01 X-3.5863 Y0.8830  
G01 X-3.5823 Y0.8751  
G01 X-3.5771 Y0.8680  
G01 X-3.5709 Y0.8618  
G01 X-3.5638 Y0.8567  
G01 X-3.5560 Y0.8527  
G01 X-3.5477 Y0.8500  
G01 X-3.5390 Y0.8486  
G01 X-3.5303 Y0.8486  
G01 X-3.5216 Y0.8500  
G01 X-3.5133 Y0.8527  
G01 X-3.5055 Y0.8567  
G01 X-3.4984 Y0.8618  
G01 X-3.4922 Y0.8680  
G01 X-3.4870 Y0.8751  
G00 Z0.0500  
G00 X-3.8110 Y0.8701  
G01 Z-0.0035 F10    
G01 X-3.8137 Y0.8785  F20    
G01 X-3.8177 Y0.8863  
G01 X-3.8229 Y0.8934  
G01 X-3.8291 Y0.8996  
G01 X-3.8362 Y0.9047  
G01 X-3.8440 Y0.9087  
G01 X-3.8523 Y0.9114  
G01 X-3.8610 Y0.9128  
G01 X-3.8697 Y0.9128  
G01 X-3.8784 Y0.9114  
G01 X-3.8867 Y0.9087  
G01 X-3.8945 Y0.9047  
G01 X-3.9016 Y0.8996  
G01 X-3.9078 Y0.8934  
G01 X-3.9130 Y0.8863  
G01 X-3.9170 Y0.8785  
G01 X-3.9197 Y0.8701  
G01 X-3.9211 Y0.8615  
G01 X-3.9211 Y0.8527  
G01 X-3.9197 Y0.8440  
G01 X-3.9170 Y0.8357  
G01 X-3.9130 Y0.8279  
G01 X-3.9078 Y0.8208  
G01 X-3.9016 Y0.8146  
G01 X-3.8945 Y0.8095  
G01 X-3.8867 Y0.8055  
G01 X-3.8784 Y0.8028  
G01 X-3.8697 Y0.8014  
G01 X-3.8610 Y0.8014  
G01 X-3.8523 Y0.8028  
G01 X-3.8440 Y0.8055  
G01 X-3.8362 Y0.8095  
G01 X-3.8291 Y0.8146  
G01 X-3.8229 Y0.8208  
G01 X-3.8177 Y0.8279  
G01 X-3.8137 Y0.8357  
G01 X-3.8110 Y0.8440  
G01 X-3.8097 Y0.8527  
G01 X-3.8097 Y0.8615  
G01 X-3.8110 Y0.8701  
G00 Z0.0500  
G00 X-3.8229 Y2.8066  
G01 Z-0.0035 F10    
G01 X-3.8177 Y2.8137  F20    
G01 X-3.8137 Y2.8215  
G01 X-3.8110 Y2.8299  
G01 X-3.8097 Y2.8385  
G01 X-3.8097 Y2.8473  
G01 X-3.8110 Y2.8560  
G01 X-3.8137 Y2.8643  
G01 X-3.8177 Y2.8721  
G01 X-3.8229 Y2.8792  
G01 X-3.8291 Y2.8854  
G01 X-3.8362 Y2.8905  
G01 X-3.8440 Y2.8945  
G01 X-3.8523 Y2.8972  
G01 X-3.8610 Y2.8986  
G01 X-3.8697 Y2.8986  
G01 X-3.8784 Y2.8972  
G01 X-3.8867 Y2.8945  
G01 X-3.8945 Y2.8905  
G01 X-3.9016 Y2.8854  
G01 X-3.9078 Y2.8792  
G01 X-3.9130 Y2.8721  
G01 X-3.9170 Y2.8643  
G01 X-3.9197 Y2.8560  
G01 X-3.9211 Y2.8473  
G01 X-3.9211 Y2.8385  
G01 X-3.9197 Y2.8299  
G01 X-3.9170 Y2.8215  
G01 X-3.9130 Y2.8137  
G01 X-3.9078 Y2.8066  
G01 X-3.9016 Y2.8004  
G01 X-3.8945 Y2.7953  
G01 X-3.8867 Y2.7913  
G01 X-3.8784 Y2.7886  
G01 X-3.8697 Y2.7872  
G01 X-3.8610 Y2.7872  
G01 X-3.8523 Y2.7886  
G01 X-3.8440 Y2.7913  
G01 X-3.8362 Y2.7953  
G01 X-3.8291 Y2.8004  
G01 X-3.8229 Y2.8066  
G00 Z0.0500  
G00 X-3.5890 Y2.8087  
G01 Z-0.0035 F10    
G01 X-3.5903 Y2.8001  F20    
G01 X-3.5903 Y2.7913  
G01 X-3.5890 Y2.7826  
G01 X-3.5863 Y2.7743  
G01 X-3.5823 Y2.7665  
G01 X-3.5771 Y2.7594  
G01 X-3.5709 Y2.7532  
G01 X-3.5638 Y2.7480  
G01 X-3.5560 Y2.7441  
G01 X-3.5477 Y2.7413  
G01 X-3.5390 Y2.7400  
G01 X-3.5303 Y2.7400  
G01 X-3.5216 Y2.7413  
G01 X-3.5133 Y2.7441  
G01 X-3.5055 Y2.7480  
G01 X-3.4984 Y2.7532  
G01 X-3.4922 Y2.7594  
G01 X-3.4870 Y2.7665  
G01 X-3.4830 Y2.7743  
G01 X-3.4803 Y2.7826  
G01 X-3.4789 Y2.7913  
G01 X-3.4789 Y2.8001  
G01 X-3.4803 Y2.8087  
G01 X-3.4830 Y2.8170  
G01 X-3.4870 Y2.8249  
G01 X-3.4922 Y2.8320  
G01 X-3.4984 Y2.8382  
G01 X-3.5055 Y2.8433  
G01 X-3.5133 Y2.8473  
G01 X-3.5216 Y2.8500  
G01 X-3.5303 Y2.8514  
G01 X-3.5390 Y2.8514  
G01 X-3.5477 Y2.8500  
G01 X-3.5560 Y2.8473  
G01 X-3.5638 Y2.8433  
G01 X-3.5709 Y2.8382  
G01 X-3.5771 Y2.8320  
G01 X-3.5823 Y2.8249  
G01 X-3.5863 Y2.8170  
G01 X-3.5890 Y2.8087  
G00 Z0.0500  
G00 X-3.4130 Y2.8137  
G01 Z-0.0035 F10    
G01 X-3.4078 Y2.8066  F20    
G01 X-3.4016 Y2.8004  
G01 X-3.3945 Y2.7953  
G01 X-3.3867 Y2.7913  
G01 X-3.3784 Y2.7886  
G01 X-3.3697 Y2.7872  
G01 X-3.3610 Y2.7872  
G01 X-3.3523 Y2.7886  
G01 X-3.3440 Y2.7913  
G01 X-3.3362 Y2.7953  
G01 X-3.3291 Y2.8004  
G01 X-3.3229 Y2.8066  
G01 X-3.3177 Y2.8137  
G01 X-3.3137 Y2.8215  
G01 X-3.3110 Y2.8299  
G01 X-3.3097 Y2.8385  
G01 X-3.3097 Y2.8473  
G01 X-3.3110 Y2.8560  
G01 X-3.3137 Y2.8643  
G01 X-3.3177 Y2.8721  
G01 X-3.3229 Y2.8792  
G01 X-3.3291 Y2.8854  
G01 X-3.3362 Y2.8905  
G01 X-3.3440 Y2.8945  
G01 X-3.3523 Y2.8972  
G01 X-3.3610 Y2.8986  
G01 X-3.3697 Y2.8986  
G01 X-3.3784 Y2.8972  
G01 X-3.3867 Y2.8945  
G01 X-3.3945 Y2.8905  
G01 X-3.4016 Y2.8854  
G01 X-3.4078 Y2.8792  
G01 X-3.4130 Y2.8721  
G01 X-3.4170 Y2.8643  
G01 X-3.4197 Y2.8560  
G01 X-3.4211 Y2.8473  
G01 X-3.4211 Y2.8385  
G01 X-3.4197 Y2.8299  
G01 X-3.4170 Y2.8215  
G01 X-3.4130 Y2.8137  
G00 Z0.0500  
G00 X-3.0890 Y2.8087  
G01 Z-0.0035 F10    
G01 X-3.0903 Y2.8001  F20    
G01 X-3.0903 Y2.7913  
G01 X-3.0890 Y2.7826  
G01 X-3.0863 Y2.7743  
G01 X-3.0823 Y2.7665  
G01 X-3.0771 Y2.7594  
G01 X-3.0709 Y2.7532  
G01 X-3.0638 Y2.7480  
G01 X-3.0560 Y2.7441  
G01 X-3.0477 Y2.7413  
G01 X-3.0390 Y2.7400  
G01 X-3.0303 Y2.7400  
G01 X-3.0216 Y2.7413  
G01 X-3.0133 Y2.7441  
G01 X-3.0055 Y2.7480  
G01 X-2.9984 Y2.7532  
G01 X-2.9922 Y2.7594  
G01 X-2.9870 Y2.7665  
G01 X-2.9830 Y2.7743  
G01 X-2.9803 Y2.7826  
G01 X-2.9789 Y2.7913  
G01 X-2.9789 Y2.8001  
G01 X-2.9803 Y2.8087  
G01 X-2.9830 Y2.8170  
G01 X-2.9870 Y2.8249  
G01 X-2.9922 Y2.8320  
G01 X-2.9984 Y2.8382  
G01 X-3.0055 Y2.8433  
G01 X-3.0133 Y2.8473  
G01 X-3.0216 Y2.8500  
G01 X-3.0303 Y2.8514  
G01 X-3.0390 Y2.8514  
G01 X-3.0477 Y2.8500  
G01 X-3.0560 Y2.8473  
G01 X-3.0638 Y2.8433  
G01 X-3.0709 Y2.8382  
G01 X-3.0771 Y2.8320  
G01 X-3.0823 Y2.8249  
G01 X-3.0863 Y2.8170  
G01 X-3.0890 Y2.8087  
G00 Z0.0500  
G00 X-2.9130 Y2.8137  
G01 Z-0.0035 F10    
G01 X-2.9078 Y2.8066  F20    
G01 X-2.9016 Y2.8004  
G01 X-2.8945 Y2.7953  
G01 X-2.8867 Y2.7913  
G01 X-2.8784 Y2.7886  
G01 X-2.8697 Y2.7872  
G01 X-2.8610 Y2.7872  
G01 X-2.8523 Y2.7886  
G01 X-2.8440 Y2.7913  
G01 X-2.8362 Y2.7953  
G01 X-2.8291 Y2.8004  
G01 X-2.8229 Y2.8066  
G01 X-2.8177 Y2.8137  
G01 X-2.8137 Y2.8215  
G01 X-2.8110 Y2.8299  
G01 X-2.8097 Y2.8385  
G01 X-2.8097 Y2.8473  
G01 X-2.8110 Y2.8560  
G01 X-2.8137 Y2.8643  
G01 X-2.8177 Y2.8721  
G01 X-2.8229 Y2.8792  
G01 X-2.8291 Y2.8854  
G01 X-2.8362 Y2.8905  
G01 X-2.8440 Y2.8945  
G01 X-2.8523 Y2.8972  
G01 X-2.8610 Y2.8986  
G01 X-2.8697 Y2.8986  
G01 X-2.8784 Y2.8972  
G01 X-2.8867 Y2.8945  
G01 X-2.8945 Y2.8905  
G01 X-2.9016 Y2.8854  
G01 X-2.9078 Y2.8792  
G01 X-2.9130 Y2.8721  
G01 X-2.9170 Y2.8643  
G01 X-2.9197 Y2.8560  
G01 X-2.9211 Y2.8473  
G01 X-2.9211 Y2.8385  
G01 X-2.9197 Y2.8299  
G01 X-2.9170 Y2.8215  
G01 X-2.9130 Y2.8137  
G00 Z0.0500  
G00 X-2.5890 Y2.8087  
G01 Z-0.0035 F10    
G01 X-2.5903 Y2.8001  F20    
G01 X-2.5903 Y2.7913  
G01 X-2.5890 Y2.7826  
G01 X-2.5863 Y2.7743  
G01 X-2.5823 Y2.7665  
G01 X-2.5771 Y2.7594  
G01 X-2.5709 Y2.7532  
G01 X-2.5638 Y2.7480  
G01 X-2.5560 Y2.7441  
G01 X-2.5477 Y2.7413  
G01 X-2.5390 Y2.7400  
G01 X-2.5303 Y2.7400  
G01 X-2.5216 Y2.7413  
G01 X-2.5133 Y2.7441  
G01 X-2.5055 Y2.7480  
G01 X-2.4984 Y2.7532  
G01 X-2.4922 Y2.7594  
G01 X-2.4870 Y2.7665  
G01 X-2.4830 Y2.7743  
G01 X-2.4803 Y2.7826  
G01 X-2.4789 Y2.7913  
G01 X-2.4789 Y2.8001  
G01 X-2.4803 Y2.8087  
G01 X-2.4830 Y2.8170  
G01 X-2.4870 Y2.8249  
G01 X-2.4922 Y2.8320  
G01 X-2.4984 Y2.8382  
G01 X-2.5055 Y2.8433  
G01 X-2.5133 Y2.8473  
G01 X-2.5216 Y2.8500  
G01 X-2.5303 Y2.8514  
G01 X-2.5390 Y2.8514  
G01 X-2.5477 Y2.8500  
G01 X-2.5560 Y2.8473  
G01 X-2.5638 Y2.8433  
G01 X-2.5709 Y2.8382  
G01 X-2.5771 Y2.8320  
G01 X-2.5823 Y2.8249  
G01 X-2.5863 Y2.8170  
G01 X-2.5890 Y2.8087  
G00 Z0.0500  
G00 X-2.4130 Y2.8137  
G01 Z-0.0035 F10    
G01 X-2.4078 Y2.8066  F20    
G01 X-2.4016 Y2.8004  
G01 X-2.3945 Y2.7953  
G01 X-2.3867 Y2.7913  
G01 X-2.3784 Y2.7886  
G01 X-2.3697 Y2.7872  
G01 X-2.3610 Y2.7872  
G01 X-2.3523 Y2.7886  
G01 X-2.3440 Y2.7913  
G01 X-2.3362 Y2.7953  
G01 X-2.3291 Y2.8004  
G01 X-2.3229 Y2.8066  
G01 X-2.3177 Y2.8137  
G01 X-2.3137 Y2.8215  
G01 X-2.3110 Y2.8299  
G01 X-2.3097 Y2.8385  
G01 X-2.3097 Y2.8473  
G01 X-2.3110 Y2.8560  
G01 X-2.3137 Y2.8643  
G01 X-2.3177 Y2.8721  
G01 X-2.3229 Y2.8792  
G01 X-2.3291 Y2.8854  
G01 X-2.3362 Y2.8905  
G01 X-2.3440 Y2.8945  
G01 X-2.3523 Y2.8972  
G01 X-2.3610 Y2.8986  
G01 X-2.3697 Y2.8986  
G01 X-2.3784 Y2.8972  
G01 X-2.3867 Y2.8945  
G01 X-2.3945 Y2.8905  
G01 X-2.4016 Y2.8854  
G01 X-2.4078 Y2.8792  
G01 X-2.4130 Y2.8721  
G01 X-2.4170 Y2.8643  
G01 X-2.4197 Y2.8560  
G01 X-2.4211 Y2.8473  
G01 X-2.4211 Y2.8385  
G01 X-2.4197 Y2.8299  
G01 X-2.4170 Y2.8215  
G01 X-2.4130 Y2.8137  
G00 Z0.0500  
G00 X-2.0890 Y2.8087  
G01 Z-0.0035 F10    
G01 X-2.0903 Y2.8001  F20    
G01 X-2.0903 Y2.7913  
G01 X-2.0890 Y2.7826  
G01 X-2.0863 Y2.7743  
G01 X-2.0823 Y2.7665  
G01 X-2.0771 Y2.7594  
G01 X-2.0709 Y2.7532  
G01 X-2.0638 Y2.7480  
G01 X-2.0560 Y2.7441  
G01 X-2.0477 Y2.7413  
G01 X-2.0390 Y2.7400  
G01 X-2.0303 Y2.7400  
G01 X-2.0216 Y2.7413  
G01 X-2.0133 Y2.7441  
G01 X-2.0055 Y2.7480  
G01 X-1.9984 Y2.7532  
G01 X-1.9922 Y2.7594  
G01 X-1.9870 Y2.7665  
G01 X-1.9830 Y2.7743  
G01 X-1.9803 Y2.7826  
G01 X-1.9789 Y2.7913  
G01 X-1.9789 Y2.8001  
G01 X-1.9803 Y2.8087  
G01 X-1.9830 Y2.8170  
G01 X-1.9870 Y2.8249  
G01 X-1.9922 Y2.8320  
G01 X-1.9984 Y2.8382  
G01 X-2.0055 Y2.8433  
G01 X-2.0133 Y2.8473  
G01 X-2.0216 Y2.8500  
G01 X-2.0303 Y2.8514  
G01 X-2.0390 Y2.8514  
G01 X-2.0477 Y2.8500  
G01 X-2.0560 Y2.8473  
G01 X-2.0638 Y2.8433  
G01 X-2.0709 Y2.8382  
G01 X-2.0771 Y2.8320  
G01 X-2.0823 Y2.8249  
G01 X-2.0863 Y2.8170  
G01 X-2.0890 Y2.8087  
G00 Z0.0500  
G00 X-1.9130 Y2.8137  
G01 Z-0.0035 F10    
G01 X-1.9078 Y2.8066  F20    
G01 X-1.9016 Y2.8004  
G01 X-1.8945 Y2.7953  
G01 X-1.8867 Y2.7913  
G01 X-1.8784 Y2.7886  
G01 X-1.8697 Y2.7872  
G01 X-1.8610 Y2.7872  
G01 X-1.8523 Y2.7886  
G01 X-1.8440 Y2.7913  
G01 X-1.8362 Y2.7953  
G01 X-1.8291 Y2.8004  
G01 X-1.8229 Y2.8066  
G01 X-1.8177 Y2.8137  
G01 X-1.8137 Y2.8215  
G01 X-1.8110 Y2.8299  
G01 X-1.8097 Y2.8385  
G01 X-1.8097 Y2.8473  
G01 X-1.8110 Y2.8560  
G01 X-1.8137 Y2.8643  
G01 X-1.8177 Y2.8721  
G01 X-1.8229 Y2.8792  
G01 X-1.8291 Y2.8854  
G01 X-1.8362 Y2.8905  
G01 X-1.8440 Y2.8945  
G01 X-1.8523 Y2.8972  
G01 X-1.8610 Y2.8986  
G01 X-1.8697 Y2.8986  
G01 X-1.8784 Y2.8972  
G01 X-1.8867 Y2.8945  
G01 X-1.8945 Y2.8905  
G01 X-1.9016 Y2.8854  
G01 X-1.9078 Y2.8792  
G01 X-1.9130 Y2.8721  
G01 X-1.9170 Y2.8643  
G01 X-1.9197 Y2.8560  
G01 X-1.9211 Y2.8473  
G01 X-1.9211 Y2.8385  
G01 X-1.9197 Y2.8299  
G01 X-1.9170 Y2.8215  
G01 X-1.9130 Y2.8137  
G00 Z0.0500  
G00 X-1.5890 Y2.8087  
G01 Z-0.0035 F10    
G01 X-1.5903 Y2.8001  F20    
G01 X-1.5903 Y2.7913  
G01 X-1.5890 Y2.7826  
G01 X-1.5863 Y2.7743  
G01 X-1.5823 Y2.7665  
G01 X-1.5771 Y2.7594  
G01 X-1.5709 Y2.7532  
G01 X-1.5638 Y2.7480  
G01 X-1.5560 Y2.7441  
G01 X-1.5477 Y2.7413  
G01 X-1.5390 Y2.7400  
G01 X-1.5303 Y2.7400  
G01 X-1.5216 Y2.7413  
G01 X-1.5133 Y2.7441  
G01 X-1.5055 Y2.7480  
G01 X-1.4984 Y2.7532  
G01 X-1.4922 Y2.7594  
G01 X-1.4870 Y2.7665  
G01 X-1.4830 Y2.7743  
G01 X-1.4803 Y2.7826  
G01 X-1.4789 Y2.7913  
G01 X-1.4789 Y2.8001  
G01 X-1.4803 Y2.8087  
G01 X-1.4830 Y2.8170  
G01 X-1.4870 Y2.8249  
G01 X-1.4922 Y2.8320  
G01 X-1.4984 Y2.8382  
G01 X-1.5055 Y2.8433  
G01 X-1.5133 Y2.8473  
G01 X-1.5216 Y2.8500  
G01 X-1.5303 Y2.8514  
G01 X-1.5390 Y2.8514  
G01 X-1.5477 Y2.8500  
G01 X-1.5560 Y2.8473  
G01 X-1.5638 Y2.8433  
G01 X-1.5709 Y2.8382  
G01 X-1.5771 Y2.8320  
G01 X-1.5823 Y2.8249  
G01 X-1.5863 Y2.8170  
G01 X-1.5890 Y2.8087  
G00 Z0.0500  
G00 X-1.4130 Y2.8137  
G01 Z-0.0035 F10    
G01 X-1.4078 Y2.8066  F20    
G01 X-1.4016 Y2.8004  
G01 X-1.3945 Y2.7953  
G01 X-1.3867 Y2.7913  
G01 X-1.3784 Y2.7886  
G01 X-1.3697 Y2.7872  
G01 X-1.3610 Y2.7872  
G01 X-1.3523 Y2.7886  
G01 X-1.3440 Y2.7913  
G01 X-1.3362 Y2.7953  
G01 X-1.3291 Y2.8004  
G01 X-1.3229 Y2.8066  
G01 X-1.3177 Y2.8137  
G01 X-1.3137 Y2.8215  
G01 X-1.3110 Y2.8299  
G01 X-1.3097 Y2.8385  
G01 X-1.3097 Y2.8473  
G01 X-1.3110 Y2.8560  
G01 X-1.3137 Y2.8643  
G01 X-1.3177 Y2.8721  
G01 X-1.3229 Y2.8792  
G01 X-1.3291 Y2.8854  
G01 X-1.3362 Y2.8905  
G01 X-1.3440 Y2.8945  
G01 X-1.3523 Y2.8972  
G01 X-1.3610 Y2.8986  
G01 X-1.3697 Y2.8986  
G01 X-1.3784 Y2.8972  
G01 X-1.3867 Y2.8945  
G01 X-1.3945 Y2.8905  
G01 X-1.4016 Y2.8854  
G01 X-1.4078 Y2.8792  
G01 X-1.4130 Y2.8721  
G01 X-1.4170 Y2.8643  
G01 X-1.4197 Y2.8560  
G01 X-1.4211 Y2.8473  
G01 X-1.4211 Y2.8385  
G01 X-1.4197 Y2.8299  
G01 X-1.4170 Y2.8215  
G01 X-1.4130 Y2.8137  
G00 Z0.0500  
G00 X-1.0890 Y2.8087  
G01 Z-0.0035 F10    
G01 X-1.0903 Y2.8001  F20    
G01 X-1.0903 Y2.7913  
G01 X-1.0890 Y2.7826  
G01 X-1.0863 Y2.7743  
G01 X-1.0823 Y2.7665  
G01 X-1.0771 Y2.7594  
G01 X-1.0709 Y2.7532  
G01 X-1.0638 Y2.7480  
G01 X-1.0560 Y2.7441  
G01 X-1.0477 Y2.7413  
G01 X-1.0390 Y2.7400  
G01 X-1.0303 Y2.7400  
G01 X-1.0216 Y2.7413  
G01 X-1.0133 Y2.7441  
G01 X-1.0055 Y2.7480  
G01 X-0.9984 Y2.7532  
G01 X-0.9922 Y2.7594  
G01 X-0.9870 Y2.7665  
G01 X-0.9830 Y2.7743  
G01 X-0.9803 Y2.7826  
G01 X-0.9789 Y2.7913  
G01 X-0.9789 Y2.8001  
G01 X-0.9803 Y2.8087  
G01 X-0.9830 Y2.8170  
G01 X-0.9870 Y2.8249  
G01 X-0.9922 Y2.8320  
G01 X-0.9984 Y2.8382  
G01 X-1.0055 Y2.8433  
G01 X-1.0133 Y2.8473  
G01 X-1.0216 Y2.8500  
G01 X-1.0303 Y2.8514  
G01 X-1.0390 Y2.8514  
G01 X-1.0477 Y2.8500  
G01 X-1.0560 Y2.8473  
G01 X-1.0638 Y2.8433  
G01 X-1.0709 Y2.8382  
G01 X-1.0771 Y2.8320  
G01 X-1.0823 Y2.8249  
G01 X-1.0863 Y2.8170  
G01 X-1.0890 Y2.8087  
G00 Z0.0500  
G00 X-0.9130 Y2.8137  
G01 Z-0.0035 F10    
G01 X-0.9078 Y2.8066  F20    
G01 X-0.9016 Y2.8004  
G01 X-0.8945 Y2.7953  
G01 X-0.8867 Y2.7913  
G01 X-0.8784 Y2.7886  
G01 X-0.8697 Y2.7872  
G01 X-0.8610 Y2.7872  
G01 X-0.8523 Y2.7886  
G01 X-0.8440 Y2.7913  
G01 X-0.8362 Y2.7953  
G01 X-0.8291 Y2.8004  
G01 X-0.8229 Y2.8066  
G01 X-0.8177 Y2.8137  
G01 X-0.8137 Y2.8215  
G01 X-0.8110 Y2.8299  
G01 X-0.8097 Y2.8385  
G01 X-0.8097 Y2.8473  
G01 X-0.8110 Y2.8560  
G01 X-0.8137 Y2.8643  
G01 X-0.8177 Y2.8721  
G01 X-0.8229 Y2.8792  
G01 X-0.8291 Y2.8854  
G01 X-0.8362 Y2.8905  
G01 X-0.8440 Y2.8945  
G01 X-0.8523 Y2.8972  
G01 X-0.8610 Y2.8986  
G01 X-0.8697 Y2.8986  
G01 X-0.8784 Y2.8972  
G01 X-0.8867 Y2.8945  
G01 X-0.8945 Y2.8905  
G01 X-0.9016 Y2.8854  
G01 X-0.9078 Y2.8792  
G01 X-0.9130 Y2.8721  
G01 X-0.9170 Y2.8643  
G01 X-0.9197 Y2.8560  
G01 X-0.9211 Y2.8473  
G01 X-0.9211 Y2.8385  
G01 X-0.9197 Y2.8299  
G01 X-0.9170 Y2.8215  
G01 X-0.9130 Y2.8137  
G00 Z0.0500  
G00 X-0.5890 Y2.8087  
G01 Z-0.0035 F10    
G01 X-0.5903 Y2.8001  F20    
G01 X-0.5903 Y2.7913  
G01 X-0.5890 Y2.7826  
G01 X-0.5863 Y2.7743  
G01 X-0.5823 Y2.7665  
G01 X-0.5771 Y2.7594  
G01 X-0.5709 Y2.7532  
G01 X-0.5638 Y2.7480  
G01 X-0.5560 Y2.7441  
G01 X-0.5477 Y2.7413  
G01 X-0.5390 Y2.7400  
G01 X-0.5303 Y2.7400  
G01 X-0.5216 Y2.7413  
G01 X-0.5133 Y2.7441  
G01 X-0.5055 Y2.7480  
G01 X-0.4984 Y2.7532  
G01 X-0.4922 Y2.7594  
G01 X-0.4870 Y2.7665  
G01 X-0.4830 Y2.7743  
G01 X-0.4803 Y2.7826  
G01 X-0.4789 Y2.7913  
G01 X-0.4789 Y2.8001  
G01 X-0.4803 Y2.8087  
G01 X-0.4830 Y2.8170  
G01 X-0.4870 Y2.8249  
G01 X-0.4922 Y2.8320  
G01 X-0.4984 Y2.8382  
G01 X-0.5055 Y2.8433  
G01 X-0.5133 Y2.8473  
G01 X-0.5216 Y2.8500  
G01 X-0.5303 Y2.8514  
G01 X-0.5390 Y2.8514  
G01 X-0.5477 Y2.8500  
G01 X-0.5560 Y2.8473  
G01 X-0.5638 Y2.8433  
G01 X-0.5709 Y2.8382  
G01 X-0.5771 Y2.8320  
G01 X-0.5823 Y2.8249  
G01 X-0.5863 Y2.8170  
G01 X-0.5890 Y2.8087  
G00 Z0.0500  
G00 X-0.4130 Y2.8137  
G01 Z-0.0035 F10    
G01 X-0.4078 Y2.8066  F20    
G01 X-0.4016 Y2.8004  
G01 X-0.3945 Y2.7953  
G01 X-0.3867 Y2.7913  
G01 X-0.3784 Y2.7886  
G01 X-0.3697 Y2.7872  
G01 X-0.3610 Y2.7872  
G01 X-0.3523 Y2.7886  
G01 X-0.3440 Y2.7913  
G01 X-0.3362 Y2.7953  
G01 X-0.3291 Y2.8004  
G01 X-0.3229 Y2.8066  
G01 X-0.3177 Y2.8137  
G01 X-0.3137 Y2.8215  
G01 X-0.3110 Y2.8299  
G01 X-0.3097 Y2.8385  
G01 X-0.3097 Y2.8473  
G01 X-0.3110 Y2.8560  
G01 X-0.3137 Y2.8643  
G01 X-0.3177 Y2.8721  
G01 X-0.3229 Y2.8792  
G01 X-0.3291 Y2.8854  
G01 X-0.3362 Y2.8905  
G01 X-0.3440 Y2.8945  
G01 X-0.3523 Y2.8972  
G01 X-0.3610 Y2.8986  
G01 X-0.3697 Y2.8986  
G01 X-0.3784 Y2.8972  
G01 X-0.3867 Y2.8945  
G01 X-0.3945 Y2.8905  
G01 X-0.4016 Y2.8854  
G01 X-0.4078 Y2.8792  
G01 X-0.4130 Y2.8721  
G01 X-0.4170 Y2.8643  
G01 X-0.4197 Y2.8560  
G01 X-0.4211 Y2.8473  
G01 X-0.4211 Y2.8385  
G01 X-0.4197 Y2.8299  
G01 X-0.4170 Y2.8215  
G01 X-0.4130 Y2.8137  
G00 Z0.0500  
G00 X-0.0890 Y2.8087  
G01 Z-0.0035 F10    
G01 X-0.0903 Y2.8001  F20    
G01 X-0.0903 Y2.7913  
G01 X-0.0890 Y2.7826  
G01 X-0.0863 Y2.7743  
G01 X-0.0823 Y2.7665  
G01 X-0.0771 Y2.7594  
G01 X-0.0709 Y2.7532  
G01 X-0.0638 Y2.7480  
G01 X-0.0560 Y2.7441  
G01 X-0.0477 Y2.7413  
G01 X-0.0390 Y2.7400  
G01 X-0.0303 Y2.7400  
G01 X-0.0216 Y2.7413  
G01 X-0.0133 Y2.7441  
G01 X-0.0055 Y2.7480  
G01 X0.0016  Y2.7532  
G01 X0.0078  Y2.7594  
G01 X0.0130  Y2.7665  
G01 X0.0170  Y2.7743  
G01 X0.0197  Y2.7826  
G01 X0.0211  Y2.7913  
G01 X0.0211  Y2.8001  
G01 X0.0197  Y2.8087  
G01 X0.0170  Y2.8170  
G01 X0.0130  Y2.8249  
G01 X0.0078  Y2.8320  
G01 X0.0016  Y2.8382  
G01 X-0.0055 Y2.8433  
G01 X-0.0133 Y2.8473  
G01 X-0.0216 Y2.8500  
G01 X-0.0303 Y2.8514  
G01 X-0.0390 Y2.8514  
G01 X-0.0477 Y2.8500  
G01 X-0.0560 Y2.8473  
G01 X-0.0638 Y2.8433  
G01 X-0.0709 Y2.8382  
G01 X-0.0771 Y2.8320  
G01 X-0.0823 Y2.8249  
G01 X-0.0863 Y2.8170  
G01 X-0.0890 Y2.8087  
G00 Z0.0500  
G00 X-0.0771 Y0.9406  
G01 Z-0.0035 F10    
G01 X-0.0823 Y0.9335  F20    
G01 X-0.0863 Y0.9257  
G01 X-0.0890 Y0.9174  
G01 X-0.0903 Y0.9087  
G01 X-0.0903 Y0.8999  
G01 X-0.0890 Y0.8913  
G01 X-0.0863 Y0.8830  
G01 X-0.0823 Y0.8751  
G01 X-0.0771 Y0.8680  
G01 X-0.0709 Y0.8618  
G01 X-0.0638 Y0.8567  
G01 X-0.0560 Y0.8527  
G01 X-0.0477 Y0.8500  
G01 X-0.0390 Y0.8486  
G01 X-0.0303 Y0.8486  
G01 X-0.0216 Y0.8500  
G01 X-0.0133 Y0.8527  
G01 X-0.0055 Y0.8567  
G01 X0.0016  Y0.8618  
G01 X0.0078  Y0.8680  
G01 X0.0130  Y0.8751  
G01 X0.0170  Y0.8830  
G01 X0.0197  Y0.8913  
G01 X0.0211  Y0.8999  
G01 X0.0211  Y0.9087  
G01 X0.0197  Y0.9174  
G01 X0.0170  Y0.9257  
G01 X0.0130  Y0.9335  
G01 X0.0078  Y0.9406  
G01 X0.0016  Y0.9468  
G01 X-0.0055 Y0.9520  
G01 X-0.0133 Y0.9559  
G01 X-0.0216 Y0.9587  
G01 X-0.0303 Y0.9600  
G01 X-0.0390 Y0.9600  
G01 X-0.0477 Y0.9587  
G01 X-0.0560 Y0.9559  
G01 X-0.0638 Y0.9520  
G01 X-0.0709 Y0.9468  
G01 X-0.0771 Y0.9406  
G00 Z0.0500  
G00 X-0.0902 Y0.3168  
G01 Z-0.0035 F10    
G01 X-0.0855 Y0.3233  F20    
G01 X-0.0819 Y0.3304  
G01 X-0.0794 Y0.3381  
G01 X-0.0781 Y0.3460  
G01 X-0.0781 Y0.3540  
G01 X-0.0794 Y0.3619  
G01 X-0.0819 Y0.3696  
G01 X-0.0855 Y0.3767  
G01 X-0.0902 Y0.3832  
G01 X-0.0959 Y0.3889  
G01 X-0.0961 Y0.3891  
G01 X-0.0961 Y0.5045  
G01 X-0.0058 Y0.5731  
G01 X-0.0040 Y0.5744  
G01 X-0.0033 Y0.5751  
G01 X-0.0024 Y0.5757  
G01 X-0.0010 Y0.5774  
G01 X0.0006  Y0.5790  
G01 X0.0012  Y0.5798  
G01 X0.0019  Y0.5806  
G01 X0.0030  Y0.5825  
G01 X0.0042  Y0.5844  
G01 X0.0046  Y0.5853  
G01 X0.0051  Y0.5862  
G01 X0.0059  Y0.5883  
G01 X0.0067  Y0.5904  
G01 X0.0069  Y0.5914  
G01 X0.0073  Y0.5923  
G01 X0.0076  Y0.5945  
G01 X0.0080  Y0.5967  
G01 X0.0080  Y0.5978  
G01 X0.0081  Y0.5988  
G01 X0.0080  Y0.6010  
G01 X0.0080  Y0.7486  
G01 X0.0082  Y0.7504  
G01 X0.0080  Y0.7518  
G01 X0.0080  Y0.7533  
G01 X0.0076  Y0.7551  
G01 X0.0074  Y0.7569  
G01 X0.0070  Y0.7582  
G01 X0.0067  Y0.7596  
G01 X0.0060  Y0.7613  
G01 X0.0055  Y0.7631  
G01 X0.0048  Y0.7643  
G01 X0.0042  Y0.7656  
G01 X0.0032  Y0.7672  
G01 X0.0023  Y0.7688  
G01 X0.0014  Y0.7699  
G01 X0.0006  Y0.7710  
G01 X-0.0007 Y0.7723  
G01 X-0.0018 Y0.7737  
G01 X-0.0030 Y0.7746  
G01 X-0.0040 Y0.7756  
G01 X-0.0055 Y0.7767  
G01 X-0.1170 Y0.8659  
G01 X-0.1170 Y2.8848  
G01 X-0.1046 Y2.9625  
G01 X-0.1044 Y2.9627  
G01 X-0.0979 Y2.9674  
G01 X-0.0922 Y2.9731  
G01 X-0.0875 Y2.9796  
G01 X-0.0838 Y2.9867  
G01 X-0.0814 Y2.9944  
G01 X-0.0801 Y3.0023  
G01 X-0.0801 Y3.0103  
G01 X-0.0814 Y3.0182  
G01 X-0.0838 Y3.0259  
G01 X-0.0875 Y3.0330  
G01 X-0.0922 Y3.0395  
G01 X-0.0979 Y3.0452  
G01 X-0.1044 Y3.0499  
G01 X-0.1115 Y3.0536  
G01 X-0.1192 Y3.0560  
G01 X-0.1271 Y3.0573  
G01 X-0.1351 Y3.0573  
G01 X-0.1430 Y3.0560  
G01 X-0.1507 Y3.0536  
G01 X-0.1578 Y3.0499  
G01 X-0.1643 Y3.0452  
G01 X-0.1700 Y3.0395  
G01 X-0.1702 Y3.0393  
G01 X-0.5920 Y3.0393  
G01 X-0.5922 Y3.0395  
G01 X-0.5979 Y3.0452  
G01 X-0.6044 Y3.0499  
G01 X-0.6115 Y3.0536  
G01 X-0.6192 Y3.0560  
G01 X-0.6271 Y3.0573  
G01 X-0.6351 Y3.0573  
G01 X-0.6430 Y3.0560  
G01 X-0.6507 Y3.0536  
G01 X-0.6578 Y3.0499  
G01 X-0.6643 Y3.0452  
G01 X-0.6700 Y3.0395  
G01 X-0.6702 Y3.0393  
G01 X-1.0920 Y3.0393  
G01 X-1.0922 Y3.0395  
G01 X-1.0979 Y3.0452  
G01 X-1.1044 Y3.0499  
G01 X-1.1115 Y3.0536  
G01 X-1.1192 Y3.0560  
G01 X-1.1271 Y3.0573  
G01 X-1.1351 Y3.0573  
G01 X-1.1430 Y3.0560  
G01 X-1.1507 Y3.0536  
G01 X-1.1578 Y3.0499  
G01 X-1.1643 Y3.0452  
G01 X-1.1700 Y3.0395  
G01 X-1.1702 Y3.0393  
G01 X-1.5920 Y3.0393  
G01 X-1.5922 Y3.0395  
G01 X-1.5979 Y3.0452  
G01 X-1.6044 Y3.0499  
G01 X-1.6115 Y3.0536  
G01 X-1.6192 Y3.0560  
G01 X-1.6271 Y3.0573  
G01 X-1.6351 Y3.0573  
G01 X-1.6430 Y3.0560  
G01 X-1.6507 Y3.0536  
G01 X-1.6578 Y3.0499  
G01 X-1.6643 Y3.0452  
G01 X-1.6700 Y3.0395  
G01 X-1.6702 Y3.0393  
G01 X-2.0920 Y3.0393  
G01 X-2.0922 Y3.0395  
G01 X-2.0979 Y3.0452  
G01 X-2.1044 Y3.0499  
G01 X-2.1115 Y3.0536  
G01 X-2.1192 Y3.0560  
G01 X-2.1271 Y3.0573  
G01 X-2.1351 Y3.0573  
G01 X-2.1430 Y3.0560  
G01 X-2.1507 Y3.0536  
G01 X-2.1578 Y3.0499  
G01 X-2.1643 Y3.0452  
G01 X-2.1700 Y3.0395  
G01 X-2.1702 Y3.0393  
G01 X-2.5920 Y3.0393  
G01 X-2.5922 Y3.0395  
G01 X-2.5979 Y3.0452  
G01 X-2.6044 Y3.0499  
G01 X-2.6115 Y3.0536  
G01 X-2.6192 Y3.0560  
G01 X-2.6271 Y3.0573  
G01 X-2.6351 Y3.0573  
G01 X-2.6430 Y3.0560  
G01 X-2.6507 Y3.0536  
G01 X-2.6578 Y3.0499  
G01 X-2.6643 Y3.0452  
G01 X-2.6700 Y3.0395  
G01 X-2.6702 Y3.0393  
G01 X-3.0920 Y3.0393  
G01 X-3.0922 Y3.0395  
G01 X-3.0979 Y3.0452  
G01 X-3.1044 Y3.0499  
G01 X-3.1115 Y3.0536  
G01 X-3.1192 Y3.0560  
G01 X-3.1271 Y3.0573  
G01 X-3.1351 Y3.0573  
G01 X-3.1430 Y3.0560  
G01 X-3.1507 Y3.0536  
G01 X-3.1578 Y3.0499  
G01 X-3.1643 Y3.0452  
G01 X-3.1700 Y3.0395  
G01 X-3.1702 Y3.0393  
G01 X-3.5920 Y3.0393  
G01 X-3.5922 Y3.0395  
G01 X-3.5979 Y3.0452  
G01 X-3.6044 Y3.0499  
G01 X-3.6115 Y3.0536  
G01 X-3.6192 Y3.0560  
G01 X-3.6271 Y3.0573  
G01 X-3.6351 Y3.0573  
G01 X-3.6430 Y3.0560  
G01 X-3.6507 Y3.0536  
G01 X-3.6578 Y3.0499  
G01 X-3.6643 Y3.0452  
G01 X-3.6700 Y3.0395  
G01 X-3.6747 Y3.0330  
G01 X-3.6784 Y3.0259  
G01 X-3.6808 Y3.0182  
G01 X-3.6821 Y3.0103  
G01 X-3.6821 Y3.0023  
G01 X-3.6808 Y2.9944  
G01 X-3.6784 Y2.9867  
G01 X-3.6747 Y2.9796  
G01 X-3.6700 Y2.9731  
G01 X-3.6643 Y2.9674  
G01 X-3.6578 Y2.9627  
G01 X-3.6507 Y2.9590  
G01 X-3.6430 Y2.9566  
G01 X-3.6351 Y2.9553  
G01 X-3.6271 Y2.9553  
G01 X-3.6192 Y2.9566  
G01 X-3.6115 Y2.9590  
G01 X-3.6044 Y2.9627  
G01 X-3.5979 Y2.9674  
G01 X-3.5922 Y2.9731  
G01 X-3.5920 Y2.9733  
G01 X-3.2587 Y2.9733  
G01 X-3.2582 Y2.9731  
G01 X-3.2528 Y2.9720  
G01 X-3.1689 Y2.9720  
G01 X-3.1643 Y2.9674  
G01 X-3.1578 Y2.9627  
G01 X-3.1507 Y2.9590  
G01 X-3.1430 Y2.9566  
G01 X-3.1351 Y2.9553  
G01 X-3.1271 Y2.9553  
G01 X-3.1192 Y2.9566  
G01 X-3.1115 Y2.9590  
G01 X-3.1044 Y2.9627  
G01 X-3.0979 Y2.9674  
G01 X-3.0922 Y2.9731  
G01 X-3.0920 Y2.9733  
G01 X-2.6702 Y2.9733  
G01 X-2.6700 Y2.9731  
G01 X-2.6643 Y2.9674  
G01 X-2.6578 Y2.9627  
G01 X-2.6507 Y2.9590  
G01 X-2.6430 Y2.9566  
G01 X-2.6351 Y2.9553  
G01 X-2.6271 Y2.9553  
G01 X-2.6192 Y2.9566  
G01 X-2.6115 Y2.9590  
G01 X-2.6044 Y2.9627  
G01 X-2.5979 Y2.9674  
G01 X-2.5922 Y2.9731  
G01 X-2.5920 Y2.9733  
G01 X-2.1702 Y2.9733  
G01 X-2.1700 Y2.9731  
G01 X-2.1643 Y2.9674  
G01 X-2.1578 Y2.9627  
G01 X-2.1507 Y2.9590  
G01 X-2.1430 Y2.9566  
G01 X-2.1351 Y2.9553  
G01 X-2.1271 Y2.9553  
G01 X-2.1192 Y2.9566  
G01 X-2.1115 Y2.9590  
G01 X-2.1044 Y2.9627  
G01 X-2.0979 Y2.9674  
G01 X-2.0922 Y2.9731  
G01 X-2.0920 Y2.9733  
G01 X-1.6702 Y2.9733  
G01 X-1.6700 Y2.9731  
G01 X-1.6643 Y2.9674  
G01 X-1.6578 Y2.9627  
G01 X-1.6507 Y2.9590  
G01 X-1.6430 Y2.9566  
G01 X-1.6351 Y2.9553  
G01 X-1.6271 Y2.9553  
G01 X-1.6192 Y2.9566  
G01 X-1.6115 Y2.9590  
G01 X-1.6044 Y2.9627  
G01 X-1.5979 Y2.9674  
G01 X-1.5922 Y2.9731  
G01 X-1.5920 Y2.9733  
G01 X-1.1702 Y2.9733  
G01 X-1.1700 Y2.9731  
G01 X-1.1643 Y2.9674  
G01 X-1.1578 Y2.9627  
G01 X-1.1507 Y2.9590  
G01 X-1.1430 Y2.9566  
G01 X-1.1351 Y2.9553  
G01 X-1.1271 Y2.9553  
G01 X-1.1192 Y2.9566  
G01 X-1.1115 Y2.9590  
G01 X-1.1044 Y2.9627  
G01 X-1.0979 Y2.9674  
G01 X-1.0922 Y2.9731  
G01 X-1.0920 Y2.9733  
G01 X-0.6702 Y2.9733  
G01 X-0.6700 Y2.9731  
G01 X-0.6643 Y2.9674  
G01 X-0.6578 Y2.9627  
G01 X-0.6507 Y2.9590  
G01 X-0.6430 Y2.9566  
G01 X-0.6351 Y2.9553  
G01 X-0.6271 Y2.9553  
G01 X-0.6192 Y2.9566  
G01 X-0.6115 Y2.9590  
G01 X-0.6044 Y2.9627  
G01 X-0.5979 Y2.9674  
G01 X-0.5922 Y2.9731  
G01 X-0.5920 Y2.9733  
G01 X-0.1702 Y2.9733  
G01 X-0.1700 Y2.9731  
G01 X-0.1698 Y2.9729  
G01 X-0.1825 Y2.8932  
G01 X-0.1830 Y2.8907  
G01 X-0.1830 Y2.8900  
G01 X-0.1831 Y2.8894  
G01 X-0.1830 Y2.8868  
G01 X-0.1830 Y0.8514  
G01 X-0.1832 Y0.8496  
G01 X-0.1830 Y0.8482  
G01 X-0.1830 Y0.8467  
G01 X-0.1826 Y0.8449  
G01 X-0.1824 Y0.8431  
G01 X-0.1820 Y0.8418  
G01 X-0.1817 Y0.8404  
G01 X-0.1810 Y0.8387  
G01 X-0.1805 Y0.8369  
G01 X-0.1798 Y0.8357  
G01 X-0.1792 Y0.8344  
G01 X-0.1782 Y0.8328  
G01 X-0.1773 Y0.8312  
G01 X-0.1764 Y0.8301  
G01 X-0.1756 Y0.8290  
G01 X-0.1743 Y0.8277  
G01 X-0.1732 Y0.8263  
G01 X-0.1720 Y0.8254  
G01 X-0.1710 Y0.8244  
G01 X-0.1695 Y0.8233  
G01 X-0.0580 Y0.7341  
G01 X-0.0580 Y0.6164  
G01 X-0.1483 Y0.5477  
G01 X-0.1502 Y0.5465  
G01 X-0.1509 Y0.5458  
G01 X-0.1517 Y0.5452  
G01 X-0.1532 Y0.5435  
G01 X-0.1548 Y0.5419  
G01 X-0.1553 Y0.5411  
G01 X-0.1560 Y0.5403  
G01 X-0.1571 Y0.5384  
G01 X-0.1584 Y0.5365  
G01 X-0.1588 Y0.5356  
G01 X-0.1593 Y0.5347  
G01 X-0.1600 Y0.5326  
G01 X-0.1609 Y0.5305  
G01 X-0.1611 Y0.5295  
G01 X-0.1614 Y0.5285  
G01 X-0.1617 Y0.5263  
G01 X-0.1621 Y0.5241  
G01 X-0.1621 Y0.5231  
G01 X-0.1623 Y0.5221  
G01 X-0.1621 Y0.5199  
G01 X-0.1621 Y0.3891  
G01 X-0.1624 Y0.3889  
G01 X-0.1680 Y0.3832  
G01 X-0.1728 Y0.3767  
G01 X-0.1764 Y0.3696  
G01 X-0.1789 Y0.3619  
G01 X-0.1801 Y0.3540  
G01 X-0.1801 Y0.3460  
G01 X-0.1789 Y0.3381  
G01 X-0.1764 Y0.3304  
G01 X-0.1728 Y0.3233  
G01 X-0.1680 Y0.3168  
G01 X-0.1624 Y0.3111  
G01 X-0.1559 Y0.3064  
G01 X-0.1487 Y0.3027  
G01 X-0.1411 Y0.3003  
G01 X-0.1331 Y0.2990  
G01 X-0.1251 Y0.2990  
G01 X-0.1172 Y0.3003  
G01 X-0.1096 Y0.3027  
G01 X-0.1024 Y0.3064  
G01 X-0.0959 Y0.3111  
G01 X-0.0902 Y0.3168  
G00 Z0.0500  
G00 X-0.2280 Y0.3168  
G01 Z-0.0035 F10    
G01 X-0.2233 Y0.3233  F20    
G01 X-0.2197 Y0.3304  
G01 X-0.2172 Y0.3381  
G01 X-0.2159 Y0.3460  
G01 X-0.2159 Y0.3540  
G01 X-0.2172 Y0.3619  
G01 X-0.2197 Y0.3696  
G01 X-0.2233 Y0.3767  
G01 X-0.2280 Y0.3832  
G01 X-0.2337 Y0.3889  
G01 X-0.2339 Y0.3891  
G01 X-0.2339 Y0.4971  
G01 X-0.1275 Y0.6427  
G01 X-0.1271 Y0.6427  
G01 X-0.1192 Y0.6440  
G01 X-0.1115 Y0.6464  
G01 X-0.1044 Y0.6501  
G01 X-0.0979 Y0.6548  
G01 X-0.0922 Y0.6605  
G01 X-0.0875 Y0.6670  
G01 X-0.0838 Y0.6741  
G01 X-0.0814 Y0.6818  
G01 X-0.0801 Y0.6897  
G01 X-0.0801 Y0.6977  
G01 X-0.0814 Y0.7056  
G01 X-0.0838 Y0.7133  
G01 X-0.0875 Y0.7204  
G01 X-0.0922 Y0.7269  
G01 X-0.0979 Y0.7326  
G01 X-0.1044 Y0.7373  
G01 X-0.1115 Y0.7410  
G01 X-0.1192 Y0.7434  
G01 X-0.1271 Y0.7447  
G01 X-0.1351 Y0.7447  
G01 X-0.1354 Y0.7447  
G01 X-0.2170 Y0.8263  
G01 X-0.2170 Y0.9033  
G01 X-0.2183 Y0.9096  
G01 X-0.2208 Y0.9156  
G01 X-0.2244 Y0.9210  
G01 X-0.2290 Y0.9256  
G01 X-0.3540 Y1.0506  
G01 X-0.3594 Y1.0542  
G01 X-0.3654 Y1.0567  
G01 X-0.3717 Y1.0580  
G01 X-0.6283 Y1.0580  
G01 X-0.6346 Y1.0567  
G01 X-0.6406 Y1.0543  
G01 X-0.6465 Y1.0567  
G01 X-0.6529 Y1.0580  
G01 X-1.1283 Y1.0580  
G01 X-1.1311 Y1.0574  
G01 X-1.1340 Y1.0580  
G01 X-1.6283 Y1.0580  
G01 X-1.6311 Y1.0574  
G01 X-1.6340 Y1.0580  
G01 X-2.1283 Y1.0580  
G01 X-2.1311 Y1.0574  
G01 X-2.1340 Y1.0580  
G01 X-2.6283 Y1.0580  
G01 X-2.6311 Y1.0574  
G01 X-2.6340 Y1.0580  
G01 X-3.1283 Y1.0580  
G01 X-3.1346 Y1.0567  
G01 X-3.1406 Y1.0543  
G01 X-3.1465 Y1.0567  
G01 X-3.1529 Y1.0580  
G01 X-3.6283 Y1.0580  
G01 X-3.6346 Y1.0567  
G01 X-3.6406 Y1.0542  
G01 X-3.6460 Y1.0506  
G01 X-3.6506 Y1.0460  
G01 X-3.6512 Y1.0451  
G01 X-3.6521 Y1.0445  
G01 X-3.6567 Y1.0399  
G01 X-3.6603 Y1.0345  
G01 X-3.6628 Y1.0285  
G01 X-3.6641 Y1.0221  
G01 X-3.6641 Y0.7328  
G01 X-3.6643 Y0.7326  
G01 X-3.6700 Y0.7269  
G01 X-3.6747 Y0.7204  
G01 X-3.6784 Y0.7133  
G01 X-3.6808 Y0.7056  
G01 X-3.6821 Y0.6977  
G01 X-3.6821 Y0.6897  
G01 X-3.6808 Y0.6818  
G01 X-3.6784 Y0.6741  
G01 X-3.6747 Y0.6670  
G01 X-3.6700 Y0.6605  
G01 X-3.6643 Y0.6548  
G01 X-3.6578 Y0.6501  
G01 X-3.6507 Y0.6464  
G01 X-3.6430 Y0.6440  
G01 X-3.6351 Y0.6427  
G01 X-3.6271 Y0.6427  
G01 X-3.6192 Y0.6440  
G01 X-3.6115 Y0.6464  
G01 X-3.6044 Y0.6501  
G01 X-3.5979 Y0.6548  
G01 X-3.5922 Y0.6605  
G01 X-3.5875 Y0.6670  
G01 X-3.5838 Y0.6741  
G01 X-3.5814 Y0.6818  
G01 X-3.5801 Y0.6897  
G01 X-3.5801 Y0.6977  
G01 X-3.5814 Y0.7056  
G01 X-3.5838 Y0.7133  
G01 X-3.5875 Y0.7204  
G01 X-3.5922 Y0.7269  
G01 X-3.5979 Y0.7326  
G01 X-3.5981 Y0.7328  
G01 X-3.5981 Y0.9920  
G01 X-3.1641 Y0.9920  
G01 X-3.1641 Y0.7328  
G01 X-3.1643 Y0.7326  
G01 X-3.1700 Y0.7269  
G01 X-3.1747 Y0.7204  
G01 X-3.1784 Y0.7133  
G01 X-3.1808 Y0.7056  
G01 X-3.1821 Y0.6977  
G01 X-3.1821 Y0.6897  
G01 X-3.1808 Y0.6818  
G01 X-3.1784 Y0.6741  
G01 X-3.1747 Y0.6670  
G01 X-3.1700 Y0.6605  
G01 X-3.1643 Y0.6548  
G01 X-3.1578 Y0.6501  
G01 X-3.1507 Y0.6464  
G01 X-3.1430 Y0.6440  
G01 X-3.1351 Y0.6427  
G01 X-3.1271 Y0.6427  
G01 X-3.1192 Y0.6440  
G01 X-3.1115 Y0.6464  
G01 X-3.1044 Y0.6501  
G01 X-3.0979 Y0.6548  
G01 X-3.0922 Y0.6605  
G01 X-3.0875 Y0.6670  
G01 X-3.0838 Y0.6741  
G01 X-3.0814 Y0.6818  
G01 X-3.0801 Y0.6897  
G01 X-3.0801 Y0.6977  
G01 X-3.0814 Y0.7056  
G01 X-3.0838 Y0.7133  
G01 X-3.0875 Y0.7204  
G01 X-3.0922 Y0.7269  
G01 X-3.0979 Y0.7326  
G01 X-3.0981 Y0.7328  
G01 X-3.0981 Y0.9920  
G01 X-2.6641 Y0.9920  
G01 X-2.6641 Y0.7328  
G01 X-2.6643 Y0.7326  
G01 X-2.6700 Y0.7269  
G01 X-2.6747 Y0.7204  
G01 X-2.6784 Y0.7133  
G01 X-2.6808 Y0.7056  
G01 X-2.6821 Y0.6977  
G01 X-2.6821 Y0.6897  
G01 X-2.6808 Y0.6818  
G01 X-2.6784 Y0.6741  
G01 X-2.6747 Y0.6670  
G01 X-2.6700 Y0.6605  
G01 X-2.6643 Y0.6548  
G01 X-2.6578 Y0.6501  
G01 X-2.6507 Y0.6464  
G01 X-2.6430 Y0.6440  
G01 X-2.6351 Y0.6427  
G01 X-2.6271 Y0.6427  
G01 X-2.6192 Y0.6440  
G01 X-2.6115 Y0.6464  
G01 X-2.6044 Y0.6501  
G01 X-2.5979 Y0.6548  
G01 X-2.5922 Y0.6605  
G01 X-2.5875 Y0.6670  
G01 X-2.5838 Y0.6741  
G01 X-2.5814 Y0.6818  
G01 X-2.5801 Y0.6897  
G01 X-2.5801 Y0.6977  
G01 X-2.5814 Y0.7056  
G01 X-2.5838 Y0.7133  
G01 X-2.5875 Y0.7204  
G01 X-2.5922 Y0.7269  
G01 X-2.5979 Y0.7326  
G01 X-2.5981 Y0.7328  
G01 X-2.5981 Y0.9920  
G01 X-2.1641 Y0.9920  
G01 X-2.1641 Y0.7328  
G01 X-2.1643 Y0.7326  
G01 X-2.1700 Y0.7269  
G01 X-2.1747 Y0.7204  
G01 X-2.1784 Y0.7133  
G01 X-2.1808 Y0.7056  
G01 X-2.1821 Y0.6977  
G01 X-2.1821 Y0.6897  
G01 X-2.1808 Y0.6818  
G01 X-2.1784 Y0.6741  
G01 X-2.1747 Y0.6670  
G01 X-2.1700 Y0.6605  
G01 X-2.1643 Y0.6548  
G01 X-2.1578 Y0.6501  
G01 X-2.1507 Y0.6464  
G01 X-2.1430 Y0.6440  
G01 X-2.1351 Y0.6427  
G01 X-2.1271 Y0.6427  
G01 X-2.1192 Y0.6440  
G01 X-2.1115 Y0.6464  
G01 X-2.1044 Y0.6501  
G01 X-2.0979 Y0.6548  
G01 X-2.0922 Y0.6605  
G01 X-2.0875 Y0.6670  
G01 X-2.0838 Y0.6741  
G01 X-2.0814 Y0.6818  
G01 X-2.0801 Y0.6897  
G01 X-2.0801 Y0.6977  
G01 X-2.0814 Y0.7056  
G01 X-2.0838 Y0.7133  
G01 X-2.0875 Y0.7204  
G01 X-2.0922 Y0.7269  
G01 X-2.0979 Y0.7326  
G01 X-2.0981 Y0.7328  
G01 X-2.0981 Y0.9920  
G01 X-1.6641 Y0.9920  
G01 X-1.6641 Y0.7328  
G01 X-1.6643 Y0.7326  
G01 X-1.6700 Y0.7269  
G01 X-1.6747 Y0.7204  
G01 X-1.6784 Y0.7133  
G01 X-1.6808 Y0.7056  
G01 X-1.6821 Y0.6977  
G01 X-1.6821 Y0.6897  
G01 X-1.6808 Y0.6818  
G01 X-1.6784 Y0.6741  
G01 X-1.6747 Y0.6670  
G01 X-1.6700 Y0.6605  
G01 X-1.6643 Y0.6548  
G01 X-1.6578 Y0.6501  
G01 X-1.6507 Y0.6464  
G01 X-1.6430 Y0.6440  
G01 X-1.6351 Y0.6427  
G01 X-1.6271 Y0.6427  
G01 X-1.6192 Y0.6440  
G01 X-1.6115 Y0.6464  
G01 X-1.6044 Y0.6501  
G01 X-1.5979 Y0.6548  
G01 X-1.5922 Y0.6605  
G01 X-1.5875 Y0.6670  
G01 X-1.5838 Y0.6741  
G01 X-1.5814 Y0.6818  
G01 X-1.5801 Y0.6897  
G01 X-1.5801 Y0.6977  
G01 X-1.5814 Y0.7056  
G01 X-1.5838 Y0.7133  
G01 X-1.5875 Y0.7204  
G01 X-1.5922 Y0.7269  
G01 X-1.5979 Y0.7326  
G01 X-1.5981 Y0.7328  
G01 X-1.5981 Y0.9920  
G01 X-1.1641 Y0.9920  
G01 X-1.1641 Y0.7328  
G01 X-1.1643 Y0.7326  
G01 X-1.1700 Y0.7269  
G01 X-1.1747 Y0.7204  
G01 X-1.1784 Y0.7133  
G01 X-1.1808 Y0.7056  
G01 X-1.1821 Y0.6977  
G01 X-1.1821 Y0.6897  
G01 X-1.1808 Y0.6818  
G01 X-1.1784 Y0.6741  
G01 X-1.1747 Y0.6670  
G01 X-1.1700 Y0.6605  
G01 X-1.1643 Y0.6548  
G01 X-1.1578 Y0.6501  
G01 X-1.1507 Y0.6464  
G01 X-1.1430 Y0.6440  
G01 X-1.1351 Y0.6427  
G01 X-1.1271 Y0.6427  
G01 X-1.1192 Y0.6440  
G01 X-1.1115 Y0.6464  
G01 X-1.1044 Y0.6501  
G01 X-1.0979 Y0.6548  
G01 X-1.0922 Y0.6605  
G01 X-1.0875 Y0.6670  
G01 X-1.0838 Y0.6741  
G01 X-1.0814 Y0.6818  
G01 X-1.0801 Y0.6897  
G01 X-1.0801 Y0.6977  
G01 X-1.0814 Y0.7056  
G01 X-1.0838 Y0.7133  
G01 X-1.0875 Y0.7204  
G01 X-1.0922 Y0.7269  
G01 X-1.0979 Y0.7326  
G01 X-1.0981 Y0.7328  
G01 X-1.0981 Y0.9920  
G01 X-0.6641 Y0.9920  
G01 X-0.6641 Y0.7328  
G01 X-0.6643 Y0.7326  
G01 X-0.6700 Y0.7269  
G01 X-0.6747 Y0.7204  
G01 X-0.6784 Y0.7133  
G01 X-0.6808 Y0.7056  
G01 X-0.6821 Y0.6977  
G01 X-0.6821 Y0.6897  
G01 X-0.6808 Y0.6818  
G01 X-0.6784 Y0.6741  
G01 X-0.6747 Y0.6670  
G01 X-0.6700 Y0.6605  
G01 X-0.6643 Y0.6548  
G01 X-0.6578 Y0.6501  
G01 X-0.6507 Y0.6464  
G01 X-0.6430 Y0.6440  
G01 X-0.6351 Y0.6427  
G01 X-0.6271 Y0.6427  
G01 X-0.6192 Y0.6440  
G01 X-0.6115 Y0.6464  
G01 X-0.6044 Y0.6501  
G01 X-0.5979 Y0.6548  
G01 X-0.5922 Y0.6605  
G01 X-0.5875 Y0.6670  
G01 X-0.5838 Y0.6741  
G01 X-0.5814 Y0.6818  
G01 X-0.5801 Y0.6897  
G01 X-0.5801 Y0.6977  
G01 X-0.5814 Y0.7056  
G01 X-0.5838 Y0.7133  
G01 X-0.5875 Y0.7204  
G01 X-0.5922 Y0.7269  
G01 X-0.5979 Y0.7326  
G01 X-0.5981 Y0.7328  
G01 X-0.5981 Y0.9920  
G01 X-0.3887 Y0.9920  
G01 X-0.2830 Y0.8863  
G01 X-0.2830 Y0.8093  
G01 X-0.2817 Y0.8030  
G01 X-0.2792 Y0.7970  
G01 X-0.2756 Y0.7916  
G01 X-0.1821 Y0.6980  
G01 X-0.1821 Y0.6977  
G01 X-0.1821 Y0.6897  
G01 X-0.1808 Y0.6818  
G01 X-0.1808 Y0.6816  
G01 X-0.2921 Y0.5294  
G01 X-0.2926 Y0.5289  
G01 X-0.2940 Y0.5268  
G01 X-0.2955 Y0.5247  
G01 X-0.2958 Y0.5241  
G01 X-0.2962 Y0.5235  
G01 X-0.2972 Y0.5211  
G01 X-0.2982 Y0.5188  
G01 X-0.2984 Y0.5181  
G01 X-0.2987 Y0.5175  
G01 X-0.2992 Y0.5150  
G01 X-0.2998 Y0.5125  
G01 X-0.2998 Y0.5118  
G01 X-0.2999 Y0.5111  
G01 X-0.2999 Y0.5086  
G01 X-0.3000 Y0.5060  
G01 X-0.2999 Y0.5053  
G01 X-0.2999 Y0.3891  
G01 X-0.3002 Y0.3889  
G01 X-0.3058 Y0.3832  
G01 X-0.3105 Y0.3767  
G01 X-0.3142 Y0.3696  
G01 X-0.3167 Y0.3619  
G01 X-0.3179 Y0.3540  
G01 X-0.3179 Y0.3460  
G01 X-0.3167 Y0.3381  
G01 X-0.3142 Y0.3304  
G01 X-0.3105 Y0.3233  
G01 X-0.3058 Y0.3168  
G01 X-0.3002 Y0.3111  
G01 X-0.2937 Y0.3064  
G01 X-0.2865 Y0.3027  
G01 X-0.2789 Y0.3003  
G01 X-0.2709 Y0.2990  
G01 X-0.2629 Y0.2990  
G01 X-0.2550 Y0.3003  
G01 X-0.2474 Y0.3027  
G01 X-0.2402 Y0.3064  
G01 X-0.2337 Y0.3111  
G01 X-0.2280 Y0.3168  
G00 Z0.0500  
G00 X-0.2300 Y0.6605  
G01 Z-0.0035 F10    
G01 X-0.2253 Y0.6670  F20    
G01 X-0.2216 Y0.6741  
G01 X-0.2192 Y0.6818  
G01 X-0.2179 Y0.6897  
G01 X-0.2179 Y0.6977  
G01 X-0.2192 Y0.7056  
G01 X-0.2216 Y0.7133  
G01 X-0.2253 Y0.7204  
G01 X-0.2300 Y0.7269  
G01 X-0.2357 Y0.7326  
G01 X-0.2422 Y0.7373  
G01 X-0.2493 Y0.7410  
G01 X-0.2570 Y0.7434  
G01 X-0.2649 Y0.7447  
G01 X-0.2729 Y0.7447  
G01 X-0.2808 Y0.7434  
G01 X-0.2885 Y0.7410  
G01 X-0.2956 Y0.7373  
G01 X-0.3021 Y0.7326  
G01 X-0.3078 Y0.7269  
G01 X-0.3120 Y0.7211  
G01 X-0.3145 Y0.7206  
G01 X-0.3196 Y0.7185  
G01 X-0.3241 Y0.7154  
G01 X-0.6616 Y0.3780  
G01 X-1.6123 Y0.3780  
G01 X-1.6123 Y0.3834  
G01 X-1.6138 Y0.3907  
G01 X-1.6166 Y0.3975  
G01 X-1.6207 Y0.4037  
G01 X-1.6260 Y0.4090  
G01 X-1.6321 Y0.4131  
G01 X-1.6390 Y0.4159  
G01 X-1.6463 Y0.4174  
G01 X-1.6537 Y0.4174  
G01 X-1.6610 Y0.4159  
G01 X-1.6679 Y0.4131  
G01 X-1.6740 Y0.4090  
G01 X-1.6793 Y0.4037  
G01 X-1.6834 Y0.3975  
G01 X-1.6862 Y0.3907  
G01 X-1.6877 Y0.3834  
G01 X-1.6877 Y0.3166  
G01 X-1.6862 Y0.3093  
G01 X-1.6834 Y0.3025  
G01 X-1.6793 Y0.2963  
G01 X-1.6740 Y0.2910  
G01 X-1.6679 Y0.2869  
G01 X-1.6610 Y0.2841  
G01 X-1.6537 Y0.2826  
G01 X-1.6463 Y0.2826  
G01 X-1.6390 Y0.2841  
G01 X-1.6321 Y0.2869  
G01 X-1.6260 Y0.2910  
G01 X-1.6207 Y0.2963  
G01 X-1.6166 Y0.3025  
G01 X-1.6138 Y0.3093  
G01 X-1.6123 Y0.3166  
G01 X-1.6123 Y0.3220  
G01 X-0.6472 Y0.3220  
G01 X-0.6418 Y0.3231  
G01 X-0.6367 Y0.3252  
G01 X-0.6322 Y0.3283  
G01 X-0.6283 Y0.3322  
G01 X-0.3039 Y0.6565  
G01 X-0.3021 Y0.6548  
G01 X-0.2956 Y0.6501  
G01 X-0.2885 Y0.6464  
G01 X-0.2808 Y0.6440  
G01 X-0.2729 Y0.6427  
G01 X-0.2649 Y0.6427  
G01 X-0.2570 Y0.6440  
G01 X-0.2493 Y0.6464  
G01 X-0.2422 Y0.6501  
G01 X-0.2357 Y0.6548  
G01 X-0.2300 Y0.6605  
G00 Z0.0500  
G00 X-0.3210 Y0.8192  
G01 Z-0.0035 F10    
G01 X-0.3156 Y0.8266  F20    
G01 X-0.3114 Y0.8347  
G01 X-0.3086 Y0.8435  
G01 X-0.3072 Y0.8525  
G01 X-0.3072 Y0.8617  
G01 X-0.3086 Y0.8707  
G01 X-0.3114 Y0.8794  
G01 X-0.3156 Y0.8876  
G01 X-0.3210 Y0.8950  
G01 X-0.3274 Y0.9015  
G01 X-0.3349 Y0.9069  
G01 X-0.3430 Y0.9110  
G01 X-0.3517 Y0.9139  
G01 X-0.3608 Y0.9153  
G01 X-0.3699 Y0.9153  
G01 X-0.3790 Y0.9139  
G01 X-0.3877 Y0.9110  
G01 X-0.3959 Y0.9069  
G01 X-0.4033 Y0.9015  
G01 X-0.4097 Y0.8950  
G01 X-0.4151 Y0.8876  
G01 X-0.4193 Y0.8794  
G01 X-0.4221 Y0.8707  
G01 X-0.4236 Y0.8617  
G01 X-0.4236 Y0.8525  
G01 X-0.4221 Y0.8435  
G01 X-0.4193 Y0.8347  
G01 X-0.4151 Y0.8266  
G01 X-0.4097 Y0.8192  
G01 X-0.4033 Y0.8127  
G01 X-0.3959 Y0.8073  
G01 X-0.3877 Y0.8032  
G01 X-0.3790 Y0.8003  
G01 X-0.3699 Y0.7989  
G01 X-0.3608 Y0.7989  
G01 X-0.3517 Y0.8003  
G01 X-0.3430 Y0.8032  
G01 X-0.3349 Y0.8073  
G01 X-0.3274 Y0.8127  
G01 X-0.3210 Y0.8192  
G00 Z0.0500  
G00 X-0.4903 Y0.8664  
G01 Z-0.0035 F10    
G01 X-0.4849 Y0.8738  F20    
G01 X-0.4807 Y0.8820  
G01 X-0.4779 Y0.8907  
G01 X-0.4764 Y0.8998  
G01 X-0.4764 Y0.9089  
G01 X-0.4779 Y0.9180  
G01 X-0.4807 Y0.9267  
G01 X-0.4849 Y0.9348  
G01 X-0.4903 Y0.9422  
G01 X-0.4967 Y0.9487  
G01 X-0.5041 Y0.9541  
G01 X-0.5123 Y0.9583  
G01 X-0.5210 Y0.9611  
G01 X-0.5301 Y0.9625  
G01 X-0.5392 Y0.9625  
G01 X-0.5483 Y0.9611  
G01 X-0.5570 Y0.9583  
G01 X-0.5651 Y0.9541  
G01 X-0.5726 Y0.9487  
G01 X-0.5790 Y0.9422  
G01 X-0.5844 Y0.9348  
G01 X-0.5886 Y0.9267  
G01 X-0.5914 Y0.9180  
G01 X-0.5928 Y0.9089  
G01 X-0.5928 Y0.8998  
G01 X-0.5914 Y0.8907  
G01 X-0.5886 Y0.8820  
G01 X-0.5844 Y0.8738  
G01 X-0.5790 Y0.8664  
G01 X-0.5726 Y0.8599  
G01 X-0.5651 Y0.8546  
G01 X-0.5570 Y0.8504  
G01 X-0.5483 Y0.8476  
G01 X-0.5392 Y0.8461  
G01 X-0.5301 Y0.8461  
G01 X-0.5210 Y0.8476  
G01 X-0.5123 Y0.8504  
G01 X-0.5041 Y0.8546  
G01 X-0.4967 Y0.8599  
G01 X-0.4903 Y0.8664  
G00 Z0.0500  
G00 X-0.8072 Y0.8617  
G01 Z-0.0035 F10    
G01 X-0.8086 Y0.8707  F20    
G01 X-0.8114 Y0.8794  
G01 X-0.8156 Y0.8876  
G01 X-0.8210 Y0.8950  
G01 X-0.8274 Y0.9015  
G01 X-0.8349 Y0.9069  
G01 X-0.8430 Y0.9110  
G01 X-0.8517 Y0.9139  
G01 X-0.8608 Y0.9153  
G01 X-0.8699 Y0.9153  
G01 X-0.8790 Y0.9139  
G01 X-0.8877 Y0.9110  
G01 X-0.8959 Y0.9069  
G01 X-0.9033 Y0.9015  
G01 X-0.9097 Y0.8950  
G01 X-0.9151 Y0.8876  
G01 X-0.9193 Y0.8794  
G01 X-0.9221 Y0.8707  
G01 X-0.9236 Y0.8617  
G01 X-0.9236 Y0.8525  
G01 X-0.9221 Y0.8435  
G01 X-0.9193 Y0.8347  
G01 X-0.9151 Y0.8266  
G01 X-0.9097 Y0.8192  
G01 X-0.9033 Y0.8127  
G01 X-0.8959 Y0.8073  
G01 X-0.8877 Y0.8032  
G01 X-0.8790 Y0.8003  
G01 X-0.8699 Y0.7989  
G01 X-0.8608 Y0.7989  
G01 X-0.8517 Y0.8003  
G01 X-0.8430 Y0.8032  
G01 X-0.8349 Y0.8073  
G01 X-0.8274 Y0.8127  
G01 X-0.8210 Y0.8192  
G01 X-0.8156 Y0.8266  
G01 X-0.8114 Y0.8347  
G01 X-0.8086 Y0.8435  
G01 X-0.8072 Y0.8525  
G01 X-0.8072 Y0.8617  
G00 Z0.0500  
G00 X-0.8021 Y0.7326  
G01 Z-0.0035 F10    
G01 X-0.8078 Y0.7269  F20    
G01 X-0.8125 Y0.7204  
G01 X-0.8162 Y0.7133  
G01 X-0.8186 Y0.7056  
G01 X-0.8199 Y0.6977  
G01 X-0.8199 Y0.6897  
G01 X-0.8186 Y0.6818  
G01 X-0.8162 Y0.6741  
G01 X-0.8125 Y0.6670  
G01 X-0.8078 Y0.6605  
G01 X-0.8021 Y0.6548  
G01 X-0.7969 Y0.6510  
G01 X-0.7969 Y0.6427  
G01 X-0.9116 Y0.5280  
G01 X-1.6528 Y0.5280  
G01 X-1.6582 Y0.5269  
G01 X-1.6633 Y0.5248  
G01 X-1.6678 Y0.5217  
G01 X-1.7717 Y0.4178  
G01 X-1.7748 Y0.4133  
G01 X-1.7769 Y0.4082  
G01 X-1.7774 Y0.4055  
G01 X-1.7793 Y0.4037  
G01 X-1.7834 Y0.3975  
G01 X-1.7862 Y0.3907  
G01 X-1.7877 Y0.3834  
G01 X-1.7877 Y0.3166  
G01 X-1.7862 Y0.3093  
G01 X-1.7834 Y0.3025  
G01 X-1.7793 Y0.2963  
G01 X-1.7740 Y0.2910  
G01 X-1.7679 Y0.2869  
G01 X-1.7610 Y0.2841  
G01 X-1.7537 Y0.2826  
G01 X-1.7463 Y0.2826  
G01 X-1.7390 Y0.2841  
G01 X-1.7321 Y0.2869  
G01 X-1.7260 Y0.2910  
G01 X-1.7207 Y0.2963  
G01 X-1.7166 Y0.3025  
G01 X-1.7138 Y0.3093  
G01 X-1.7123 Y0.3166  
G01 X-1.7123 Y0.3834  
G01 X-1.7138 Y0.3907  
G01 X-1.7155 Y0.3949  
G01 X-1.6384 Y0.4720  
G01 X-0.8972 Y0.4720  
G01 X-0.8918 Y0.4731  
G01 X-0.8867 Y0.4752  
G01 X-0.8822 Y0.4783  
G01 X-0.8783 Y0.4822  
G01 X-0.7471 Y0.6133  
G01 X-0.7441 Y0.6178  
G01 X-0.7420 Y0.6229  
G01 X-0.7409 Y0.6283  
G01 X-0.7409 Y0.6510  
G01 X-0.7357 Y0.6548  
G01 X-0.7300 Y0.6605  
G01 X-0.7253 Y0.6670  
G01 X-0.7216 Y0.6741  
G01 X-0.7192 Y0.6818  
G01 X-0.7179 Y0.6897  
G01 X-0.7179 Y0.6977  
G01 X-0.7192 Y0.7056  
G01 X-0.7216 Y0.7133  
G01 X-0.7253 Y0.7204  
G01 X-0.7300 Y0.7269  
G01 X-0.7357 Y0.7326  
G01 X-0.7422 Y0.7373  
G01 X-0.7493 Y0.7410  
G01 X-0.7570 Y0.7434  
G01 X-0.7649 Y0.7447  
G01 X-0.7729 Y0.7447  
G01 X-0.7808 Y0.7434  
G01 X-0.7885 Y0.7410  
G01 X-0.7956 Y0.7373  
G01 X-0.8021 Y0.7326  
G00 Z0.0500  
G00 X-0.9903 Y0.8664  
G01 Z-0.0035 F10    
G01 X-0.9849 Y0.8738  F20    
G01 X-0.9807 Y0.8820  
G01 X-0.9779 Y0.8907  
G01 X-0.9764 Y0.8998  
G01 X-0.9764 Y0.9089  
G01 X-0.9779 Y0.9180  
G01 X-0.9807 Y0.9267  
G01 X-0.9849 Y0.9348  
G01 X-0.9903 Y0.9422  
G01 X-0.9967 Y0.9487  
G01 X-1.0041 Y0.9541  
G01 X-1.0123 Y0.9583  
G01 X-1.0210 Y0.9611  
G01 X-1.0301 Y0.9625  
G01 X-1.0392 Y0.9625  
G01 X-1.0483 Y0.9611  
G01 X-1.0570 Y0.9583  
G01 X-1.0651 Y0.9541  
G01 X-1.0726 Y0.9487  
G01 X-1.0790 Y0.9422  
G01 X-1.0844 Y0.9348  
G01 X-1.0886 Y0.9267  
G01 X-1.0914 Y0.9180  
G01 X-1.0928 Y0.9089  
G01 X-1.0928 Y0.8998  
G01 X-1.0914 Y0.8907  
G01 X-1.0886 Y0.8820  
G01 X-1.0844 Y0.8738  
G01 X-1.0790 Y0.8664  
G01 X-1.0726 Y0.8599  
G01 X-1.0651 Y0.8546  
G01 X-1.0570 Y0.8504  
G01 X-1.0483 Y0.8476  
G01 X-1.0392 Y0.8461  
G01 X-1.0301 Y0.8461  
G01 X-1.0210 Y0.8476  
G01 X-1.0123 Y0.8504  
G01 X-1.0041 Y0.8546  
G01 X-0.9967 Y0.8599  
G01 X-0.9903 Y0.8664  
G00 Z0.0500  
G00 X-1.3072 Y0.8617  
G01 Z-0.0035 F10    
G01 X-1.3086 Y0.8707  F20    
G01 X-1.3114 Y0.8794  
G01 X-1.3156 Y0.8876  
G01 X-1.3210 Y0.8950  
G01 X-1.3274 Y0.9015  
G01 X-1.3349 Y0.9069  
G01 X-1.3430 Y0.9110  
G01 X-1.3517 Y0.9139  
G01 X-1.3608 Y0.9153  
G01 X-1.3699 Y0.9153  
G01 X-1.3790 Y0.9139  
G01 X-1.3877 Y0.9110  
G01 X-1.3959 Y0.9069  
G01 X-1.4033 Y0.9015  
G01 X-1.4097 Y0.8950  
G01 X-1.4151 Y0.8876  
G01 X-1.4193 Y0.8794  
G01 X-1.4221 Y0.8707  
G01 X-1.4236 Y0.8617  
G01 X-1.4236 Y0.8525  
G01 X-1.4221 Y0.8435  
G01 X-1.4193 Y0.8347  
G01 X-1.4151 Y0.8266  
G01 X-1.4097 Y0.8192  
G01 X-1.4033 Y0.8127  
G01 X-1.3959 Y0.8073  
G01 X-1.3877 Y0.8032  
G01 X-1.3790 Y0.8003  
G01 X-1.3699 Y0.7989  
G01 X-1.3608 Y0.7989  
G01 X-1.3517 Y0.8003  
G01 X-1.3430 Y0.8032  
G01 X-1.3349 Y0.8073  
G01 X-1.3274 Y0.8127  
G01 X-1.3210 Y0.8192  
G01 X-1.3156 Y0.8266  
G01 X-1.3114 Y0.8347  
G01 X-1.3086 Y0.8435  
G01 X-1.3072 Y0.8525  
G01 X-1.3072 Y0.8617  
G00 Z0.0500  
G00 X-1.3021 Y0.7326  
G01 Z-0.0035 F10    
G01 X-1.3078 Y0.7269  F20    
G01 X-1.3125 Y0.7204  
G01 X-1.3162 Y0.7133  
G01 X-1.3186 Y0.7056  
G01 X-1.3199 Y0.6977  
G01 X-1.3199 Y0.6897  
G01 X-1.3186 Y0.6818  
G01 X-1.3162 Y0.6741  
G01 X-1.3159 Y0.6737  
G01 X-1.3616 Y0.6280  
G01 X-1.7028 Y0.6280  
G01 X-1.7082 Y0.6269  
G01 X-1.7133 Y0.6248  
G01 X-1.7178 Y0.6217  
G01 X-1.8678 Y0.4717  
G01 X-1.8717 Y0.4678  
G01 X-1.8748 Y0.4633  
G01 X-1.8769 Y0.4582  
G01 X-1.8780 Y0.4528  
G01 X-1.8780 Y0.4050  
G01 X-1.8793 Y0.4037  
G01 X-1.8834 Y0.3975  
G01 X-1.8862 Y0.3907  
G01 X-1.8877 Y0.3834  
G01 X-1.8877 Y0.3166  
G01 X-1.8862 Y0.3093  
G01 X-1.8834 Y0.3025  
G01 X-1.8793 Y0.2963  
G01 X-1.8740 Y0.2910  
G01 X-1.8679 Y0.2869  
G01 X-1.8610 Y0.2841  
G01 X-1.8537 Y0.2826  
G01 X-1.8463 Y0.2826  
G01 X-1.8390 Y0.2841  
G01 X-1.8321 Y0.2869  
G01 X-1.8260 Y0.2910  
G01 X-1.8207 Y0.2963  
G01 X-1.8166 Y0.3025  
G01 X-1.8138 Y0.3093  
G01 X-1.8123 Y0.3166  
G01 X-1.8123 Y0.3834  
G01 X-1.8138 Y0.3907  
G01 X-1.8166 Y0.3975  
G01 X-1.8207 Y0.4037  
G01 X-1.8220 Y0.4050  
G01 X-1.8220 Y0.4384  
G01 X-1.6884 Y0.5720  
G01 X-1.3472 Y0.5720  
G01 X-1.3418 Y0.5731  
G01 X-1.3367 Y0.5752  
G01 X-1.3322 Y0.5783  
G01 X-1.3283 Y0.5822  
G01 X-1.2677 Y0.6427  
G01 X-1.2649 Y0.6427  
G01 X-1.2570 Y0.6440  
G01 X-1.2493 Y0.6464  
G01 X-1.2422 Y0.6501  
G01 X-1.2357 Y0.6548  
G01 X-1.2300 Y0.6605  
G01 X-1.2253 Y0.6670  
G01 X-1.2216 Y0.6741  
G01 X-1.2192 Y0.6818  
G01 X-1.2179 Y0.6897  
G01 X-1.2179 Y0.6977  
G01 X-1.2192 Y0.7056  
G01 X-1.2216 Y0.7133  
G01 X-1.2253 Y0.7204  
G01 X-1.2300 Y0.7269  
G01 X-1.2357 Y0.7326  
G01 X-1.2422 Y0.7373  
G01 X-1.2493 Y0.7410  
G01 X-1.2570 Y0.7434  
G01 X-1.2649 Y0.7447  
G01 X-1.2729 Y0.7447  
G01 X-1.2808 Y0.7434  
G01 X-1.2885 Y0.7410  
G01 X-1.2956 Y0.7373  
G01 X-1.3021 Y0.7326  
G00 Z0.0500  
G00 X-1.4903 Y0.8664  
G01 Z-0.0035 F10    
G01 X-1.4849 Y0.8738  F20    
G01 X-1.4807 Y0.8820  
G01 X-1.4779 Y0.8907  
G01 X-1.4764 Y0.8998  
G01 X-1.4764 Y0.9089  
G01 X-1.4779 Y0.9180  
G01 X-1.4807 Y0.9267  
G01 X-1.4849 Y0.9348  
G01 X-1.4903 Y0.9422  
G01 X-1.4967 Y0.9487  
G01 X-1.5041 Y0.9541  
G01 X-1.5123 Y0.9583  
G01 X-1.5210 Y0.9611  
G01 X-1.5301 Y0.9625  
G01 X-1.5392 Y0.9625  
G01 X-1.5483 Y0.9611  
G01 X-1.5570 Y0.9583  
G01 X-1.5651 Y0.9541  
G01 X-1.5726 Y0.9487  
G01 X-1.5790 Y0.9422  
G01 X-1.5844 Y0.9348  
G01 X-1.5886 Y0.9267  
G01 X-1.5914 Y0.9180  
G01 X-1.5928 Y0.9089  
G01 X-1.5928 Y0.8998  
G01 X-1.5914 Y0.8907  
G01 X-1.5886 Y0.8820  
G01 X-1.5844 Y0.8738  
G01 X-1.5790 Y0.8664  
G01 X-1.5726 Y0.8599  
G01 X-1.5651 Y0.8546  
G01 X-1.5570 Y0.8504  
G01 X-1.5483 Y0.8476  
G01 X-1.5392 Y0.8461  
G01 X-1.5301 Y0.8461  
G01 X-1.5210 Y0.8476  
G01 X-1.5123 Y0.8504  
G01 X-1.5041 Y0.8546  
G01 X-1.4967 Y0.8599  
G01 X-1.4903 Y0.8664  
G00 Z0.0500  
G00 X-1.8072 Y0.8617  
G01 Z-0.0035 F10    
G01 X-1.8086 Y0.8707  F20    
G01 X-1.8114 Y0.8794  
G01 X-1.8156 Y0.8876  
G01 X-1.8210 Y0.8950  
G01 X-1.8274 Y0.9015  
G01 X-1.8349 Y0.9069  
G01 X-1.8430 Y0.9110  
G01 X-1.8517 Y0.9139  
G01 X-1.8608 Y0.9153  
G01 X-1.8699 Y0.9153  
G01 X-1.8790 Y0.9139  
G01 X-1.8877 Y0.9110  
G01 X-1.8959 Y0.9069  
G01 X-1.9033 Y0.9015  
G01 X-1.9097 Y0.8950  
G01 X-1.9151 Y0.8876  
G01 X-1.9193 Y0.8794  
G01 X-1.9221 Y0.8707  
G01 X-1.9236 Y0.8617  
G01 X-1.9236 Y0.8525  
G01 X-1.9221 Y0.8435  
G01 X-1.9193 Y0.8347  
G01 X-1.9151 Y0.8266  
G01 X-1.9097 Y0.8192  
G01 X-1.9033 Y0.8127  
G01 X-1.8959 Y0.8073  
G01 X-1.8877 Y0.8032  
G01 X-1.8790 Y0.8003  
G01 X-1.8699 Y0.7989  
G01 X-1.8608 Y0.7989  
G01 X-1.8517 Y0.8003  
G01 X-1.8430 Y0.8032  
G01 X-1.8349 Y0.8073  
G01 X-1.8274 Y0.8127  
G01 X-1.8210 Y0.8192  
G01 X-1.8156 Y0.8266  
G01 X-1.8114 Y0.8347  
G01 X-1.8086 Y0.8435  
G01 X-1.8072 Y0.8525  
G01 X-1.8072 Y0.8617  
G00 Z0.0500  
G00 X-1.8021 Y0.7326  
G01 Z-0.0035 F10    
G01 X-1.8078 Y0.7269  F20    
G01 X-1.8120 Y0.7211  
G01 X-1.8145 Y0.7206  
G01 X-1.8196 Y0.7185  
G01 X-1.8241 Y0.7154  
G01 X-1.9678 Y0.5717  
G01 X-1.9717 Y0.5678  
G01 X-1.9748 Y0.5633  
G01 X-1.9769 Y0.5582  
G01 X-1.9780 Y0.5528  
G01 X-1.9780 Y0.4050  
G01 X-1.9793 Y0.4037  
G01 X-1.9834 Y0.3975  
G01 X-1.9862 Y0.3907  
G01 X-1.9877 Y0.3834  
G01 X-1.9877 Y0.3166  
G01 X-1.9862 Y0.3093  
G01 X-1.9834 Y0.3025  
G01 X-1.9793 Y0.2963  
G01 X-1.9740 Y0.2910  
G01 X-1.9679 Y0.2869  
G01 X-1.9610 Y0.2841  
G01 X-1.9537 Y0.2826  
G01 X-1.9463 Y0.2826  
G01 X-1.9390 Y0.2841  
G01 X-1.9321 Y0.2869  
G01 X-1.9260 Y0.2910  
G01 X-1.9207 Y0.2963  
G01 X-1.9166 Y0.3025  
G01 X-1.9138 Y0.3093  
G01 X-1.9123 Y0.3166  
G01 X-1.9123 Y0.3834  
G01 X-1.9138 Y0.3907  
G01 X-1.9166 Y0.3975  
G01 X-1.9207 Y0.4037  
G01 X-1.9220 Y0.4050  
G01 X-1.9220 Y0.5384  
G01 X-1.8039 Y0.6565  
G01 X-1.8021 Y0.6548  
G01 X-1.7956 Y0.6501  
G01 X-1.7885 Y0.6464  
G01 X-1.7808 Y0.6440  
G01 X-1.7729 Y0.6427  
G01 X-1.7649 Y0.6427  
G01 X-1.7570 Y0.6440  
G01 X-1.7493 Y0.6464  
G01 X-1.7422 Y0.6501  
G01 X-1.7357 Y0.6548  
G01 X-1.7300 Y0.6605  
G01 X-1.7253 Y0.6670  
G01 X-1.7216 Y0.6741  
G01 X-1.7192 Y0.6818  
G01 X-1.7179 Y0.6897  
G01 X-1.7179 Y0.6977  
G01 X-1.7192 Y0.7056  
G01 X-1.7216 Y0.7133  
G01 X-1.7253 Y0.7204  
G01 X-1.7300 Y0.7269  
G01 X-1.7357 Y0.7326  
G01 X-1.7422 Y0.7373  
G01 X-1.7493 Y0.7410  
G01 X-1.7570 Y0.7434  
G01 X-1.7649 Y0.7447  
G01 X-1.7729 Y0.7447  
G01 X-1.7808 Y0.7434  
G01 X-1.7885 Y0.7410  
G01 X-1.7956 Y0.7373  
G01 X-1.8021 Y0.7326  
G00 Z0.0500  
G00 X-1.9903 Y0.8664  
G01 Z-0.0035 F10    
G01 X-1.9849 Y0.8738  F20    
G01 X-1.9807 Y0.8820  
G01 X-1.9779 Y0.8907  
G01 X-1.9764 Y0.8998  
G01 X-1.9764 Y0.9089  
G01 X-1.9779 Y0.9180  
G01 X-1.9807 Y0.9267  
G01 X-1.9849 Y0.9348  
G01 X-1.9903 Y0.9422  
G01 X-1.9967 Y0.9487  
G01 X-2.0041 Y0.9541  
G01 X-2.0123 Y0.9583  
G01 X-2.0210 Y0.9611  
G01 X-2.0301 Y0.9625  
G01 X-2.0392 Y0.9625  
G01 X-2.0483 Y0.9611  
G01 X-2.0570 Y0.9583  
G01 X-2.0651 Y0.9541  
G01 X-2.0726 Y0.9487  
G01 X-2.0790 Y0.9422  
G01 X-2.0844 Y0.9348  
G01 X-2.0886 Y0.9267  
G01 X-2.0914 Y0.9180  
G01 X-2.0928 Y0.9089  
G01 X-2.0928 Y0.8998  
G01 X-2.0914 Y0.8907  
G01 X-2.0886 Y0.8820  
G01 X-2.0844 Y0.8738  
G01 X-2.0790 Y0.8664  
G01 X-2.0726 Y0.8599  
G01 X-2.0651 Y0.8546  
G01 X-2.0570 Y0.8504  
G01 X-2.0483 Y0.8476  
G01 X-2.0392 Y0.8461  
G01 X-2.0301 Y0.8461  
G01 X-2.0210 Y0.8476  
G01 X-2.0123 Y0.8504  
G01 X-2.0041 Y0.8546  
G01 X-1.9967 Y0.8599  
G01 X-1.9903 Y0.8664  
G00 Z0.0500  
G00 X-2.3072 Y0.8617  
G01 Z-0.0035 F10    
G01 X-2.3086 Y0.8707  F20    
G01 X-2.3114 Y0.8794  
G01 X-2.3156 Y0.8876  
G01 X-2.3210 Y0.8950  
G01 X-2.3274 Y0.9015  
G01 X-2.3349 Y0.9069  
G01 X-2.3430 Y0.9110  
G01 X-2.3517 Y0.9139  
G01 X-2.3608 Y0.9153  
G01 X-2.3699 Y0.9153  
G01 X-2.3790 Y0.9139  
G01 X-2.3877 Y0.9110  
G01 X-2.3959 Y0.9069  
G01 X-2.4033 Y0.9015  
G01 X-2.4097 Y0.8950  
G01 X-2.4151 Y0.8876  
G01 X-2.4193 Y0.8794  
G01 X-2.4221 Y0.8707  
G01 X-2.4236 Y0.8617  
G01 X-2.4236 Y0.8525  
G01 X-2.4221 Y0.8435  
G01 X-2.4193 Y0.8347  
G01 X-2.4151 Y0.8266  
G01 X-2.4097 Y0.8192  
G01 X-2.4033 Y0.8127  
G01 X-2.3959 Y0.8073  
G01 X-2.3877 Y0.8032  
G01 X-2.3790 Y0.8003  
G01 X-2.3699 Y0.7989  
G01 X-2.3608 Y0.7989  
G01 X-2.3517 Y0.8003  
G01 X-2.3430 Y0.8032  
G01 X-2.3349 Y0.8073  
G01 X-2.3274 Y0.8127  
G01 X-2.3210 Y0.8192  
G01 X-2.3156 Y0.8266  
G01 X-2.3114 Y0.8347  
G01 X-2.3086 Y0.8435  
G01 X-2.3072 Y0.8525  
G01 X-2.3072 Y0.8617  
G00 Z0.0500  
G00 X-2.3021 Y0.7326  
G01 Z-0.0035 F10    
G01 X-2.3078 Y0.7269  F20    
G01 X-2.3125 Y0.7204  
G01 X-2.3162 Y0.7133  
G01 X-2.3186 Y0.7056  
G01 X-2.3199 Y0.6977  
G01 X-2.3199 Y0.6897  
G01 X-2.3186 Y0.6818  
G01 X-2.3162 Y0.6741  
G01 X-2.3125 Y0.6670  
G01 X-2.3078 Y0.6605  
G01 X-2.3021 Y0.6548  
G01 X-2.2956 Y0.6501  
G01 X-2.2885 Y0.6464  
G01 X-2.2808 Y0.6440  
G01 X-2.2729 Y0.6427  
G01 X-2.2649 Y0.6427  
G01 X-2.2583 Y0.6437  
G01 X-2.0780 Y0.4634  
G01 X-2.0780 Y0.4050  
G01 X-2.0793 Y0.4037  
G01 X-2.0834 Y0.3975  
G01 X-2.0862 Y0.3907  
G01 X-2.0877 Y0.3834  
G01 X-2.0877 Y0.3166  
G01 X-2.0862 Y0.3093  
G01 X-2.0834 Y0.3025  
G01 X-2.0793 Y0.2963  
G01 X-2.0740 Y0.2910  
G01 X-2.0679 Y0.2869  
G01 X-2.0610 Y0.2841  
G01 X-2.0537 Y0.2826  
G01 X-2.0463 Y0.2826  
G01 X-2.0390 Y0.2841  
G01 X-2.0321 Y0.2869  
G01 X-2.0260 Y0.2910  
G01 X-2.0207 Y0.2963  
G01 X-2.0166 Y0.3025  
G01 X-2.0138 Y0.3093  
G01 X-2.0123 Y0.3166  
G01 X-2.0123 Y0.3834  
G01 X-2.0138 Y0.3907  
G01 X-2.0166 Y0.3975  
G01 X-2.0207 Y0.4037  
G01 X-2.0220 Y0.4050  
G01 X-2.0220 Y0.4778  
G01 X-2.0231 Y0.4832  
G01 X-2.0252 Y0.4883  
G01 X-2.0283 Y0.4928  
G01 X-2.0322 Y0.4967  
G01 X-2.2189 Y0.6835  
G01 X-2.2179 Y0.6897  
G01 X-2.2179 Y0.6977  
G01 X-2.2192 Y0.7056  
G01 X-2.2216 Y0.7133  
G01 X-2.2253 Y0.7204  
G01 X-2.2300 Y0.7269  
G01 X-2.2357 Y0.7326  
G01 X-2.2422 Y0.7373  
G01 X-2.2493 Y0.7410  
G01 X-2.2570 Y0.7434  
G01 X-2.2649 Y0.7447  
G01 X-2.2729 Y0.7447  
G01 X-2.2808 Y0.7434  
G01 X-2.2885 Y0.7410  
G01 X-2.2956 Y0.7373  
G01 X-2.3021 Y0.7326  
G00 Z0.0500  
G00 X-2.2472 Y0.5780  
G01 Z-0.0035 F10    
G01 X-2.6136 Y0.5780  F20    
G01 X-2.7189 Y0.6833  
G01 X-2.7179 Y0.6897  
G01 X-2.7179 Y0.6977  
G01 X-2.7192 Y0.7056  
G01 X-2.7216 Y0.7133  
G01 X-2.7253 Y0.7204  
G01 X-2.7300 Y0.7269  
G01 X-2.7357 Y0.7326  
G01 X-2.7422 Y0.7373  
G01 X-2.7493 Y0.7410  
G01 X-2.7570 Y0.7434  
G01 X-2.7649 Y0.7447  
G01 X-2.7729 Y0.7447  
G01 X-2.7808 Y0.7434  
G01 X-2.7885 Y0.7410  
G01 X-2.7956 Y0.7373  
G01 X-2.8021 Y0.7326  
G01 X-2.8078 Y0.7269  
G01 X-2.8125 Y0.7204  
G01 X-2.8162 Y0.7133  
G01 X-2.8186 Y0.7056  
G01 X-2.8199 Y0.6977  
G01 X-2.8199 Y0.6897  
G01 X-2.8186 Y0.6818  
G01 X-2.8162 Y0.6741  
G01 X-2.8125 Y0.6670  
G01 X-2.8078 Y0.6605  
G01 X-2.8021 Y0.6548  
G01 X-2.7956 Y0.6501  
G01 X-2.7885 Y0.6464  
G01 X-2.7808 Y0.6440  
G01 X-2.7729 Y0.6427  
G01 X-2.7649 Y0.6427  
G01 X-2.7585 Y0.6437  
G01 X-2.6430 Y0.5283  
G01 X-2.6385 Y0.5252  
G01 X-2.6334 Y0.5231  
G01 X-2.6280 Y0.5220  
G01 X-2.2616 Y0.5220  
G01 X-2.1780 Y0.4384  
G01 X-2.1780 Y0.4050  
G01 X-2.1793 Y0.4037  
G01 X-2.1834 Y0.3975  
G01 X-2.1862 Y0.3907  
G01 X-2.1877 Y0.3834  
G01 X-2.1877 Y0.3166  
G01 X-2.1862 Y0.3093  
G01 X-2.1834 Y0.3025  
G01 X-2.1793 Y0.2963  
G01 X-2.1740 Y0.2910  
G01 X-2.1679 Y0.2869  
G01 X-2.1610 Y0.2841  
G01 X-2.1537 Y0.2826  
G01 X-2.1463 Y0.2826  
G01 X-2.1390 Y0.2841  
G01 X-2.1321 Y0.2869  
G01 X-2.1260 Y0.2910  
