(.../pcb-gcode-3.6.2.4/pcb-gcode.ulp)
(Copyright 2005 - 2012 by John Johnson)
(See readme.txt for licensing terms.)
(This file generated from the board:)
(.../eagle/eight_slider_breakout.brd)
(Current profile is .../pcb-gcode-3.6.2.4/profiles/mach.pp  )
(This file generated 2/25/17 4:21 PM)
(Settings from pcb-machine.h)
(spindle on time = 0.0000)
(spindle speed = 20000.0000)
(tool change at 0.0000  0.0000  1.5000  )
(feed rate xy = F0     )
(feed rate z  = F20    )
(Z Axis Settings)
(  High     Up        Down     Drill)
(0.2500  	0.0500  	-0.0035 	-0.0710 )
(Settings from pcb-defaults.h)
(isolate min = 0.0040)
(isolate max = 0.0200)
(isolate step = 0.0025)
(Generated bottom outlines, bottom drill, )
(Unit of measure: inch)
( Tool|       Size       |  Min Sub |  Max Sub |   Count )
( T01 | 1.000mm 0.0394in | 0.0000in | 0.0000in |       0 )
( T02 | 1.200mm 0.0472in | 0.0000in | 0.0000in |       0 )
( T03 | 1.700mm 0.0669in | 0.0000in | 0.0000in |       0 )
(Inch Mode)
G20
(Absolute Coordinates)
G90
S20000
G00 Z0.2500  
G00 X0.0000  Y0.0000  
M03
G04 P0.000000
M05
G00 Z1.5000  
M06 T01  ; 0.0394  
G01 Z0.0000  F20    
M06 
G00 Z0.0500  
M03
G04 P0.000000
G82 X-0.1291 Y0.3500  Z-0.0710 F20    R0.0500  P0.250000
G82 X-0.2669 Y0.3500  
G82 X-1.6500 Y0.3500  
G82 X-1.7500 Y0.3500  
G82 X-1.8500 Y0.3500  
G82 X-1.9500 Y0.3500  
G82 X-2.0500 Y0.3500  
G82 X-2.1500 Y0.3500  
G82 X-2.2500 Y0.3500  
G82 X-2.3500 Y0.3500  
M05
G00 Z1.5000  
G00 X0.0000  Y0.0000  
M06 T02  ; 0.0472  
G01 Z0.0000  F20    
M06 
G00 Z0.0500  
M03
G04 P0.000000
G82 X-0.1311 Y0.6937  Z-0.0710 F20    R0.0500  P0.250000
G82 X-0.2689 Y0.6937  
G82 X-0.6311 Y0.6937  
G82 X-0.7689 Y0.6937  
G82 X-1.1311 Y0.6937  
G82 X-1.2689 Y0.6937  
G82 X-1.6311 Y0.6937  
G82 X-1.7689 Y0.6937  
G82 X-2.1311 Y0.6937  
G82 X-2.2689 Y0.6937  
G82 X-2.6311 Y0.6937  
G82 X-2.7689 Y0.6937  
G82 X-3.1311 Y0.6937  
G82 X-3.2689 Y0.6937  
G82 X-3.6311 Y0.6937  
G82 X-3.7689 Y0.6937  
G82 X-3.6311 Y3.0063  
G82 X-3.1311 Y3.0063  
G82 X-2.6311 Y3.0063  
G82 X-2.1311 Y3.0063  
G82 X-1.6311 Y3.0063  
G82 X-1.1311 Y3.0063  
G82 X-0.6311 Y3.0063  
G82 X-0.1311 Y3.0063  
M05
G00 Z1.5000  
G00 X0.0000  Y0.0000  
M06 T03  ; 0.0669  
G01 Z0.0000  F20    
M06 
G00 Z0.0500  
M03
G04 P0.000000
G82 X-0.0346 Y0.9043  Z-0.0710 F20    R0.0500  P0.250000
G82 X-0.3654 Y0.8571  
G82 X-0.5346 Y0.9043  
G82 X-0.8654 Y0.8571  
G82 X-1.0346 Y0.9043  
G82 X-1.3654 Y0.8571  
G82 X-1.5346 Y0.9043  
G82 X-1.8654 Y0.8571  
G82 X-2.0346 Y0.9043  
G82 X-2.3654 Y0.8571  
G82 X-2.5346 Y0.9043  
G82 X-2.8654 Y0.8571  
G82 X-3.0346 Y0.9043  
G82 X-3.3654 Y0.8571  
G82 X-3.5346 Y0.9043  
G82 X-3.8654 Y0.8571  
G82 X-3.5346 Y2.7957  
G82 X-3.3654 Y2.8429  
G82 X-3.0346 Y2.7957  
G82 X-2.8654 Y2.8429  
G82 X-2.5346 Y2.7957  
G82 X-2.3654 Y2.8429  
G82 X-2.0346 Y2.7957  
G82 X-1.8654 Y2.8429  
G82 X-1.5346 Y2.7957  
G82 X-1.3654 Y2.8429  
G82 X-1.0346 Y2.7957  
G82 X-0.8654 Y2.8429  
G82 X-0.5346 Y2.7957  
G82 X-0.3654 Y2.8429  
G82 X-0.0346 Y2.7957  
G82 X-3.8654 Y2.8429  
T01 
G00 Z0.2500  
M05
M02
