(.../pcb-gcode-3.6.2.4/pcb-gcode.ulp)
(Copyright 2005 - 2012 by John Johnson)
(See readme.txt for licensing terms.)
(This file generated from the board:)
(.../atmega_midi_pg800/eagle/mixer_lfo_pots.brd)
(Current profile is .../pcb-gcode-3.6.2.4/profiles/mach.pp  )
(This file generated 3/4/17 1:35 PM)
(Settings from pcb-machine.h)
(spindle on time = 0.0000)
(  Tool Size)
(0.0030  )
(spindle speed = 30000.0000)
(tool change at 0.0000  0.0000  1.5000  )
(feed rate xy = F20    )
(feed rate z  = F10    )
(Z Axis Settings)
(  High     Up        Down     Drill)
(0.2500  	0.0500  	-0.0030 	-0.0710 )
(Settings from pcb-defaults.h)
(isolate min = 0.0030)
(isolate max = 0.0200)
(isolate step = 0.0025)
(Generated bottom outlines, bottom drill, )
(Unit of measure: inch)
(Inch Mode)
G20
(Absolute Coordinates)
G90
S30000
G00 Z0.2500  
G00 X0.0000  Y0.0000  
M03
G04 P0.000000
G00 Z0.0500  
G00 X-0.3830 Y0.0572  
G01 Z-0.0030 F10    
G01 X-0.3820 Y0.0583  F20    
G01 X-0.3810 Y0.0594  
G01 X-0.3804 Y0.0602  
G01 X-0.2320 Y0.2333  
G01 X-0.2310 Y0.2344  
G01 X-0.2304 Y0.2352  
G01 X-0.2298 Y0.2359  
G01 X-0.2291 Y0.2372  
G01 X-0.2283 Y0.2384  
G01 X-0.2279 Y0.2393  
G01 X-0.2275 Y0.2401  
G01 X-0.2270 Y0.2415  
G01 X-0.2264 Y0.2429  
G01 X-0.2263 Y0.2438  
G01 X-0.2260 Y0.2447  
G01 X-0.2258 Y0.2461  
G01 X-0.2255 Y0.2476  
G01 X-0.2255 Y0.2485  
G01 X-0.2254 Y0.2495  
G01 X-0.2255 Y0.2509  
G01 X-0.2255 Y0.4465  
G01 X-0.2200 Y0.4474  
G01 X-0.2129 Y0.4497  
G01 X-0.2062 Y0.4531  
G01 X-0.2002 Y0.4575  
G01 X-0.1949 Y0.4628  
G01 X-0.1905 Y0.4688  
G01 X-0.1871 Y0.4755  
G01 X-0.1848 Y0.4826  
G01 X-0.1836 Y0.4900  
G01 X-0.1836 Y0.4974  
G01 X-0.1848 Y0.5048  
G01 X-0.1871 Y0.5119  
G01 X-0.1905 Y0.5186  
G01 X-0.1949 Y0.5246  
G01 X-0.2002 Y0.5299  
G01 X-0.2062 Y0.5343  
G01 X-0.2066 Y0.5345  
G01 X-0.2066 Y0.6335  
G01 X-0.2075 Y0.6382  
G01 X-0.2094 Y0.6427  
G01 X-0.2121 Y0.6467  
G01 X-0.4310 Y0.8656  
G01 X-0.4344 Y0.8690  
G01 X-0.4384 Y0.8717  
G01 X-0.4429 Y0.8736  
G01 X-0.4476 Y0.8745  
G01 X-1.0255 Y0.8745  
G01 X-1.0255 Y2.3524  
G01 X-1.0264 Y2.3571  
G01 X-1.0283 Y2.3616  
G01 X-1.0310 Y2.3656  
G01 X-1.0344 Y2.3690  
G01 X-1.2255 Y2.5601  
G01 X-1.2255 Y2.6658  
G01 X-1.2169 Y2.6658  
G01 X-1.2103 Y2.6671  
G01 X-1.2041 Y2.6697  
G01 X-1.1985 Y2.6734  
G01 X-1.1938 Y2.6782  
G01 X-1.1900 Y2.6838  
G01 X-1.1874 Y2.6900  
G01 X-1.1861 Y2.6966  
G01 X-1.1861 Y2.7034  
G01 X-1.1874 Y2.7100  
G01 X-1.1900 Y2.7162  
G01 X-1.1938 Y2.7218  
G01 X-1.1985 Y2.7266  
G01 X-1.2041 Y2.7303  
G01 X-1.2103 Y2.7329  
G01 X-1.2169 Y2.7342  
G01 X-1.2831 Y2.7342  
G01 X-1.2897 Y2.7329  
G01 X-1.2959 Y2.7303  
G01 X-1.3015 Y2.7266  
G01 X-1.3035 Y2.7245  
G01 X-1.4965 Y2.7245  
G01 X-1.4985 Y2.7266  
G01 X-1.5041 Y2.7303  
G01 X-1.5103 Y2.7329  
G01 X-1.5169 Y2.7342  
G01 X-1.5831 Y2.7342  
G01 X-1.5897 Y2.7329  
G01 X-1.5959 Y2.7303  
G01 X-1.6015 Y2.7266  
G01 X-1.6062 Y2.7218  
G01 X-1.6100 Y2.7162  
G01 X-1.6126 Y2.7100  
G01 X-1.6139 Y2.7034  
G01 X-1.6139 Y2.6966  
G01 X-1.6126 Y2.6900  
G01 X-1.6100 Y2.6838  
G01 X-1.6062 Y2.6782  
G01 X-1.6015 Y2.6734  
G01 X-1.5959 Y2.6697  
G01 X-1.5897 Y2.6671  
G01 X-1.5831 Y2.6658  
G01 X-1.5169 Y2.6658  
G01 X-1.5103 Y2.6671  
G01 X-1.5041 Y2.6697  
G01 X-1.4985 Y2.6734  
G01 X-1.4965 Y2.6755  
G01 X-1.3035 Y2.6755  
G01 X-1.3015 Y2.6734  
G01 X-1.2959 Y2.6697  
G01 X-1.2897 Y2.6671  
G01 X-1.2831 Y2.6658  
G01 X-1.2745 Y2.6658  
G01 X-1.2745 Y2.5476  
G01 X-1.2736 Y2.5429  
G01 X-1.2717 Y2.5384  
G01 X-1.2690 Y2.5344  
G01 X-1.0745 Y2.3399  
G01 X-1.0745 Y1.9292  
G01 X-1.2752 Y1.9292  
G01 X-1.2867 Y1.9407  
G01 X-1.3165 Y1.9407  
G01 X-1.3376 Y1.9196  
G01 X-1.3376 Y1.8898  
G01 X-1.3165 Y1.8687  
G01 X-1.2867 Y1.8687  
G01 X-1.2752 Y1.8802  
G01 X-1.0745 Y1.8802  
G01 X-1.0745 Y1.2792  
G01 X-1.2752 Y1.2792  
G01 X-1.2867 Y1.2907  
G01 X-1.3165 Y1.2907  
G01 X-1.3376 Y1.2696  
G01 X-1.3376 Y1.2398  
G01 X-1.3165 Y1.2187  
G01 X-1.2867 Y1.2187  
G01 X-1.2752 Y1.2302  
G01 X-1.0745 Y1.2302  
G01 X-1.0745 Y0.7601  
G01 X-1.2101 Y0.6245  
G01 X-1.2704 Y0.6245  
G01 X-1.2867 Y0.6407  
G01 X-1.3165 Y0.6407  
G01 X-1.3376 Y0.6196  
G01 X-1.3376 Y0.5898  
G01 X-1.3165 Y0.5687  
G01 X-1.2867 Y0.5687  
G01 X-1.2799 Y0.5755  
G01 X-1.1976 Y0.5755  
G01 X-1.1929 Y0.5764  
G01 X-1.1884 Y0.5783  
G01 X-1.1844 Y0.5810  
G01 X-1.1810 Y0.5844  
G01 X-1.0310 Y0.7344  
G01 X-1.0283 Y0.7384  
G01 X-1.0264 Y0.7429  
G01 X-1.0255 Y0.7476  
G01 X-1.0255 Y0.8255  
G01 X-0.8245 Y0.8255  
G01 X-0.8245 Y0.6476  
G01 X-0.8236 Y0.6429  
G01 X-0.8217 Y0.6384  
G01 X-0.8190 Y0.6344  
G01 X-0.8156 Y0.6310  
G01 X-0.7556 Y0.5710  
G01 X-0.7556 Y0.5345  
G01 X-0.7560 Y0.5343  
G01 X-0.7620 Y0.5299  
G01 X-0.7673 Y0.5246  
G01 X-0.7717 Y0.5186  
G01 X-0.7751 Y0.5119  
G01 X-0.7774 Y0.5048  
G01 X-0.7786 Y0.4974  
G01 X-0.7786 Y0.4900  
G01 X-0.7774 Y0.4826  
G01 X-0.7751 Y0.4755  
G01 X-0.7717 Y0.4688  
G01 X-0.7673 Y0.4628  
G01 X-0.7620 Y0.4575  
G01 X-0.7560 Y0.4531  
G01 X-0.7493 Y0.4497  
G01 X-0.7422 Y0.4474  
G01 X-0.7348 Y0.4462  
G01 X-0.7274 Y0.4462  
G01 X-0.7200 Y0.4474  
G01 X-0.7129 Y0.4497  
G01 X-0.7062 Y0.4531  
G01 X-0.7002 Y0.4575  
G01 X-0.6949 Y0.4628  
G01 X-0.6905 Y0.4688  
G01 X-0.6871 Y0.4755  
G01 X-0.6848 Y0.4826  
G01 X-0.6836 Y0.4900  
G01 X-0.6836 Y0.4974  
G01 X-0.6848 Y0.5048  
G01 X-0.6871 Y0.5119  
G01 X-0.6905 Y0.5186  
G01 X-0.6949 Y0.5246  
G01 X-0.7002 Y0.5299  
G01 X-0.7062 Y0.5343  
G01 X-0.7066 Y0.5345  
G01 X-0.7066 Y0.5835  
G01 X-0.7075 Y0.5882  
G01 X-0.7094 Y0.5927  
G01 X-0.7121 Y0.5967  
G01 X-0.7755 Y0.6601  
G01 X-0.7755 Y0.8255  
G01 X-0.4601 Y0.8255  
G01 X-0.2556 Y0.6210  
G01 X-0.2556 Y0.5345  
G01 X-0.2560 Y0.5343  
G01 X-0.2620 Y0.5299  
G01 X-0.2673 Y0.5246  
G01 X-0.2717 Y0.5186  
G01 X-0.2751 Y0.5119  
G01 X-0.2774 Y0.5048  
G01 X-0.2786 Y0.4974  
G01 X-0.2786 Y0.4900  
G01 X-0.2774 Y0.4826  
G01 X-0.2751 Y0.4755  
G01 X-0.2745 Y0.4742  
G01 X-0.2745 Y0.2591  
G01 X-0.4113 Y0.0995  
G01 X-2.8394 Y0.0995  
G01 X-3.1755 Y0.4597  
G01 X-3.1755 Y0.5099  
G01 X-3.0442 Y0.5755  
G01 X-3.0101 Y0.5755  
G01 X-2.9633 Y0.5287  
G01 X-2.9673 Y0.5246  
G01 X-2.9717 Y0.5186  
G01 X-2.9751 Y0.5119  
G01 X-2.9774 Y0.5048  
G01 X-2.9786 Y0.4974  
G01 X-2.9786 Y0.4900  
G01 X-2.9774 Y0.4826  
G01 X-2.9751 Y0.4755  
G01 X-2.9717 Y0.4688  
G01 X-2.9673 Y0.4628  
G01 X-2.9620 Y0.4575  
G01 X-2.9560 Y0.4531  
G01 X-2.9493 Y0.4497  
G01 X-2.9422 Y0.4474  
G01 X-2.9348 Y0.4462  
G01 X-2.9274 Y0.4462  
G01 X-2.9200 Y0.4474  
G01 X-2.9129 Y0.4497  
G01 X-2.9062 Y0.4531  
G01 X-2.9002 Y0.4575  
G01 X-2.8949 Y0.4628  
G01 X-2.8905 Y0.4688  
G01 X-2.8871 Y0.4755  
G01 X-2.8848 Y0.4826  
G01 X-2.8836 Y0.4900  
G01 X-2.8836 Y0.4974  
G01 X-2.8848 Y0.5048  
G01 X-2.8871 Y0.5119  
G01 X-2.8905 Y0.5186  
G01 X-2.8949 Y0.5246  
G01 X-2.9002 Y0.5299  
G01 X-2.9062 Y0.5343  
G01 X-2.9068 Y0.5346  
G01 X-2.9075 Y0.5382  
G01 X-2.9094 Y0.5427  
G01 X-2.9121 Y0.5467  
G01 X-2.9755 Y0.6101  
G01 X-2.9755 Y0.7399  
G01 X-2.8899 Y0.8255  
G01 X-2.5245 Y0.8255  
G01 X-2.5245 Y0.6476  
G01 X-2.5236 Y0.6429  
G01 X-2.5217 Y0.6384  
G01 X-2.5190 Y0.6344  
G01 X-2.5156 Y0.6310  
G01 X-2.4556 Y0.5710  
G01 X-2.4556 Y0.5345  
G01 X-2.4560 Y0.5343  
G01 X-2.4620 Y0.5299  
G01 X-2.4673 Y0.5246  
G01 X-2.4717 Y0.5186  
G01 X-2.4751 Y0.5119  
G01 X-2.4774 Y0.5048  
G01 X-2.4786 Y0.4974  
G01 X-2.4786 Y0.4900  
G01 X-2.4774 Y0.4826  
G01 X-2.4751 Y0.4755  
G01 X-2.4717 Y0.4688  
G01 X-2.4673 Y0.4628  
G01 X-2.4620 Y0.4575  
G01 X-2.4560 Y0.4531  
G01 X-2.4493 Y0.4497  
G01 X-2.4422 Y0.4474  
G01 X-2.4348 Y0.4462  
G01 X-2.4274 Y0.4462  
G01 X-2.4200 Y0.4474  
G01 X-2.4129 Y0.4497  
G01 X-2.4062 Y0.4531  
G01 X-2.4002 Y0.4575  
G01 X-2.3949 Y0.4628  
G01 X-2.3905 Y0.4688  
G01 X-2.3871 Y0.4755  
G01 X-2.3848 Y0.4826  
G01 X-2.3836 Y0.4900  
G01 X-2.3836 Y0.4974  
G01 X-2.3848 Y0.5048  
G01 X-2.3871 Y0.5119  
G01 X-2.3905 Y0.5186  
G01 X-2.3949 Y0.5246  
G01 X-2.4002 Y0.5299  
G01 X-2.4062 Y0.5343  
G01 X-2.4066 Y0.5345  
G01 X-2.4066 Y0.5835  
G01 X-2.4075 Y0.5882  
G01 X-2.4094 Y0.5927  
G01 X-2.4121 Y0.5967  
G01 X-2.4755 Y0.6601  
G01 X-2.4755 Y0.8255  
G01 X-2.1601 Y0.8255  
G01 X-1.9556 Y0.6210  
G01 X-1.9556 Y0.5345  
G01 X-1.9560 Y0.5343  
G01 X-1.9620 Y0.5299  
G01 X-1.9673 Y0.5246  
G01 X-1.9717 Y0.5186  
G01 X-1.9751 Y0.5119  
G01 X-1.9774 Y0.5048  
G01 X-1.9786 Y0.4974  
G01 X-1.9786 Y0.4900  
G01 X-1.9774 Y0.4826  
G01 X-1.9751 Y0.4755  
G01 X-1.9717 Y0.4688  
G01 X-1.9673 Y0.4628  
G01 X-1.9620 Y0.4575  
G01 X-1.9560 Y0.4531  
G01 X-1.9493 Y0.4497  
G01 X-1.9422 Y0.4474  
G01 X-1.9348 Y0.4462  
G01 X-1.9274 Y0.4462  
G01 X-1.9200 Y0.4474  
G01 X-1.9129 Y0.4497  
G01 X-1.9062 Y0.4531  
G01 X-1.9002 Y0.4575  
G01 X-1.8949 Y0.4628  
G01 X-1.8905 Y0.4688  
G01 X-1.8871 Y0.4755  
G01 X-1.8848 Y0.4826  
G01 X-1.8836 Y0.4900  
G01 X-1.8836 Y0.4974  
G01 X-1.8848 Y0.5048  
G01 X-1.8871 Y0.5119  
G01 X-1.8905 Y0.5186  
G01 X-1.8949 Y0.5246  
G01 X-1.9002 Y0.5299  
G01 X-1.9062 Y0.5343  
G01 X-1.9066 Y0.5345  
G01 X-1.9066 Y0.6335  
G01 X-1.9075 Y0.6382  
G01 X-1.9094 Y0.6427  
G01 X-1.9121 Y0.6467  
G01 X-2.1310 Y0.8656  
G01 X-2.1344 Y0.8690  
G01 X-2.1384 Y0.8717  
G01 X-2.1429 Y0.8736  
G01 X-2.1476 Y0.8745  
G01 X-2.9024 Y0.8745  
G01 X-2.9071 Y0.8736  
G01 X-2.9116 Y0.8717  
G01 X-2.9156 Y0.8690  
G01 X-3.0156 Y0.7690  
G01 X-3.0190 Y0.7656  
G01 X-3.0217 Y0.7616  
G01 X-3.0236 Y0.7571  
G01 X-3.0245 Y0.7524  
G01 X-3.0245 Y0.6245  
G01 X-3.0485 Y0.6245  
G01 X-3.0493 Y0.6246  
G01 X-3.0509 Y0.6245  
G01 X-3.0524 Y0.6245  
G01 X-3.0533 Y0.6243  
G01 X-3.0541 Y0.6243  
G01 X-3.0556 Y0.6239  
G01 X-3.0571 Y0.6236  
G01 X-3.0580 Y0.6232  
G01 X-3.0588 Y0.6230  
G01 X-3.0602 Y0.6223  
G01 X-3.0616 Y0.6217  
G01 X-3.0623 Y0.6212  
G01 X-3.2102 Y0.5473  
G01 X-3.2116 Y0.5467  
G01 X-3.2123 Y0.5462  
G01 X-3.2131 Y0.5458  
G01 X-3.2143 Y0.5449  
G01 X-3.2156 Y0.5440  
G01 X-3.2162 Y0.5434  
G01 X-3.2169 Y0.5429  
G01 X-3.2179 Y0.5417  
G01 X-3.2190 Y0.5406  
G01 X-3.2195 Y0.5399  
G01 X-3.2201 Y0.5392  
G01 X-3.2209 Y0.5379  
G01 X-3.2217 Y0.5366  
G01 X-3.2220 Y0.5358  
G01 X-3.2225 Y0.5350  
G01 X-3.2230 Y0.5336  
G01 X-3.2236 Y0.5321  
G01 X-3.2237 Y0.5313  
G01 X-3.2240 Y0.5305  
G01 X-3.2242 Y0.5289  
G01 X-3.2245 Y0.5274  
G01 X-3.2245 Y0.5265  
G01 X-3.2246 Y0.5257  
G01 X-3.2245 Y0.5241  
G01 X-3.2245 Y0.4504  
G01 X-3.2246 Y0.4484  
G01 X-3.2245 Y0.4480  
G01 X-3.2245 Y0.4476  
G01 X-3.2241 Y0.4456  
G01 X-3.2238 Y0.4437  
G01 X-3.2236 Y0.4433  
G01 X-3.2236 Y0.4429  
G01 X-3.2228 Y0.4410  
G01 X-3.2221 Y0.4391  
G01 X-3.2219 Y0.4388  
G01 X-3.2217 Y0.4384  
G01 X-3.2206 Y0.4367  
G01 X-3.2196 Y0.4350  
G01 X-3.2193 Y0.4347  
G01 X-3.2190 Y0.4344  
G01 X-3.2176 Y0.4330  
G01 X-2.8693 Y0.0597  
G01 X-2.8690 Y0.0594  
G01 X-2.8676 Y0.0580  
G01 X-2.8663 Y0.0565  
G01 X-2.8659 Y0.0563  
G01 X-2.8656 Y0.0560  
G01 X-2.8640 Y0.0549  
G01 X-2.8623 Y0.0537  
G01 X-2.8620 Y0.0535  
G01 X-2.8616 Y0.0533  
G01 X-2.8598 Y0.0525  
G01 X-2.8580 Y0.0517  
G01 X-2.8575 Y0.0516  
G01 X-2.8571 Y0.0514  
G01 X-2.8552 Y0.0511  
G01 X-2.8533 Y0.0506  
G01 X-2.8528 Y0.0506  
G01 X-2.8524 Y0.0505  
G01 X-2.8504 Y0.0505  
G01 X-2.8484 Y0.0504  
G01 X-2.8480 Y0.0505  
G01 X-0.4015 Y0.0505  
G01 X-0.4005 Y0.0504  
G01 X-0.3991 Y0.0505  
G01 X-0.3976 Y0.0505  
G01 X-0.3967 Y0.0507  
G01 X-0.3957 Y0.0508  
G01 X-0.3943 Y0.0512  
G01 X-0.3929 Y0.0514  
G01 X-0.3920 Y0.0518  
G01 X-0.3911 Y0.0521  
G01 X-0.3898 Y0.0527  
G01 X-0.3884 Y0.0533  
G01 X-0.3876 Y0.0538  
G01 X-0.3868 Y0.0542  
G01 X-0.3856 Y0.0552  
G01 X-0.3844 Y0.0560  
G01 X-0.3837 Y0.0566  
G01 X-0.3830 Y0.0572  
G00 Z0.0500  
G00 X-0.3836 Y0.3874  
G01 Z-0.0030 F10    
G01 X-0.3809 Y0.3921  F20    
G01 X-0.3795 Y0.3973  
G01 X-0.3795 Y0.4473  
G01 X-0.3726 Y0.4462  
G01 X-0.3652 Y0.4462  
G01 X-0.3578 Y0.4474  
G01 X-0.3507 Y0.4497  
G01 X-0.3440 Y0.4531  
G01 X-0.3380 Y0.4575  
G01 X-0.3327 Y0.4628  
G01 X-0.3283 Y0.4688  
G01 X-0.3249 Y0.4755  
G01 X-0.3226 Y0.4826  
G01 X-0.3214 Y0.4900  
G01 X-0.3214 Y0.4974  
G01 X-0.3226 Y0.5048  
G01 X-0.3249 Y0.5119  
G01 X-0.3283 Y0.5186  
G01 X-0.3327 Y0.5246  
G01 X-0.3380 Y0.5299  
G01 X-0.3440 Y0.5343  
G01 X-0.3507 Y0.5377  
G01 X-0.3578 Y0.5400  
G01 X-0.3652 Y0.5412  
G01 X-0.3726 Y0.5412  
G01 X-0.3800 Y0.5400  
G01 X-0.3871 Y0.5377  
G01 X-0.3938 Y0.5343  
G01 X-0.3998 Y0.5299  
G01 X-0.4051 Y0.5246  
G01 X-0.4095 Y0.5186  
G01 X-0.4129 Y0.5119  
G01 X-0.4152 Y0.5048  
G01 X-0.4164 Y0.4974  
G01 X-0.4164 Y0.4900  
G01 X-0.4152 Y0.4826  
G01 X-0.4137 Y0.4779  
G01 X-0.4164 Y0.4752  
G01 X-0.4191 Y0.4705  
G01 X-0.4205 Y0.4653  
G01 X-0.4205 Y0.4085  
G01 X-0.6085 Y0.2205  
G01 X-1.2158 Y0.2205  
G01 X-1.2158 Y0.2331  
G01 X-1.2171 Y0.2397  
G01 X-1.2197 Y0.2459  
G01 X-1.2234 Y0.2515  
G01 X-1.2282 Y0.2562  
G01 X-1.2338 Y0.2600  
G01 X-1.2400 Y0.2626  
G01 X-1.2466 Y0.2639  
G01 X-1.2534 Y0.2639  
G01 X-1.2600 Y0.2626  
G01 X-1.2662 Y0.2600  
G01 X-1.2718 Y0.2562  
G01 X-1.2766 Y0.2515  
G01 X-1.2803 Y0.2459  
G01 X-1.2829 Y0.2397  
G01 X-1.2842 Y0.2331  
G01 X-1.2842 Y0.1669  
G01 X-1.2829 Y0.1603  
G01 X-1.2803 Y0.1541  
G01 X-1.2766 Y0.1485  
G01 X-1.2718 Y0.1438  
G01 X-1.2662 Y0.1400  
G01 X-1.2600 Y0.1374  
G01 X-1.2534 Y0.1361  
G01 X-1.2466 Y0.1361  
G01 X-1.2400 Y0.1374  
G01 X-1.2338 Y0.1400  
G01 X-1.2282 Y0.1438  
G01 X-1.2234 Y0.1485  
G01 X-1.2197 Y0.1541  
G01 X-1.2171 Y0.1603  
G01 X-1.2158 Y0.1669  
G01 X-1.2158 Y0.1795  
G01 X-0.5973 Y0.1795  
G01 X-0.5921 Y0.1809  
G01 X-0.5874 Y0.1836  
G01 X-0.3874 Y0.3836  
G01 X-0.3836 Y0.3874  
G00 Z0.0500  
G00 X-0.4236 Y0.6215  
G01 Z-0.0030 F10    
G01 X-0.4186 Y0.6284  F20    
G01 X-0.4147 Y0.6361  
G01 X-0.4120 Y0.6443  
G01 X-0.4107 Y0.6528  
G01 X-0.4107 Y0.6614  
G01 X-0.4120 Y0.6699  
G01 X-0.4147 Y0.6781  
G01 X-0.4186 Y0.6858  
G01 X-0.4236 Y0.6927  
G01 X-0.4297 Y0.6988  
G01 X-0.4367 Y0.7039  
G01 X-0.4444 Y0.7078  
G01 X-0.4525 Y0.7104  
G01 X-0.4610 Y0.7118  
G01 X-0.4697 Y0.7118  
G01 X-0.4782 Y0.7104  
G01 X-0.4864 Y0.7078  
G01 X-0.4940 Y0.7039  
G01 X-0.5010 Y0.6988  
G01 X-0.5071 Y0.6927  
G01 X-0.5121 Y0.6858  
G01 X-0.5160 Y0.6781  
G01 X-0.5187 Y0.6699  
G01 X-0.5201 Y0.6614  
G01 X-0.5201 Y0.6528  
G01 X-0.5187 Y0.6443  
G01 X-0.5160 Y0.6361  
G01 X-0.5121 Y0.6284  
G01 X-0.5071 Y0.6215  
G01 X-0.5010 Y0.6154  
G01 X-0.4940 Y0.6103  
G01 X-0.4864 Y0.6064  
G01 X-0.4782 Y0.6037  
G01 X-0.4697 Y0.6024  
G01 X-0.4610 Y0.6024  
G01 X-0.4525 Y0.6037  
G01 X-0.4444 Y0.6064  
G01 X-0.4367 Y0.6103  
G01 X-0.4297 Y0.6154  
G01 X-0.4236 Y0.6215  
G00 Z0.0500  
G00 X-0.5929 Y0.6687  
G01 Z-0.0030 F10    
G01 X-0.5879 Y0.6757  F20    
G01 X-0.5840 Y0.6833  
G01 X-0.5813 Y0.6915  
G01 X-0.5799 Y0.7000  
G01 X-0.5799 Y0.7086  
G01 X-0.5813 Y0.7171  
G01 X-0.5840 Y0.7253  
G01 X-0.5879 Y0.7330  
G01 X-0.5929 Y0.7400  
G01 X-0.5990 Y0.7461  
G01 X-0.6060 Y0.7511  
G01 X-0.6136 Y0.7550  
G01 X-0.6218 Y0.7577  
G01 X-0.6303 Y0.7590  
G01 X-0.6390 Y0.7590  
G01 X-0.6475 Y0.7577  
G01 X-0.6556 Y0.7550  
G01 X-0.6633 Y0.7511  
G01 X-0.6703 Y0.7461  
G01 X-0.6764 Y0.7400  
G01 X-0.6814 Y0.7330  
G01 X-0.6853 Y0.7253  
G01 X-0.6880 Y0.7171  
G01 X-0.6893 Y0.7086  
G01 X-0.6893 Y0.7000  
G01 X-0.6880 Y0.6915  
G01 X-0.6853 Y0.6833  
G01 X-0.6814 Y0.6757  
G01 X-0.6764 Y0.6687  
G01 X-0.6703 Y0.6626  
G01 X-0.6633 Y0.6575  
G01 X-0.6556 Y0.6536  
G01 X-0.6475 Y0.6510  
G01 X-0.6390 Y0.6496  
G01 X-0.6303 Y0.6496  
G01 X-0.6218 Y0.6510  
G01 X-0.6136 Y0.6536  
G01 X-0.6060 Y0.6575  
G01 X-0.5990 Y0.6626  
G01 X-0.5929 Y0.6687  
G00 Z0.0500  
G00 X-0.9120 Y0.6699  
G01 Z-0.0030 F10    
G01 X-0.9147 Y0.6781  F20    
G01 X-0.9186 Y0.6858  
G01 X-0.9236 Y0.6927  
G01 X-0.9297 Y0.6988  
G01 X-0.9367 Y0.7039  
G01 X-0.9444 Y0.7078  
G01 X-0.9525 Y0.7104  
G01 X-0.9610 Y0.7118  
G01 X-0.9697 Y0.7118  
G01 X-0.9782 Y0.7104  
G01 X-0.9864 Y0.7078  
G01 X-0.9940 Y0.7039  
G01 X-1.0010 Y0.6988  
G01 X-1.0071 Y0.6927  
G01 X-1.0121 Y0.6858  
G01 X-1.0160 Y0.6781  
G01 X-1.0187 Y0.6699  
G01 X-1.0201 Y0.6614  
G01 X-1.0201 Y0.6528  
G01 X-1.0187 Y0.6443  
G01 X-1.0160 Y0.6361  
G01 X-1.0121 Y0.6284  
G01 X-1.0071 Y0.6215  
G01 X-1.0010 Y0.6154  
G01 X-0.9940 Y0.6103  
G01 X-0.9864 Y0.6064  
G01 X-0.9782 Y0.6037  
G01 X-0.9697 Y0.6024  
G01 X-0.9610 Y0.6024  
G01 X-0.9525 Y0.6037  
G01 X-0.9444 Y0.6064  
G01 X-0.9367 Y0.6103  
G01 X-0.9297 Y0.6154  
G01 X-0.9236 Y0.6215  
G01 X-0.9186 Y0.6284  
G01 X-0.9147 Y0.6361  
G01 X-0.9120 Y0.6443  
G01 X-0.9107 Y0.6528  
G01 X-0.9107 Y0.6614  
G01 X-0.9120 Y0.6699  
G00 Z0.0500  
G00 X-0.9051 Y0.5246  
G01 Z-0.0030 F10    
G01 X-0.9095 Y0.5186  F20    
G01 X-0.9129 Y0.5119  
G01 X-0.9152 Y0.5048  
G01 X-0.9164 Y0.4974  
G01 X-0.9164 Y0.4900  
G01 X-0.9152 Y0.4826  
G01 X-0.9129 Y0.4755  
G01 X-0.9095 Y0.4688  
G01 X-0.9051 Y0.4628  
G01 X-0.8998 Y0.4575  
G01 X-0.8938 Y0.4531  
G01 X-0.8894 Y0.4508  
G01 X-0.8894 Y0.4396  
G01 X-0.9585 Y0.3705  
G01 X-1.2527 Y0.3705  
G01 X-1.2579 Y0.3691  
G01 X-1.2626 Y0.3664  
G01 X-1.3626 Y0.2664  
G01 X-1.3664 Y0.2626  
G01 X-1.3690 Y0.2581  
G01 X-1.3718 Y0.2562  
G01 X-1.3766 Y0.2515  
G01 X-1.3803 Y0.2459  
G01 X-1.3829 Y0.2397  
G01 X-1.3842 Y0.2331  
G01 X-1.3842 Y0.1669  
G01 X-1.3829 Y0.1603  
G01 X-1.3803 Y0.1541  
G01 X-1.3766 Y0.1485  
G01 X-1.3718 Y0.1438  
G01 X-1.3662 Y0.1400  
G01 X-1.3600 Y0.1374  
G01 X-1.3534 Y0.1361  
G01 X-1.3466 Y0.1361  
G01 X-1.3400 Y0.1374  
G01 X-1.3338 Y0.1400  
G01 X-1.3282 Y0.1438  
G01 X-1.3234 Y0.1485  
G01 X-1.3197 Y0.1541  
G01 X-1.3171 Y0.1603  
G01 X-1.3158 Y0.1669  
G01 X-1.3158 Y0.2331  
G01 X-1.3171 Y0.2397  
G01 X-1.3197 Y0.2459  
G01 X-1.3219 Y0.2491  
G01 X-1.2415 Y0.3295  
G01 X-0.9473 Y0.3295  
G01 X-0.9421 Y0.3309  
G01 X-0.9374 Y0.3336  
G01 X-0.9336 Y0.3374  
G01 X-0.8525 Y0.4185  
G01 X-0.8498 Y0.4232  
G01 X-0.8484 Y0.4284  
G01 X-0.8484 Y0.4508  
G01 X-0.8440 Y0.4531  
G01 X-0.8380 Y0.4575  
G01 X-0.8327 Y0.4628  
G01 X-0.8283 Y0.4688  
G01 X-0.8249 Y0.4755  
G01 X-0.8226 Y0.4826  
G01 X-0.8214 Y0.4900  
G01 X-0.8214 Y0.4974  
G01 X-0.8226 Y0.5048  
G01 X-0.8249 Y0.5119  
G01 X-0.8283 Y0.5186  
G01 X-0.8327 Y0.5246  
G01 X-0.8380 Y0.5299  
G01 X-0.8440 Y0.5343  
G01 X-0.8507 Y0.5377  
G01 X-0.8578 Y0.5400  
G01 X-0.8652 Y0.5412  
G01 X-0.8726 Y0.5412  
G01 X-0.8800 Y0.5400  
G01 X-0.8871 Y0.5377  
G01 X-0.8938 Y0.5343  
G01 X-0.8998 Y0.5299  
G01 X-0.9051 Y0.5246  
G00 Z0.0500  
G00 X-1.3295 Y0.5527  
G01 Z-0.0030 F10    
G01 X-1.3309 Y0.5579  F20    
G01 X-1.3336 Y0.5626  
G01 X-1.3374 Y0.5664  
G01 X-1.3385 Y0.5670  
G01 X-1.3385 Y0.6330  
G01 X-1.3374 Y0.6336  
G01 X-1.3336 Y0.6374  
G01 X-1.3309 Y0.6421  
G01 X-1.3295 Y0.6473  
G01 X-1.3295 Y1.2027  
G01 X-1.3309 Y1.2079  
G01 X-1.3336 Y1.2126  
G01 X-1.3374 Y1.2164  
G01 X-1.3385 Y1.2170  
G01 X-1.3385 Y1.2830  
G01 X-1.3374 Y1.2836  
G01 X-1.3336 Y1.2874  
G01 X-1.3309 Y1.2921  
G01 X-1.3295 Y1.2973  
G01 X-1.3295 Y1.3027  
G01 X-1.3309 Y1.3079  
G01 X-1.3336 Y1.3126  
G01 X-1.3795 Y1.3585  
G01 X-1.3795 Y1.8743  
G01 X-1.3640 Y1.8898  
G01 X-1.3640 Y1.9196  
G01 X-1.3851 Y1.9407  
G01 X-1.4149 Y1.9407  
G01 X-1.4360 Y1.9196  
G01 X-1.4360 Y1.8898  
G01 X-1.4205 Y1.8743  
G01 X-1.4205 Y1.3473  
G01 X-1.4191 Y1.3421  
G01 X-1.4164 Y1.3374  
G01 X-1.3626 Y1.2836  
G01 X-1.3615 Y1.2830  
G01 X-1.3615 Y1.2170  
G01 X-1.3626 Y1.2164  
G01 X-1.3664 Y1.2126  
G01 X-1.3691 Y1.2079  
G01 X-1.3705 Y1.2027  
G01 X-1.3705 Y0.6473  
G01 X-1.3691 Y0.6421  
G01 X-1.3664 Y0.6374  
G01 X-1.3626 Y0.6336  
G01 X-1.3615 Y0.6330  
G01 X-1.3615 Y0.5670  
G01 X-1.3626 Y0.5664  
G01 X-1.3664 Y0.5626  
G01 X-1.3691 Y0.5579  
G01 X-1.3705 Y0.5527  
G01 X-1.3705 Y0.4085  
G01 X-1.4626 Y0.3164  
G01 X-1.4664 Y0.3126  
G01 X-1.4691 Y0.3079  
G01 X-1.4705 Y0.3027  
G01 X-1.4705 Y0.2571  
G01 X-1.4718 Y0.2562  
G01 X-1.4766 Y0.2515  
G01 X-1.4803 Y0.2459  
G01 X-1.4829 Y0.2397  
G01 X-1.4842 Y0.2331  
G01 X-1.4842 Y0.1669  
G01 X-1.4829 Y0.1603  
G01 X-1.4803 Y0.1541  
G01 X-1.4766 Y0.1485  
G01 X-1.4718 Y0.1438  
G01 X-1.4662 Y0.1400  
G01 X-1.4600 Y0.1374  
G01 X-1.4534 Y0.1361  
G01 X-1.4466 Y0.1361  
G01 X-1.4400 Y0.1374  
G01 X-1.4338 Y0.1400  
G01 X-1.4282 Y0.1438  
G01 X-1.4234 Y0.1485  
G01 X-1.4197 Y0.1541  
G01 X-1.4171 Y0.1603  
G01 X-1.4158 Y0.1669  
G01 X-1.4158 Y0.2331  
G01 X-1.4171 Y0.2397  
G01 X-1.4197 Y0.2459  
G01 X-1.4234 Y0.2515  
G01 X-1.4282 Y0.2562  
G01 X-1.4295 Y0.2571  
G01 X-1.4295 Y0.2915  
G01 X-1.3374 Y0.3836  
G01 X-1.3336 Y0.3874  
G01 X-1.3309 Y0.3921  
G01 X-1.3295 Y0.3973  
G01 X-1.3295 Y0.5527  
G00 Z0.0500  
G00 X-1.3640 Y0.5898  
G01 Z-0.0030 F10    
G01 X-1.3640 Y0.6196  F20    
G01 X-1.3851 Y0.6407  
G01 X-1.4149 Y0.6407  
G01 X-1.4360 Y0.6196  
G01 X-1.4360 Y0.5898  
G01 X-1.4205 Y0.5743  
G01 X-1.4205 Y0.4585  
G01 X-1.5626 Y0.3164  
G01 X-1.5664 Y0.3126  
G01 X-1.5691 Y0.3079  
G01 X-1.5705 Y0.3027  
G01 X-1.5705 Y0.2571  
G01 X-1.5718 Y0.2562  
G01 X-1.5766 Y0.2515  
G01 X-1.5803 Y0.2459  
G01 X-1.5829 Y0.2397  
G01 X-1.5842 Y0.2331  
G01 X-1.5842 Y0.1669  
G01 X-1.5829 Y0.1603  
G01 X-1.5803 Y0.1541  
G01 X-1.5766 Y0.1485  
G01 X-1.5718 Y0.1438  
G01 X-1.5662 Y0.1400  
G01 X-1.5600 Y0.1374  
G01 X-1.5534 Y0.1361  
G01 X-1.5466 Y0.1361  
G01 X-1.5400 Y0.1374  
G01 X-1.5338 Y0.1400  
G01 X-1.5282 Y0.1438  
G01 X-1.5234 Y0.1485  
G01 X-1.5197 Y0.1541  
G01 X-1.5171 Y0.1603  
G01 X-1.5158 Y0.1669  
G01 X-1.5158 Y0.2331  
G01 X-1.5171 Y0.2397  
G01 X-1.5197 Y0.2459  
G01 X-1.5234 Y0.2515  
G01 X-1.5282 Y0.2562  
G01 X-1.5295 Y0.2571  
G01 X-1.5295 Y0.2915  
G01 X-1.3836 Y0.4374  
G01 X-1.3809 Y0.4421  
G01 X-1.3795 Y0.4473  
G01 X-1.3795 Y0.5743  
G01 X-1.3640 Y0.5898  
G00 Z0.0500  
G00 X-1.4374 Y0.5664  
G01 Z-0.0030 F10    
G01 X-1.4385 Y0.5670  F20    
G01 X-1.4385 Y0.6330  
G01 X-1.4374 Y0.6336  
G01 X-1.4336 Y0.6374  
G01 X-1.4309 Y0.6421  
G01 X-1.4295 Y0.6473  
G01 X-1.4295 Y1.1415  
G01 X-1.3874 Y1.1836  
G01 X-1.3836 Y1.1874  
G01 X-1.3809 Y1.1921  
G01 X-1.3795 Y1.1973  
G01 X-1.3795 Y1.2243  
G01 X-1.3640 Y1.2398  
G01 X-1.3640 Y1.2696  
G01 X-1.3851 Y1.2907  
G01 X-1.4149 Y1.2907  
G01 X-1.4360 Y1.2696  
G01 X-1.4360 Y1.2398  
G01 X-1.4205 Y1.2243  
G01 X-1.4205 Y1.2085  
G01 X-1.4626 Y1.1664  
G01 X-1.4664 Y1.1626  
G01 X-1.4691 Y1.1579  
G01 X-1.4705 Y1.1527  
G01 X-1.4705 Y0.6473  
G01 X-1.4691 Y0.6421  
G01 X-1.4664 Y0.6374  
G01 X-1.4626 Y0.6336  
G01 X-1.4615 Y0.6330  
G01 X-1.4615 Y0.5670  
G01 X-1.4626 Y0.5664  
G01 X-1.4664 Y0.5626  
G01 X-1.4691 Y0.5579  
G01 X-1.4705 Y0.5527  
G01 X-1.4705 Y0.5085  
G01 X-1.6664 Y0.3126  
G01 X-1.6691 Y0.3079  
G01 X-1.6705 Y0.3027  
G01 X-1.6705 Y0.2571  
G01 X-1.6718 Y0.2562  
G01 X-1.6766 Y0.2515  
G01 X-1.6803 Y0.2459  
G01 X-1.6829 Y0.2397  
G01 X-1.6842 Y0.2331  
G01 X-1.6842 Y0.1669  
G01 X-1.6829 Y0.1603  
G01 X-1.6803 Y0.1541  
G01 X-1.6766 Y0.1485  
G01 X-1.6718 Y0.1438  
G01 X-1.6662 Y0.1400  
G01 X-1.6600 Y0.1374  
G01 X-1.6534 Y0.1361  
G01 X-1.6466 Y0.1361  
G01 X-1.6400 Y0.1374  
G01 X-1.6338 Y0.1400  
G01 X-1.6282 Y0.1438  
G01 X-1.6234 Y0.1485  
G01 X-1.6197 Y0.1541  
G01 X-1.6171 Y0.1603  
G01 X-1.6158 Y0.1669  
G01 X-1.6158 Y0.2331  
G01 X-1.6171 Y0.2397  
G01 X-1.6197 Y0.2459  
G01 X-1.6234 Y0.2515  
G01 X-1.6282 Y0.2562  
G01 X-1.6295 Y0.2571  
G01 X-1.6295 Y0.2915  
G01 X-1.4374 Y0.4836  
G01 X-1.4336 Y0.4874  
G01 X-1.4309 Y0.4921  
G01 X-1.4295 Y0.4973  
G01 X-1.4295 Y0.5527  
G01 X-1.4309 Y0.5579  
G01 X-1.4336 Y0.5626  
G01 X-1.4374 Y0.5664  
G00 Z0.0500  
G00 X-1.4624 Y0.5898  
G01 Z-0.0030 F10    
G01 X-1.4624 Y0.6196  F20    
G01 X-1.4835 Y0.6407  
G01 X-1.5133 Y0.6407  
G01 X-1.5296 Y0.6245  
G01 X-1.5399 Y0.6245  
G01 X-1.7255 Y0.8101  
G01 X-1.7255 Y1.2302  
G01 X-1.5248 Y1.2302  
G01 X-1.5133 Y1.2187  
G01 X-1.4835 Y1.2187  
G01 X-1.4624 Y1.2398  
G01 X-1.4624 Y1.2696  
G01 X-1.4835 Y1.2907  
G01 X-1.5133 Y1.2907  
G01 X-1.5248 Y1.2792  
G01 X-1.7255 Y1.2792  
G01 X-1.7255 Y1.8802  
G01 X-1.5248 Y1.8802  
G01 X-1.5133 Y1.8687  
G01 X-1.4835 Y1.8687  
G01 X-1.4624 Y1.8898  
G01 X-1.4624 Y1.9196  
G01 X-1.4835 Y1.9407  
G01 X-1.5133 Y1.9407  
G01 X-1.5248 Y1.9292  
G01 X-1.7255 Y1.9292  
G01 X-1.7255 Y2.2942  
G01 X-1.6788 Y2.3877  
G01 X-1.6783 Y2.3884  
G01 X-1.6777 Y2.3898  
G01 X-1.6770 Y2.3912  
G01 X-1.6768 Y2.3920  
G01 X-1.6764 Y2.3929  
G01 X-1.6761 Y2.3944  
G01 X-1.6757 Y2.3959  
G01 X-1.6757 Y2.3967  
G01 X-1.6755 Y2.3976  
G01 X-1.6755 Y2.3991  
G01 X-1.6754 Y2.4007  
G01 X-1.6755 Y2.4015  
G01 X-1.6755 Y2.7755  
G01 X-1.6035 Y2.7755  
G01 X-1.6015 Y2.7734  
G01 X-1.5959 Y2.7697  
G01 X-1.5897 Y2.7671  
G01 X-1.5831 Y2.7658  
G01 X-1.5169 Y2.7658  
G01 X-1.5103 Y2.7671  
G01 X-1.5041 Y2.7697  
G01 X-1.4985 Y2.7734  
G01 X-1.4965 Y2.7755  
G01 X-1.3035 Y2.7755  
G01 X-1.3015 Y2.7734  
G01 X-1.2959 Y2.7697  
G01 X-1.2897 Y2.7671  
G01 X-1.2831 Y2.7658  
G01 X-1.2169 Y2.7658  
G01 X-1.2103 Y2.7671  
G01 X-1.2041 Y2.7697  
G01 X-1.1985 Y2.7734  
G01 X-1.1938 Y2.7782  
G01 X-1.1914 Y2.7818  
G01 X-0.7719 Y2.7818  
G01 X-0.7717 Y2.7814  
G01 X-0.7673 Y2.7754  
G01 X-0.7620 Y2.7701  
G01 X-0.7560 Y2.7657  
G01 X-0.7493 Y2.7623  
G01 X-0.7422 Y2.7600  
G01 X-0.7348 Y2.7588  
G01 X-0.7274 Y2.7588  
G01 X-0.7200 Y2.7600  
G01 X-0.7129 Y2.7623  
G01 X-0.7062 Y2.7657  
G01 X-0.7002 Y2.7701  
G01 X-0.6949 Y2.7754  
G01 X-0.6905 Y2.7814  
G01 X-0.6903 Y2.7818  
G01 X-0.2719 Y2.7818  
G01 X-0.2717 Y2.7814  
G01 X-0.2673 Y2.7754  
G01 X-0.2620 Y2.7701  
G01 X-0.2560 Y2.7657  
G01 X-0.2493 Y2.7623  
G01 X-0.2422 Y2.7600  
G01 X-0.2348 Y2.7588  
G01 X-0.2274 Y2.7588  
G01 X-0.2200 Y2.7600  
G01 X-0.2129 Y2.7623  
G01 X-0.2062 Y2.7657  
G01 X-0.2002 Y2.7701  
G01 X-0.1949 Y2.7754  
G01 X-0.1905 Y2.7814  
G01 X-0.1871 Y2.7881  
G01 X-0.1848 Y2.7952  
G01 X-0.1836 Y2.8026  
G01 X-0.1836 Y2.8100  
G01 X-0.1848 Y2.8174  
G01 X-0.1871 Y2.8245  
G01 X-0.1905 Y2.8312  
G01 X-0.1949 Y2.8372  
G01 X-0.2002 Y2.8425  
G01 X-0.2062 Y2.8469  
G01 X-0.2129 Y2.8503  
G01 X-0.2200 Y2.8526  
G01 X-0.2274 Y2.8538  
G01 X-0.2348 Y2.8538  
G01 X-0.2422 Y2.8526  
G01 X-0.2493 Y2.8503  
G01 X-0.2560 Y2.8469  
G01 X-0.2620 Y2.8425  
G01 X-0.2673 Y2.8372  
G01 X-0.2717 Y2.8312  
G01 X-0.2719 Y2.8308  
G01 X-0.6903 Y2.8308  
G01 X-0.6905 Y2.8312  
G01 X-0.6949 Y2.8372  
G01 X-0.7002 Y2.8425  
G01 X-0.7062 Y2.8469  
G01 X-0.7129 Y2.8503  
G01 X-0.7200 Y2.8526  
G01 X-0.7274 Y2.8538  
G01 X-0.7348 Y2.8538  
G01 X-0.7422 Y2.8526  
G01 X-0.7493 Y2.8503  
G01 X-0.7560 Y2.8469  
G01 X-0.7620 Y2.8425  
G01 X-0.7673 Y2.8372  
G01 X-0.7717 Y2.8312  
G01 X-0.7719 Y2.8308  
G01 X-1.2053 Y2.8308  
G01 X-1.2103 Y2.8329  
G01 X-1.2169 Y2.8342  
G01 X-1.2831 Y2.8342  
G01 X-1.2897 Y2.8329  
G01 X-1.2959 Y2.8303  
G01 X-1.3015 Y2.8266  
G01 X-1.3035 Y2.8245  
G01 X-1.4965 Y2.8245  
G01 X-1.4985 Y2.8266  
G01 X-1.5041 Y2.8303  
G01 X-1.5103 Y2.8329  
G01 X-1.5169 Y2.8342  
G01 X-1.5831 Y2.8342  
G01 X-1.5897 Y2.8329  
G01 X-1.5947 Y2.8308  
G01 X-1.8903 Y2.8308  
G01 X-1.8905 Y2.8312  
G01 X-1.8949 Y2.8372  
G01 X-1.9002 Y2.8425  
G01 X-1.9062 Y2.8469  
G01 X-1.9129 Y2.8503  
G01 X-1.9200 Y2.8526  
G01 X-1.9274 Y2.8538  
G01 X-1.9348 Y2.8538  
G01 X-1.9422 Y2.8526  
G01 X-1.9493 Y2.8503  
G01 X-1.9560 Y2.8469  
G01 X-1.9620 Y2.8425  
G01 X-1.9673 Y2.8372  
G01 X-1.9717 Y2.8312  
G01 X-1.9719 Y2.8308  
G01 X-2.3903 Y2.8308  
G01 X-2.3905 Y2.8312  
G01 X-2.3949 Y2.8372  
G01 X-2.4002 Y2.8425  
G01 X-2.4062 Y2.8469  
G01 X-2.4129 Y2.8503  
G01 X-2.4200 Y2.8526  
G01 X-2.4274 Y2.8538  
G01 X-2.4348 Y2.8538  
G01 X-2.4422 Y2.8526  
G01 X-2.4493 Y2.8503  
G01 X-2.4560 Y2.8469  
G01 X-2.4620 Y2.8425  
G01 X-2.4673 Y2.8372  
G01 X-2.4717 Y2.8312  
G01 X-2.4719 Y2.8308  
G01 X-2.8903 Y2.8308  
G01 X-2.8905 Y2.8312  
G01 X-2.8949 Y2.8372  
G01 X-2.9002 Y2.8425  
G01 X-2.9062 Y2.8469  
G01 X-2.9129 Y2.8503  
G01 X-2.9200 Y2.8526  
G01 X-2.9274 Y2.8538  
G01 X-2.9348 Y2.8538  
G01 X-2.9422 Y2.8526  
G01 X-2.9493 Y2.8503  
G01 X-2.9560 Y2.8469  
G01 X-2.9620 Y2.8425  
G01 X-2.9673 Y2.8372  
G01 X-2.9717 Y2.8312  
G01 X-2.9751 Y2.8245  
G01 X-2.9774 Y2.8174  
G01 X-2.9786 Y2.8100  
G01 X-2.9786 Y2.8026  
G01 X-2.9774 Y2.7952  
G01 X-2.9751 Y2.7881  
G01 X-2.9717 Y2.7814  
G01 X-2.9673 Y2.7754  
G01 X-2.9620 Y2.7701  
G01 X-2.9560 Y2.7657  
G01 X-2.9493 Y2.7623  
G01 X-2.9422 Y2.7600  
G01 X-2.9348 Y2.7588  
G01 X-2.9274 Y2.7588  
G01 X-2.9200 Y2.7600  
G01 X-2.9129 Y2.7623  
G01 X-2.9062 Y2.7657  
G01 X-2.9002 Y2.7701  
G01 X-2.8949 Y2.7754  
G01 X-2.8905 Y2.7814  
G01 X-2.8903 Y2.7818  
G01 X-2.4719 Y2.7818  
G01 X-2.4717 Y2.7814  
G01 X-2.4673 Y2.7754  
G01 X-2.4620 Y2.7701  
G01 X-2.4560 Y2.7657  
G01 X-2.4493 Y2.7623  
G01 X-2.4422 Y2.7600  
G01 X-2.4348 Y2.7588  
G01 X-2.4274 Y2.7588  
G01 X-2.4200 Y2.7600  
G01 X-2.4129 Y2.7623  
G01 X-2.4062 Y2.7657  
G01 X-2.4002 Y2.7701  
G01 X-2.3949 Y2.7754  
G01 X-2.3905 Y2.7814  
G01 X-2.3903 Y2.7818  
G01 X-1.9719 Y2.7818  
G01 X-1.9717 Y2.7814  
G01 X-1.9673 Y2.7754  
G01 X-1.9620 Y2.7701  
G01 X-1.9560 Y2.7657  
G01 X-1.9493 Y2.7623  
G01 X-1.9422 Y2.7600  
G01 X-1.9348 Y2.7588  
G01 X-1.9274 Y2.7588  
G01 X-1.9200 Y2.7600  
G01 X-1.9129 Y2.7623  
G01 X-1.9062 Y2.7657  
G01 X-1.9002 Y2.7701  
G01 X-1.8949 Y2.7754  
G01 X-1.8905 Y2.7814  
G01 X-1.8903 Y2.7818  
G01 X-1.7245 Y2.7818  
G01 X-1.7245 Y2.4058  
G01 X-1.7712 Y2.3123  
G01 X-1.7717 Y2.3116  
G01 X-1.7723 Y2.3102  
G01 X-1.7730 Y2.3088  
G01 X-1.7732 Y2.3080  
G01 X-1.7736 Y2.3071  
G01 X-1.7739 Y2.3056  
G01 X-1.7743 Y2.3041  
G01 X-1.7743 Y2.3033  
G01 X-1.7745 Y2.3024  
G01 X-1.7745 Y2.3009  
G01 X-1.7746 Y2.2993  
G01 X-1.7745 Y2.2985  
G01 X-1.7745 Y0.7976  
G01 X-1.7736 Y0.7929  
G01 X-1.7717 Y0.7884  
G01 X-1.7690 Y0.7844  
G01 X-1.5690 Y0.5844  
G01 X-1.5656 Y0.5810  
G01 X-1.5616 Y0.5783  
G01 X-1.5571 Y0.5764  
G01 X-1.5524 Y0.5755  
G01 X-1.5201 Y0.5755  
G01 X-1.5133 Y0.5687  
G01 X-1.4835 Y0.5687  
G01 X-1.4624 Y0.5898  
G00 Z0.0500  
G00 X-1.5431 Y0.8737  
G01 Z-0.0030 F10    
G01 X-1.5431 Y0.9263  F20    
G01 X-1.5804 Y0.9636  
G01 X-1.6330 Y0.9636  
G01 X-1.6702 Y0.9263  
G01 X-1.6702 Y0.8737  
G01 X-1.6330 Y0.8364  
G01 X-1.5804 Y0.8364  
G01 X-1.5431 Y0.8737  
G00 Z0.0500  
G00 X-1.2569 Y0.8737  
G01 Z-0.0030 F10    
G01 X-1.2196 Y0.8364  F20    
G01 X-1.1670 Y0.8364  
G01 X-1.1298 Y0.8737  
G01 X-1.1298 Y0.9263  
G01 X-1.1670 Y0.9636  
G01 X-1.2196 Y0.9636  
G01 X-1.2569 Y0.9263  
G01 X-1.2569 Y0.8737  
G00 Z0.0500  
G00 X-1.2569 Y1.5237  
G01 Z-0.0030 F10    
G01 X-1.2196 Y1.4864  F20    
G01 X-1.1670 Y1.4864  
G01 X-1.1298 Y1.5237  
G01 X-1.1298 Y1.5763  
G01 X-1.1670 Y1.6136  
G01 X-1.2196 Y1.6136  
G01 X-1.2569 Y1.5763  
G01 X-1.2569 Y1.5237  
G00 Z0.0500  
G00 X-1.5431 Y1.5237  
G01 Z-0.0030 F10    
G01 X-1.5431 Y1.5763  F20    
G01 X-1.5804 Y1.6136  
G01 X-1.6330 Y1.6136  
G01 X-1.6702 Y1.5763  
G01 X-1.6702 Y1.5237  
G01 X-1.6330 Y1.4864  
G01 X-1.5804 Y1.4864  
G01 X-1.5431 Y1.5237  
G00 Z0.0500  
G00 X-1.5431 Y2.1737  
G01 Z-0.0030 F10    
G01 X-1.5431 Y2.2263  F20    
G01 X-1.5804 Y2.2636  
G01 X-1.6330 Y2.2636  
G01 X-1.6702 Y2.2263  
G01 X-1.6702 Y2.1737  
G01 X-1.6330 Y2.1364  
G01 X-1.5804 Y2.1364  
G01 X-1.5431 Y2.1737  
G00 Z0.0500  
G00 X-1.2569 Y2.1737  
G01 Z-0.0030 F10    
G01 X-1.2196 Y2.1364  F20    
G01 X-1.1670 Y2.1364  
G01 X-1.1298 Y2.1737  
G01 X-1.1298 Y2.2263  
G01 X-1.1670 Y2.2636  
G01 X-1.2196 Y2.2636  
G01 X-1.2569 Y2.2263  
G01 X-1.2569 Y2.1737  
G00 Z0.0500  
G00 X-1.0010 Y2.6012  
G01 Z-0.0030 F10    
G01 X-0.9940 Y2.5961  F20    
G01 X-0.9864 Y2.5922  
G01 X-0.9782 Y2.5896  
G01 X-0.9697 Y2.5882  
G01 X-0.9610 Y2.5882  
G01 X-0.9525 Y2.5896  
G01 X-0.9444 Y2.5922  
G01 X-0.9367 Y2.5961  
G01 X-0.9297 Y2.6012  
G01 X-0.9236 Y2.6073  
G01 X-0.9186 Y2.6142  
G01 X-0.9147 Y2.6219  
G01 X-0.9120 Y2.6301  
G01 X-0.9107 Y2.6386  
G01 X-0.9107 Y2.6472  
G01 X-0.9120 Y2.6557  
G01 X-0.9147 Y2.6639  
G01 X-0.9186 Y2.6716  
G01 X-0.9236 Y2.6785  
G01 X-0.9297 Y2.6846  
G01 X-0.9367 Y2.6897  
G01 X-0.9444 Y2.6936  
G01 X-0.9525 Y2.6963  
G01 X-0.9610 Y2.6976  
G01 X-0.9697 Y2.6976  
G01 X-0.9782 Y2.6963  
G01 X-0.9864 Y2.6936  
G01 X-0.9940 Y2.6897  
G01 X-1.0010 Y2.6846  
G01 X-1.0071 Y2.6785  
G01 X-1.0121 Y2.6716  
G01 X-1.0160 Y2.6639  
G01 X-1.0187 Y2.6557  
G01 X-1.0201 Y2.6472  
G01 X-1.0201 Y2.6386  
G01 X-1.0187 Y2.6301  
G01 X-1.0160 Y2.6219  
G01 X-1.0121 Y2.6142  
G01 X-1.0071 Y2.6073  
G01 X-1.0010 Y2.6012  
G00 Z0.0500  
G00 X-0.6893 Y2.6000  
G01 Z-0.0030 F10    
G01 X-0.6893 Y2.5914  F20    
G01 X-0.6880 Y2.5829  
G01 X-0.6853 Y2.5747  
G01 X-0.6814 Y2.5670  
G01 X-0.6764 Y2.5600  
G01 X-0.6703 Y2.5539  
G01 X-0.6633 Y2.5489  
G01 X-0.6556 Y2.5450  
G01 X-0.6475 Y2.5423  
G01 X-0.6390 Y2.5410  
G01 X-0.6303 Y2.5410  
G01 X-0.6218 Y2.5423  
G01 X-0.6136 Y2.5450  
G01 X-0.6060 Y2.5489  
G01 X-0.5990 Y2.5539  
G01 X-0.5929 Y2.5600  
G01 X-0.5879 Y2.5670  
G01 X-0.5840 Y2.5747  
G01 X-0.5813 Y2.5829  
G01 X-0.5799 Y2.5914  
G01 X-0.5799 Y2.6000  
G01 X-0.5813 Y2.6085  
G01 X-0.5840 Y2.6167  
G01 X-0.5879 Y2.6243  
G01 X-0.5929 Y2.6313  
G01 X-0.5990 Y2.6374  
G01 X-0.6060 Y2.6425  
G01 X-0.6136 Y2.6464  
G01 X-0.6218 Y2.6490  
G01 X-0.6303 Y2.6504  
G01 X-0.6390 Y2.6504  
G01 X-0.6475 Y2.6490  
G01 X-0.6556 Y2.6464  
G01 X-0.6633 Y2.6425  
G01 X-0.6703 Y2.6374  
G01 X-0.6764 Y2.6313  
G01 X-0.6814 Y2.6243  
G01 X-0.6853 Y2.6167  
G01 X-0.6880 Y2.6085  
G01 X-0.6893 Y2.6000  
G00 Z0.0500  
G00 X-0.5010 Y2.6012  
G01 Z-0.0030 F10    
G01 X-0.4940 Y2.5961  F20    
G01 X-0.4864 Y2.5922  
G01 X-0.4782 Y2.5896  
G01 X-0.4697 Y2.5882  
G01 X-0.4610 Y2.5882  
G01 X-0.4525 Y2.5896  
G01 X-0.4444 Y2.5922  
G01 X-0.4367 Y2.5961  
G01 X-0.4297 Y2.6012  
G01 X-0.4236 Y2.6073  
G01 X-0.4186 Y2.6142  
G01 X-0.4147 Y2.6219  
G01 X-0.4120 Y2.6301  
G01 X-0.4107 Y2.6386  
G01 X-0.4107 Y2.6472  
G01 X-0.4120 Y2.6557  
G01 X-0.4147 Y2.6639  
G01 X-0.4186 Y2.6716  
G01 X-0.4236 Y2.6785  
G01 X-0.4297 Y2.6846  
G01 X-0.4367 Y2.6897  
G01 X-0.4444 Y2.6936  
G01 X-0.4525 Y2.6963  
G01 X-0.4610 Y2.6976  
G01 X-0.4697 Y2.6976  
G01 X-0.4782 Y2.6963  
G01 X-0.4864 Y2.6936  
G01 X-0.4940 Y2.6897  
G01 X-0.5010 Y2.6846  
G01 X-0.5071 Y2.6785  
G01 X-0.5121 Y2.6716  
G01 X-0.5160 Y2.6639  
G01 X-0.5187 Y2.6557  
G01 X-0.5201 Y2.6472  
G01 X-0.5201 Y2.6386  
G01 X-0.5187 Y2.6301  
G01 X-0.5160 Y2.6219  
G01 X-0.5121 Y2.6142  
G01 X-0.5071 Y2.6073  
G01 X-0.5010 Y2.6012  
G00 Z0.0500  
G00 X-0.1893 Y2.6000  
G01 Z-0.0030 F10    
G01 X-0.1893 Y2.5914  F20    
G01 X-0.1880 Y2.5829  
G01 X-0.1853 Y2.5747  
G01 X-0.1814 Y2.5670  
G01 X-0.1764 Y2.5600  
G01 X-0.1703 Y2.5539  
G01 X-0.1633 Y2.5489  
G01 X-0.1556 Y2.5450  
G01 X-0.1475 Y2.5423  
G01 X-0.1390 Y2.5410  
G01 X-0.1303 Y2.5410  
G01 X-0.1218 Y2.5423  
G01 X-0.1136 Y2.5450  
G01 X-0.1060 Y2.5489  
G01 X-0.0990 Y2.5539  
G01 X-0.0929 Y2.5600  
G01 X-0.0879 Y2.5670  
G01 X-0.0840 Y2.5747  
G01 X-0.0813 Y2.5829  
G01 X-0.0799 Y2.5914  
G01 X-0.0799 Y2.6000  
G01 X-0.0813 Y2.6085  
G01 X-0.0840 Y2.6167  
G01 X-0.0879 Y2.6243  
G01 X-0.0929 Y2.6313  
G01 X-0.0990 Y2.6374  
G01 X-0.1060 Y2.6425  
G01 X-0.1136 Y2.6464  
G01 X-0.1218 Y2.6490  
G01 X-0.1303 Y2.6504  
G01 X-0.1390 Y2.6504  
G01 X-0.1475 Y2.6490  
G01 X-0.1556 Y2.6464  
G01 X-0.1633 Y2.6425  
G01 X-0.1703 Y2.6374  
G01 X-0.1764 Y2.6313  
G01 X-0.1814 Y2.6243  
G01 X-0.1853 Y2.6167  
G01 X-0.1880 Y2.6085  
G01 X-0.1893 Y2.6000  
G00 Z0.0500  
G00 X-1.7799 Y2.6000  
G01 Z-0.0030 F10    
G01 X-1.7813 Y2.6085  F20    
G01 X-1.7840 Y2.6167  
G01 X-1.7879 Y2.6243  
G01 X-1.7929 Y2.6313  
G01 X-1.7990 Y2.6374  
G01 X-1.8060 Y2.6425  
G01 X-1.8136 Y2.6464  
G01 X-1.8218 Y2.6490  
G01 X-1.8303 Y2.6504  
G01 X-1.8390 Y2.6504  
G01 X-1.8475 Y2.6490  
G01 X-1.8556 Y2.6464  
G01 X-1.8633 Y2.6425  
G01 X-1.8703 Y2.6374  
G01 X-1.8764 Y2.6313  
G01 X-1.8814 Y2.6243  
G01 X-1.8853 Y2.6167  
G01 X-1.8880 Y2.6085  
G01 X-1.8893 Y2.6000  
G01 X-1.8893 Y2.5914  
G01 X-1.8880 Y2.5829  
G01 X-1.8853 Y2.5747  
G01 X-1.8814 Y2.5670  
G01 X-1.8764 Y2.5600  
G01 X-1.8703 Y2.5539  
G01 X-1.8633 Y2.5489  
G01 X-1.8556 Y2.5450  
G01 X-1.8475 Y2.5423  
G01 X-1.8390 Y2.5410  
G01 X-1.8303 Y2.5410  
G01 X-1.8218 Y2.5423  
G01 X-1.8136 Y2.5450  
G01 X-1.8060 Y2.5489  
G01 X-1.7990 Y2.5539  
G01 X-1.7929 Y2.5600  
G01 X-1.7879 Y2.5670  
G01 X-1.7840 Y2.5747  
G01 X-1.7813 Y2.5829  
G01 X-1.7799 Y2.5914  
G01 X-1.7799 Y2.6000  
G00 Z0.0500  
G00 X-2.1236 Y2.6073  
G01 Z-0.0030 F10    
G01 X-2.1186 Y2.6142  F20    
G01 X-2.1147 Y2.6219  
G01 X-2.1120 Y2.6301  
G01 X-2.1107 Y2.6386  
G01 X-2.1107 Y2.6472  
G01 X-2.1120 Y2.6557  
G01 X-2.1147 Y2.6639  
G01 X-2.1186 Y2.6716  
G01 X-2.1236 Y2.6785  
G01 X-2.1297 Y2.6846  
G01 X-2.1367 Y2.6897  
G01 X-2.1444 Y2.6936  
G01 X-2.1525 Y2.6963  
G01 X-2.1610 Y2.6976  
G01 X-2.1697 Y2.6976  
G01 X-2.1782 Y2.6963  
G01 X-2.1864 Y2.6936  
G01 X-2.1940 Y2.6897  
G01 X-2.2010 Y2.6846  
G01 X-2.2071 Y2.6785  
G01 X-2.2121 Y2.6716  
G01 X-2.2160 Y2.6639  
G01 X-2.2187 Y2.6557  
G01 X-2.2201 Y2.6472  
G01 X-2.2201 Y2.6386  
G01 X-2.2187 Y2.6301  
G01 X-2.2160 Y2.6219  
G01 X-2.2121 Y2.6142  
G01 X-2.2071 Y2.6073  
G01 X-2.2010 Y2.6012  
G01 X-2.1940 Y2.5961  
G01 X-2.1864 Y2.5922  
G01 X-2.1782 Y2.5896  
G01 X-2.1697 Y2.5882  
G01 X-2.1610 Y2.5882  
G01 X-2.1525 Y2.5896  
G01 X-2.1444 Y2.5922  
G01 X-2.1367 Y2.5961  
G01 X-2.1297 Y2.6012  
G01 X-2.1236 Y2.6073  
G00 Z0.0500  
G00 X-2.2813 Y2.6085  
G01 Z-0.0030 F10    
G01 X-2.2840 Y2.6167  F20    
G01 X-2.2879 Y2.6243  
G01 X-2.2929 Y2.6313  
G01 X-2.2990 Y2.6374  
G01 X-2.3060 Y2.6425  
G01 X-2.3136 Y2.6464  
G01 X-2.3218 Y2.6490  
G01 X-2.3303 Y2.6504  
G01 X-2.3390 Y2.6504  
G01 X-2.3475 Y2.6490  
G01 X-2.3556 Y2.6464  
G01 X-2.3633 Y2.6425  
G01 X-2.3703 Y2.6374  
G01 X-2.3764 Y2.6313  
G01 X-2.3814 Y2.6243  
G01 X-2.3853 Y2.6167  
G01 X-2.3880 Y2.6085  
G01 X-2.3893 Y2.6000  
G01 X-2.3893 Y2.5914  
G01 X-2.3880 Y2.5829  
G01 X-2.3853 Y2.5747  
G01 X-2.3814 Y2.5670  
G01 X-2.3764 Y2.5600  
G01 X-2.3703 Y2.5539  
G01 X-2.3633 Y2.5489  
G01 X-2.3556 Y2.5450  
G01 X-2.3475 Y2.5423  
G01 X-2.3390 Y2.5410  
G01 X-2.3303 Y2.5410  
G01 X-2.3218 Y2.5423  
G01 X-2.3136 Y2.5450  
G01 X-2.3060 Y2.5489  
G01 X-2.2990 Y2.5539  
G01 X-2.2929 Y2.5600  
G01 X-2.2879 Y2.5670  
G01 X-2.2840 Y2.5747  
G01 X-2.2813 Y2.5829  
G01 X-2.2799 Y2.5914  
G01 X-2.2799 Y2.6000  
G01 X-2.2813 Y2.6085  
G00 Z0.0500  
G00 X-2.6186 Y2.6142  
G01 Z-0.0030 F10    
G01 X-2.6147 Y2.6219  F20    
G01 X-2.6120 Y2.6301  
G01 X-2.6107 Y2.6386  
G01 X-2.6107 Y2.6472  
G01 X-2.6120 Y2.6557  
G01 X-2.6147 Y2.6639  
G01 X-2.6186 Y2.6716  
G01 X-2.6236 Y2.6785  
G01 X-2.6297 Y2.6846  
G01 X-2.6367 Y2.6897  
G01 X-2.6444 Y2.6936  
G01 X-2.6525 Y2.6963  
G01 X-2.6610 Y2.6976  
G01 X-2.6697 Y2.6976  
G01 X-2.6782 Y2.6963  
G01 X-2.6864 Y2.6936  
G01 X-2.6940 Y2.6897  
G01 X-2.7010 Y2.6846  
G01 X-2.7071 Y2.6785  
G01 X-2.7121 Y2.6716  
G01 X-2.7160 Y2.6639  
G01 X-2.7187 Y2.6557  
G01 X-2.7201 Y2.6472  
G01 X-2.7201 Y2.6386  
G01 X-2.7187 Y2.6301  
G01 X-2.7160 Y2.6219  
G01 X-2.7121 Y2.6142  
G01 X-2.7071 Y2.6073  
G01 X-2.7010 Y2.6012  
G01 X-2.6940 Y2.5961  
G01 X-2.6864 Y2.5922  
G01 X-2.6782 Y2.5896  
G01 X-2.6697 Y2.5882  
G01 X-2.6610 Y2.5882  
G01 X-2.6525 Y2.5896  
G01 X-2.6444 Y2.5922  
G01 X-2.6367 Y2.5961  
G01 X-2.6297 Y2.6012  
G01 X-2.6236 Y2.6073  
G01 X-2.6186 Y2.6142  
G00 Z0.0500  
G00 X-2.7840 Y2.6167  
G01 Z-0.0030 F10    
G01 X-2.7879 Y2.6243  F20    
G01 X-2.7929 Y2.6313  
G01 X-2.7990 Y2.6374  
G01 X-2.8060 Y2.6425  
G01 X-2.8136 Y2.6464  
G01 X-2.8218 Y2.6490  
G01 X-2.8303 Y2.6504  
G01 X-2.8390 Y2.6504  
G01 X-2.8475 Y2.6490  
G01 X-2.8556 Y2.6464  
G01 X-2.8633 Y2.6425  
G01 X-2.8703 Y2.6374  
G01 X-2.8764 Y2.6313  
G01 X-2.8814 Y2.6243  
G01 X-2.8853 Y2.6167  
G01 X-2.8880 Y2.6085  
G01 X-2.8893 Y2.6000  
G01 X-2.8893 Y2.5914  
G01 X-2.8880 Y2.5829  
G01 X-2.8853 Y2.5747  
G01 X-2.8814 Y2.5670  
G01 X-2.8764 Y2.5600  
G01 X-2.8703 Y2.5539  
G01 X-2.8633 Y2.5489  
G01 X-2.8556 Y2.5450  
G01 X-2.8475 Y2.5423  
G01 X-2.8390 Y2.5410  
G01 X-2.8303 Y2.5410  
G01 X-2.8218 Y2.5423  
G01 X-2.8136 Y2.5450  
G01 X-2.8060 Y2.5489  
G01 X-2.7990 Y2.5539  
G01 X-2.7929 Y2.5600  
G01 X-2.7879 Y2.5670  
G01 X-2.7840 Y2.5747  
G01 X-2.7813 Y2.5829  
G01 X-2.7799 Y2.5914  
G01 X-2.7799 Y2.6000  
G01 X-2.7813 Y2.6085  
G01 X-2.7840 Y2.6167  
G00 Z0.0500  
G00 X-3.1147 Y2.6219  
G01 Z-0.0030 F10    
G01 X-3.1120 Y2.6301  F20    
G01 X-3.1107 Y2.6386  
G01 X-3.1107 Y2.6472  
G01 X-3.1120 Y2.6557  
G01 X-3.1147 Y2.6639  
G01 X-3.1186 Y2.6716  
G01 X-3.1236 Y2.6785  
G01 X-3.1297 Y2.6846  
G01 X-3.1367 Y2.6897  
G01 X-3.1444 Y2.6936  
G01 X-3.1525 Y2.6963  
G01 X-3.1610 Y2.6976  
G01 X-3.1697 Y2.6976  
G01 X-3.1782 Y2.6963  
G01 X-3.1864 Y2.6936  
G01 X-3.1940 Y2.6897  
G01 X-3.2010 Y2.6846  
G01 X-3.2071 Y2.6785  
G01 X-3.2121 Y2.6716  
G01 X-3.2160 Y2.6639  
G01 X-3.2187 Y2.6557  
G01 X-3.2201 Y2.6472  
G01 X-3.2201 Y2.6386  
G01 X-3.2187 Y2.6301  
G01 X-3.2160 Y2.6219  
G01 X-3.2121 Y2.6142  
G01 X-3.2071 Y2.6073  
G01 X-3.2010 Y2.6012  
G01 X-3.1940 Y2.5961  
G01 X-3.1864 Y2.5922  
G01 X-3.1782 Y2.5896  
G01 X-3.1697 Y2.5882  
G01 X-3.1610 Y2.5882  
G01 X-3.1525 Y2.5896  
G01 X-3.1444 Y2.5922  
G01 X-3.1367 Y2.5961  
G01 X-3.1297 Y2.6012  
G01 X-3.1236 Y2.6073  
G01 X-3.1186 Y2.6142  
G01 X-3.1147 Y2.6219  
G00 Z0.0500  
G00 X-3.1297 Y0.6988  
G01 Z-0.0030 F10    
G01 X-3.1367 Y0.7039  F20    
G01 X-3.1444 Y0.7078  
G01 X-3.1525 Y0.7104  
G01 X-3.1610 Y0.7118  
G01 X-3.1697 Y0.7118  
G01 X-3.1782 Y0.7104  
G01 X-3.1864 Y0.7078  
G01 X-3.1940 Y0.7039  
G01 X-3.2010 Y0.6988  
G01 X-3.2071 Y0.6927  
G01 X-3.2121 Y0.6858  
G01 X-3.2160 Y0.6781  
G01 X-3.2187 Y0.6699  
G01 X-3.2201 Y0.6614  
G01 X-3.2201 Y0.6528  
G01 X-3.2187 Y0.6443  
G01 X-3.2160 Y0.6361  
G01 X-3.2121 Y0.6284  
G01 X-3.2071 Y0.6215  
G01 X-3.2010 Y0.6154  
G01 X-3.1940 Y0.6103  
G01 X-3.1864 Y0.6064  
G01 X-3.1782 Y0.6037  
G01 X-3.1697 Y0.6024  
G01 X-3.1610 Y0.6024  
G01 X-3.1525 Y0.6037  
G01 X-3.1444 Y0.6064  
G01 X-3.1367 Y0.6103  
G01 X-3.1297 Y0.6154  
G01 X-3.1236 Y0.6215  
G01 X-3.1186 Y0.6284  
G01 X-3.1147 Y0.6361  
G01 X-3.1120 Y0.6443  
G01 X-3.1107 Y0.6528  
G01 X-3.1107 Y0.6614  
G01 X-3.1120 Y0.6699  
G01 X-3.1147 Y0.6781  
G01 X-3.1186 Y0.6858  
G01 X-3.1236 Y0.6927  
G01 X-3.1297 Y0.6988  
G00 Z0.0500  
G00 X-3.1051 Y0.5246  
G01 Z-0.0030 F10    
G01 X-3.1095 Y0.5186  F20    
G01 X-3.1129 Y0.5119  
G01 X-3.1152 Y0.5048  
G01 X-3.1164 Y0.4974  
G01 X-3.1164 Y0.4900  
G01 X-3.1152 Y0.4826  
G01 X-3.1129 Y0.4755  
G01 X-3.1095 Y0.4688  
G01 X-3.1051 Y0.4628  
G01 X-3.0998 Y0.4575  
G01 X-3.0938 Y0.4531  
G01 X-3.0871 Y0.4497  
G01 X-3.0830 Y0.4483  
G01 X-2.8156 Y0.1810  
G01 X-2.8116 Y0.1783  
G01 X-2.8071 Y0.1764  
G01 X-2.8024 Y0.1755  
G01 X-2.7976 Y0.1755  
G01 X-2.7929 Y0.1764  
G01 X-2.7884 Y0.1783  
G01 X-2.7866 Y0.1795  
G01 X-1.9842 Y0.1795  
G01 X-1.9842 Y0.1669  
G01 X-1.9829 Y0.1603  
G01 X-1.9803 Y0.1541  
G01 X-1.9766 Y0.1485  
G01 X-1.9718 Y0.1438  
G01 X-1.9662 Y0.1400  
G01 X-1.9600 Y0.1374  
G01 X-1.9534 Y0.1361  
G01 X-1.9466 Y0.1361  
G01 X-1.9400 Y0.1374  
G01 X-1.9338 Y0.1400  
G01 X-1.9282 Y0.1438  
G01 X-1.9234 Y0.1485  
G01 X-1.9197 Y0.1541  
G01 X-1.9171 Y0.1603  
G01 X-1.9158 Y0.1669  
G01 X-1.9158 Y0.2331  
G01 X-1.9171 Y0.2397  
G01 X-1.9197 Y0.2459  
G01 X-1.9234 Y0.2515  
G01 X-1.9282 Y0.2562  
G01 X-1.9338 Y0.2600  
G01 X-1.9400 Y0.2626  
G01 X-1.9466 Y0.2639  
G01 X-1.9534 Y0.2639  
G01 X-1.9600 Y0.2626  
G01 X-1.9662 Y0.2600  
G01 X-1.9718 Y0.2562  
G01 X-1.9766 Y0.2515  
G01 X-1.9803 Y0.2459  
G01 X-1.9829 Y0.2397  
G01 X-1.9842 Y0.2331  
G01 X-1.9842 Y0.2205  
G01 X-2.7859 Y0.2205  
G01 X-3.0307 Y0.4654  
G01 X-3.0283 Y0.4688  
G01 X-3.0249 Y0.4755  
G01 X-3.0226 Y0.4826  
G01 X-3.0214 Y0.4900  
G01 X-3.0214 Y0.4974  
G01 X-3.0226 Y0.5048  
G01 X-3.0249 Y0.5119  
G01 X-3.0283 Y0.5186  
G01 X-3.0327 Y0.5246  
G01 X-3.0380 Y0.5299  
G01 X-3.0440 Y0.5343  
G01 X-3.0507 Y0.5377  
G01 X-3.0578 Y0.5400  
G01 X-3.0652 Y0.5412  
G01 X-3.0726 Y0.5412  
G01 X-3.0800 Y0.5400  
G01 X-3.0871 Y0.5377  
G01 X-3.0938 Y0.5343  
G01 X-3.0998 Y0.5299  
G01 X-3.1051 Y0.5246  
G00 Z0.0500  
G00 X-2.8703 Y0.6626  
G01 Z-0.0030 F10    
G01 X-2.8633 Y0.6575  F20    
G01 X-2.8556 Y0.6536  
G01 X-2.8475 Y0.6510  
G01 X-2.8390 Y0.6496  
G01 X-2.8303 Y0.6496  
G01 X-2.8218 Y0.6510  
G01 X-2.8136 Y0.6536  
G01 X-2.8060 Y0.6575  
G01 X-2.7990 Y0.6626  
G01 X-2.7929 Y0.6687  
G01 X-2.7879 Y0.6757  
G01 X-2.7840 Y0.6833  
G01 X-2.7813 Y0.6915  
G01 X-2.7799 Y0.7000  
G01 X-2.7799 Y0.7086  
G01 X-2.7813 Y0.7171  
G01 X-2.7840 Y0.7253  
G01 X-2.7879 Y0.7330  
G01 X-2.7929 Y0.7400  
G01 X-2.7990 Y0.7461  
G01 X-2.8060 Y0.7511  
G01 X-2.8136 Y0.7550  
G01 X-2.8218 Y0.7577  
G01 X-2.8303 Y0.7590  
G01 X-2.8390 Y0.7590  
G01 X-2.8475 Y0.7577  
G01 X-2.8556 Y0.7550  
G01 X-2.8633 Y0.7511  
G01 X-2.8703 Y0.7461  
G01 X-2.8764 Y0.7400  
G01 X-2.8814 Y0.7330  
G01 X-2.8853 Y0.7253  
G01 X-2.8880 Y0.7171  
G01 X-2.8893 Y0.7086  
G01 X-2.8893 Y0.7000  
G01 X-2.8880 Y0.6915  
G01 X-2.8853 Y0.6833  
G01 X-2.8814 Y0.6757  
G01 X-2.8764 Y0.6687  
G01 X-2.8703 Y0.6626  
G00 Z0.0500  
G00 X-2.7201 Y0.6614  
G01 Z-0.0030 F10    
G01 X-2.7201 Y0.6528  F20    
G01 X-2.7187 Y0.6443  
G01 X-2.7160 Y0.6361  
G01 X-2.7121 Y0.6284  
G01 X-2.7071 Y0.6215  
G01 X-2.7010 Y0.6154  
G01 X-2.6940 Y0.6103  
G01 X-2.6864 Y0.6064  
G01 X-2.6782 Y0.6037  
G01 X-2.6697 Y0.6024  
G01 X-2.6610 Y0.6024  
G01 X-2.6525 Y0.6037  
G01 X-2.6444 Y0.6064  
G01 X-2.6367 Y0.6103  
G01 X-2.6297 Y0.6154  
G01 X-2.6236 Y0.6215  
G01 X-2.6186 Y0.6284  
G01 X-2.6147 Y0.6361  
G01 X-2.6120 Y0.6443  
G01 X-2.6107 Y0.6528  
G01 X-2.6107 Y0.6614  
G01 X-2.6120 Y0.6699  
G01 X-2.6147 Y0.6781  
G01 X-2.6186 Y0.6858  
G01 X-2.6236 Y0.6927  
G01 X-2.6297 Y0.6988  
G01 X-2.6367 Y0.7039  
G01 X-2.6444 Y0.7078  
G01 X-2.6525 Y0.7104  
G01 X-2.6610 Y0.7118  
G01 X-2.6697 Y0.7118  
G01 X-2.6782 Y0.7104  
G01 X-2.6864 Y0.7078  
G01 X-2.6940 Y0.7039  
G01 X-2.7010 Y0.6988  
G01 X-2.7071 Y0.6927  
G01 X-2.7121 Y0.6858  
G01 X-2.7160 Y0.6781  
G01 X-2.7187 Y0.6699  
G01 X-2.7201 Y0.6614  
G00 Z0.0500  
G00 X-2.6051 Y0.5246  
G01 Z-0.0030 F10    
G01 X-2.6095 Y0.5186  F20    
G01 X-2.6129 Y0.5119  
G01 X-2.6152 Y0.5048  
G01 X-2.6164 Y0.4974  
G01 X-2.6164 Y0.4900  
G01 X-2.6152 Y0.4826  
G01 X-2.6129 Y0.4755  
G01 X-2.6095 Y0.4688  
G01 X-2.6051 Y0.4628  
G01 X-2.5998 Y0.4575  
G01 X-2.5938 Y0.4531  
G01 X-2.5871 Y0.4497  
G01 X-2.5800 Y0.4474  
G01 X-2.5745 Y0.4465  
G01 X-2.5745 Y0.3976  
G01 X-2.5736 Y0.3929  
G01 X-2.5717 Y0.3884  
G01 X-2.5690 Y0.3844  
G01 X-2.5656 Y0.3810  
G01 X-2.4656 Y0.2810  
G01 X-2.4616 Y0.2783  
G01 X-2.4571 Y0.2764  
G01 X-2.4524 Y0.2755  
G01 X-2.4476 Y0.2755  
G01 X-2.4429 Y0.2764  
G01 X-2.4384 Y0.2783  
G01 X-2.4366 Y0.2795  
G01 X-1.9085 Y0.2795  
G01 X-1.8781 Y0.2491  
G01 X-1.8803 Y0.2459  
G01 X-1.8829 Y0.2397  
G01 X-1.8842 Y0.2331  
G01 X-1.8842 Y0.1669  
G01 X-1.8829 Y0.1603  
G01 X-1.8803 Y0.1541  
G01 X-1.8766 Y0.1485  
G01 X-1.8718 Y0.1438  
G01 X-1.8662 Y0.1400  
G01 X-1.8600 Y0.1374  
G01 X-1.8534 Y0.1361  
G01 X-1.8466 Y0.1361  
G01 X-1.8400 Y0.1374  
G01 X-1.8338 Y0.1400  
G01 X-1.8282 Y0.1438  
G01 X-1.8234 Y0.1485  
G01 X-1.8197 Y0.1541  
G01 X-1.8171 Y0.1603  
G01 X-1.8158 Y0.1669  
G01 X-1.8158 Y0.2331  
G01 X-1.8171 Y0.2397  
G01 X-1.8197 Y0.2459  
G01 X-1.8234 Y0.2515  
G01 X-1.8282 Y0.2562  
G01 X-1.8310 Y0.2581  
G01 X-1.8336 Y0.2626  
G01 X-1.8836 Y0.3126  
G01 X-1.8874 Y0.3164  
G01 X-1.8921 Y0.3191  
G01 X-1.8973 Y0.3205  
G01 X-2.4359 Y0.3205  
G01 X-2.5255 Y0.4101  
G01 X-2.5255 Y0.4742  
G01 X-2.5249 Y0.4755  
G01 X-2.5226 Y0.4826  
G01 X-2.5214 Y0.4900  
G01 X-2.5214 Y0.4974  
G01 X-2.5226 Y0.5048  
G01 X-2.5249 Y0.5119  
G01 X-2.5283 Y0.5186  
G01 X-2.5327 Y0.5246  
G01 X-2.5380 Y0.5299  
G01 X-2.5440 Y0.5343  
G01 X-2.5507 Y0.5377  
G01 X-2.5578 Y0.5400  
G01 X-2.5652 Y0.5412  
G01 X-2.5726 Y0.5412  
G01 X-2.5800 Y0.5400  
G01 X-2.5871 Y0.5377  
G01 X-2.5938 Y0.5343  
G01 X-2.5998 Y0.5299  
G01 X-2.6051 Y0.5246  
G00 Z0.0500  
G00 X-2.3703 Y0.6626  
G01 Z-0.0030 F10    
G01 X-2.3633 Y0.6575  F20    
G01 X-2.3556 Y0.6536  
G01 X-2.3475 Y0.6510  
G01 X-2.3390 Y0.6496  
G01 X-2.3303 Y0.6496  
G01 X-2.3218 Y0.6510  
G01 X-2.3136 Y0.6536  
G01 X-2.3060 Y0.6575  
G01 X-2.2990 Y0.6626  
G01 X-2.2929 Y0.6687  
G01 X-2.2879 Y0.6757  
G01 X-2.2840 Y0.6833  
G01 X-2.2813 Y0.6915  
G01 X-2.2799 Y0.7000  
G01 X-2.2799 Y0.7086  
G01 X-2.2813 Y0.7171  
G01 X-2.2840 Y0.7253  
G01 X-2.2879 Y0.7330  
G01 X-2.2929 Y0.7400  
G01 X-2.2990 Y0.7461  
G01 X-2.3060 Y0.7511  
G01 X-2.3136 Y0.7550  
G01 X-2.3218 Y0.7577  
G01 X-2.3303 Y0.7590  
G01 X-2.3390 Y0.7590  
G01 X-2.3475 Y0.7577  
G01 X-2.3556 Y0.7550  
G01 X-2.3633 Y0.7511  
G01 X-2.3703 Y0.7461  
G01 X-2.3764 Y0.7400  
G01 X-2.3814 Y0.7330  
G01 X-2.3853 Y0.7253  
G01 X-2.3880 Y0.7171  
G01 X-2.3893 Y0.7086  
G01 X-2.3893 Y0.7000  
G01 X-2.3880 Y0.6915  
G01 X-2.3853 Y0.6833  
G01 X-2.3814 Y0.6757  
G01 X-2.3764 Y0.6687  
G01 X-2.3703 Y0.6626  
G00 Z0.0500  
G00 X-2.2201 Y0.6614  
G01 Z-0.0030 F10    
G01 X-2.2201 Y0.6528  F20    
G01 X-2.2187 Y0.6443  
G01 X-2.2160 Y0.6361  
G01 X-2.2121 Y0.6284  
G01 X-2.2071 Y0.6215  
G01 X-2.2010 Y0.6154  
G01 X-2.1940 Y0.6103  
G01 X-2.1864 Y0.6064  
G01 X-2.1782 Y0.6037  
G01 X-2.1697 Y0.6024  
G01 X-2.1610 Y0.6024  
G01 X-2.1525 Y0.6037  
G01 X-2.1444 Y0.6064  
G01 X-2.1367 Y0.6103  
G01 X-2.1297 Y0.6154  
G01 X-2.1236 Y0.6215  
G01 X-2.1186 Y0.6284  
G01 X-2.1147 Y0.6361  
G01 X-2.1120 Y0.6443  
G01 X-2.1107 Y0.6528  
G01 X-2.1107 Y0.6614  
G01 X-2.1120 Y0.6699  
G01 X-2.1147 Y0.6781  
G01 X-2.1186 Y0.6858  
G01 X-2.1236 Y0.6927  
G01 X-2.1297 Y0.6988  
G01 X-2.1367 Y0.7039  
G01 X-2.1444 Y0.7078  
G01 X-2.1525 Y0.7104  
G01 X-2.1610 Y0.7118  
G01 X-2.1697 Y0.7118  
G01 X-2.1782 Y0.7104  
G01 X-2.1864 Y0.7078  
G01 X-2.1940 Y0.7039  
G01 X-2.2010 Y0.6988  
G01 X-2.2071 Y0.6927  
G01 X-2.2121 Y0.6858  
G01 X-2.2160 Y0.6781  
G01 X-2.2187 Y0.6699  
G01 X-2.2201 Y0.6614  
G00 Z0.0500  
G00 X-2.1051 Y0.5246  
G01 Z-0.0030 F10    
G01 X-2.1095 Y0.5186  F20    
G01 X-2.1129 Y0.5119  
G01 X-2.1152 Y0.5048  
G01 X-2.1164 Y0.4974  
G01 X-2.1164 Y0.4900  
G01 X-2.1152 Y0.4826  
G01 X-2.1129 Y0.4755  
G01 X-2.1095 Y0.4688  
G01 X-2.1051 Y0.4628  
G01 X-2.0998 Y0.4575  
G01 X-2.0938 Y0.4531  
G01 X-2.0871 Y0.4497  
G01 X-2.0800 Y0.4474  
G01 X-2.0726 Y0.4462  
G01 X-2.0652 Y0.4462  
G01 X-2.0578 Y0.4474  
G01 X-2.0531 Y0.4489  
G01 X-1.9878 Y0.3836  
G01 X-1.9831 Y0.3809  
G01 X-1.9779 Y0.3795  
G01 X-1.8085 Y0.3795  
G01 X-1.7705 Y0.3415  
G01 X-1.7705 Y0.2571  
G01 X-1.7718 Y0.2562  
G01 X-1.7766 Y0.2515  
G01 X-1.7803 Y0.2459  
G01 X-1.7829 Y0.2397  
G01 X-1.7842 Y0.2331  
G01 X-1.7842 Y0.1669  
G01 X-1.7829 Y0.1603  
G01 X-1.7803 Y0.1541  
G01 X-1.7766 Y0.1485  
G01 X-1.7718 Y0.1438  
G01 X-1.7662 Y0.1400  
G01 X-1.7600 Y0.1374  
G01 X-1.7534 Y0.1361  
G01 X-1.7466 Y0.1361  
G01 X-1.7400 Y0.1374  
G01 X-1.7338 Y0.1400  
G01 X-1.7282 Y0.1438  
G01 X-1.7234 Y0.1485  
G01 X-1.7197 Y0.1541  
G01 X-1.7171 Y0.1603  
G01 X-1.7158 Y0.1669  
G01 X-1.7158 Y0.2331  
G01 X-1.7171 Y0.2397  
G01 X-1.7197 Y0.2459  
G01 X-1.7234 Y0.2515  
G01 X-1.7282 Y0.2562  
G01 X-1.7295 Y0.2571  
G01 X-1.7295 Y0.3527  
G01 X-1.7309 Y0.3579  
G01 X-1.7336 Y0.3626  
G01 X-1.7836 Y0.4126  
G01 X-1.7874 Y0.4164  
G01 X-1.7921 Y0.4191  
G01 X-1.7973 Y0.4205  
G01 X-1.9667 Y0.4205  
G01 X-2.0241 Y0.4779  
G01 X-2.0226 Y0.4826  
G01 X-2.0214 Y0.4900  
G01 X-2.0214 Y0.4974  
G01 X-2.0226 Y0.5048  
G01 X-2.0249 Y0.5119  
G01 X-2.0283 Y0.5186  
G01 X-2.0327 Y0.5246  
G01 X-2.0380 Y0.5299  
G01 X-2.0440 Y0.5343  
G01 X-2.0507 Y0.5377  
G01 X-2.0578 Y0.5400  
G01 X-2.0652 Y0.5412  
G01 X-2.0726 Y0.5412  
G01 X-2.0800 Y0.5400  
G01 X-2.0871 Y0.5377  
G01 X-2.0938 Y0.5343  
G01 X-2.0998 Y0.5299  
G01 X-2.1051 Y0.5246  
G00 Z0.0500  
G00 X-1.8703 Y0.6626  
G01 Z-0.0030 F10    
G01 X-1.8633 Y0.6575  F20    
G01 X-1.8556 Y0.6536  
G01 X-1.8475 Y0.6510  
G01 X-1.8390 Y0.6496  
G01 X-1.8303 Y0.6496  
G01 X-1.8218 Y0.6510  
G01 X-1.8136 Y0.6536  
G01 X-1.8060 Y0.6575  
G01 X-1.7990 Y0.6626  
G01 X-1.7929 Y0.6687  
G01 X-1.7879 Y0.6757  
G01 X-1.7840 Y0.6833  
G01 X-1.7813 Y0.6915  
G01 X-1.7799 Y0.7000  
G01 X-1.7799 Y0.7086  
G01 X-1.7813 Y0.7171  
G01 X-1.7840 Y0.7253  
G01 X-1.7879 Y0.7330  
G01 X-1.7929 Y0.7400  
G01 X-1.7990 Y0.7461  
G01 X-1.8060 Y0.7511  
G01 X-1.8136 Y0.7550  
G01 X-1.8218 Y0.7577  
G01 X-1.8303 Y0.7590  
G01 X-1.8390 Y0.7590  
G01 X-1.8475 Y0.7577  
G01 X-1.8556 Y0.7550  
G01 X-1.8633 Y0.7511  
G01 X-1.8703 Y0.7461  
G01 X-1.8764 Y0.7400  
G01 X-1.8814 Y0.7330  
G01 X-1.8853 Y0.7253  
G01 X-1.8880 Y0.7171  
G01 X-1.8893 Y0.7086  
G01 X-1.8893 Y0.7000  
G01 X-1.8880 Y0.6915  
G01 X-1.8853 Y0.6833  
G01 X-1.8814 Y0.6757  
G01 X-1.8764 Y0.6687  
G01 X-1.8703 Y0.6626  
G00 Z0.0500  
G00 X-0.1703 Y0.6626  
G01 Z-0.0030 F10    
G01 X-0.1633 Y0.6575  F20    
G01 X-0.1556 Y0.6536  
G01 X-0.1475 Y0.6510  
G01 X-0.1390 Y0.6496  
G01 X-0.1303 Y0.6496  
G01 X-0.1218 Y0.6510  
G01 X-0.1136 Y0.6536  
G01 X-0.1060 Y0.6575  
G01 X-0.0990 Y0.6626  
G01 X-0.0929 Y0.6687  
G01 X-0.0879 Y0.6757  
G01 X-0.0840 Y0.6833  
G01 X-0.0813 Y0.6915  
G01 X-0.0799 Y0.7000  
G01 X-0.0799 Y0.7086  
G01 X-0.0813 Y0.7171  
G01 X-0.0840 Y0.7253  
G01 X-0.0879 Y0.7330  
G01 X-0.0929 Y0.7400  
G01 X-0.0990 Y0.7461  
G01 X-0.1060 Y0.7511  
G01 X-0.1136 Y0.7550  
G01 X-0.1218 Y0.7577  
G01 X-0.1303 Y0.7590  
G01 X-0.1390 Y0.7590  
G01 X-0.1475 Y0.7577  
G01 X-0.1556 Y0.7550  
G01 X-0.1633 Y0.7511  
G01 X-0.1703 Y0.7461  
G01 X-0.1764 Y0.7400  
G01 X-0.1814 Y0.7330  
G01 X-0.1853 Y0.7253  
G01 X-0.1880 Y0.7171  
G01 X-0.1893 Y0.7086  
G01 X-0.1893 Y0.7000  
G01 X-0.1880 Y0.6915  
G01 X-0.1853 Y0.6833  
G01 X-0.1814 Y0.6757  
G01 X-0.1764 Y0.6687  
G01 X-0.1703 Y0.6626  
G00 Z0.0500  
G00 X-0.3812 Y0.0554  
G01 Z-0.0030 F10    
G01 X-0.3802 Y0.0566  F20    
G01 X-0.3790 Y0.0578  
G01 X-0.3784 Y0.0587  
G01 X-0.2302 Y0.2316  
G01 X-0.2290 Y0.2328  
G01 X-0.2284 Y0.2337  
G01 X-0.2278 Y0.2344  
G01 X-0.2270 Y0.2359  
G01 X-0.2261 Y0.2372  
G01 X-0.2257 Y0.2382  
G01 X-0.2252 Y0.2391  
G01 X-0.2247 Y0.2406  
G01 X-0.2240 Y0.2421  
G01 X-0.2238 Y0.2431  
G01 X-0.2235 Y0.2441  
G01 X-0.2233 Y0.2457  
G01 X-0.2230 Y0.2473  
G01 X-0.2230 Y0.2484  
G01 X-0.2229 Y0.2494  
G01 X-0.2230 Y0.2510  
G01 X-0.2230 Y0.4444  
G01 X-0.2194 Y0.4449  
G01 X-0.2119 Y0.4474  
G01 X-0.2049 Y0.4509  
G01 X-0.1985 Y0.4556  
G01 X-0.1930 Y0.4611  
G01 X-0.1883 Y0.4675  
G01 X-0.1848 Y0.4745  
G01 X-0.1823 Y0.4820  
G01 X-0.1811 Y0.4898  
G01 X-0.1811 Y0.4976  
G01 X-0.1823 Y0.5054  
G01 X-0.1848 Y0.5129  
G01 X-0.1883 Y0.5199  
G01 X-0.1930 Y0.5263  
G01 X-0.1985 Y0.5318  
G01 X-0.2041 Y0.5359  
G01 X-0.2041 Y0.6338  
G01 X-0.2051 Y0.6390  
G01 X-0.2072 Y0.6439  
G01 X-0.2101 Y0.6483  
G01 X-0.4290 Y0.8672  
G01 X-0.4328 Y0.8710  
G01 X-0.4372 Y0.8739  
G01 X-0.4421 Y0.8760  
G01 X-0.4473 Y0.8770  
G01 X-1.0230 Y0.8770  
G01 X-1.0230 Y2.3527  
G01 X-1.0240 Y2.3579  
G01 X-1.0261 Y2.3628  
G01 X-1.0290 Y2.3672  
G01 X-1.0328 Y2.3710  
G01 X-1.2230 Y2.5612  
G01 X-1.2230 Y2.6633  
G01 X-1.2167 Y2.6633  
G01 X-1.2096 Y2.6647  
G01 X-1.2029 Y2.6675  
G01 X-1.1969 Y2.6715  
G01 X-1.1918 Y2.6766  
G01 X-1.1878 Y2.6826  
G01 X-1.1850 Y2.6893  
G01 X-1.1836 Y2.6964  
G01 X-1.1836 Y2.7036  
G01 X-1.1850 Y2.7107  
G01 X-1.1878 Y2.7174  
G01 X-1.1918 Y2.7234  
G01 X-1.1969 Y2.7285  
G01 X-1.2029 Y2.7325  
G01 X-1.2096 Y2.7353  
G01 X-1.2167 Y2.7367  
G01 X-1.2833 Y2.7367  
G01 X-1.2904 Y2.7353  
G01 X-1.2971 Y2.7325  
G01 X-1.3031 Y2.7285  
G01 X-1.3046 Y2.7270  
G01 X-1.4954 Y2.7270  
G01 X-1.4969 Y2.7285  
G01 X-1.5029 Y2.7325  
G01 X-1.5096 Y2.7353  
G01 X-1.5167 Y2.7367  
G01 X-1.5833 Y2.7367  
G01 X-1.5904 Y2.7353  
G01 X-1.5971 Y2.7325  
G01 X-1.6031 Y2.7285  
G01 X-1.6082 Y2.7234  
G01 X-1.6122 Y2.7174  
G01 X-1.6150 Y2.7107  
G01 X-1.6164 Y2.7036  
G01 X-1.6164 Y2.6964  
G01 X-1.6150 Y2.6893  
G01 X-1.6122 Y2.6826  
G01 X-1.6082 Y2.6766  
G01 X-1.6031 Y2.6715  
G01 X-1.5971 Y2.6675  
G01 X-1.5904 Y2.6647  
G01 X-1.5833 Y2.6633  
G01 X-1.5167 Y2.6633  
G01 X-1.5096 Y2.6647  
G01 X-1.5029 Y2.6675  
G01 X-1.4969 Y2.6715  
G01 X-1.4954 Y2.6730  
G01 X-1.3046 Y2.6730  
G01 X-1.3031 Y2.6715  
G01 X-1.2971 Y2.6675  
G01 X-1.2904 Y2.6647  
G01 X-1.2833 Y2.6633  
G01 X-1.2770 Y2.6633  
G01 X-1.2770 Y2.5473  
G01 X-1.2760 Y2.5421  
G01 X-1.2739 Y2.5372  
G01 X-1.2710 Y2.5328  
G01 X-1.0770 Y2.3388  
G01 X-1.0770 Y1.9317  
G01 X-1.2741 Y1.9317  
G01 X-1.2856 Y1.9432  
G01 X-1.3175 Y1.9432  
G01 X-1.3401 Y1.9207  
G01 X-1.3401 Y1.8888  
G01 X-1.3175 Y1.8662  
G01 X-1.2856 Y1.8662  
G01 X-1.2741 Y1.8777  
G01 X-1.0770 Y1.8777  
G01 X-1.0770 Y1.2817  
G01 X-1.2741 Y1.2817  
G01 X-1.2856 Y1.2932  
G01 X-1.3175 Y1.2932  
G01 X-1.3360 Y1.2747  
G01 X-1.3360 Y1.2817  
G01 X-1.3353 Y1.2821  
G01 X-1.3321 Y1.2853  
G01 X-1.3296 Y1.2891  
G01 X-1.3279 Y1.2933  
G01 X-1.3270 Y1.2977  
G01 X-1.3270 Y1.3023  
G01 X-1.3279 Y1.3067  
G01 X-1.3296 Y1.3109  
G01 X-1.3321 Y1.3147  
G01 X-1.3770 Y1.3595  
G01 X-1.3770 Y1.8733  
G01 X-1.3615 Y1.8888  
G01 X-1.3615 Y1.9207  
G01 X-1.3841 Y1.9432  
G01 X-1.4159 Y1.9432  
G01 X-1.4385 Y1.9207  
G01 X-1.4385 Y1.8888  
G01 X-1.4230 Y1.8733  
G01 X-1.4230 Y1.3477  
G01 X-1.4221 Y1.3433  
G01 X-1.4204 Y1.3391  
G01 X-1.4179 Y1.3353  
G01 X-1.3647 Y1.2821  
G01 X-1.3640 Y1.2817  
G01 X-1.3640 Y1.2732  
G01 X-1.3841 Y1.2932  
G01 X-1.4159 Y1.2932  
G01 X-1.4385 Y1.2707  
G01 X-1.4385 Y1.2388  
G01 X-1.4230 Y1.2233  
G01 X-1.4230 Y1.2095  
G01 X-1.4647 Y1.1679  
G01 X-1.4679 Y1.1647  
G01 X-1.4704 Y1.1609  
G01 X-1.4721 Y1.1567  
G01 X-1.4730 Y1.1523  
G01 X-1.4730 Y0.6477  
G01 X-1.4721 Y0.6433  
G01 X-1.4704 Y0.6391  
G01 X-1.4679 Y0.6353  
G01 X-1.4647 Y0.6321  
G01 X-1.4640 Y0.6317  
G01 X-1.4640 Y0.6247  
G01 X-1.4825 Y0.6432  
G01 X-1.5144 Y0.6432  
G01 X-1.5306 Y0.6270  
G01 X-1.5388 Y0.6270  
G01 X-1.7230 Y0.8112  
G01 X-1.7230 Y1.2277  
G01 X-1.5259 Y1.2277  
G01 X-1.5144 Y1.2162  
G01 X-1.4825 Y1.2162  
G01 X-1.4599 Y1.2388  
G01 X-1.4599 Y1.2707  
G01 X-1.4825 Y1.2932  
G01 X-1.5144 Y1.2932  
G01 X-1.5259 Y1.2817  
G01 X-1.7230 Y1.2817  
G01 X-1.7230 Y1.8777  
G01 X-1.5259 Y1.8777  
G01 X-1.5144 Y1.8662  
G01 X-1.4825 Y1.8662  
G01 X-1.4599 Y1.8888  
G01 X-1.4599 Y1.9207  
G01 X-1.4825 Y1.9432  
G01 X-1.5144 Y1.9432  
G01 X-1.5259 Y1.9317  
G01 X-1.7230 Y1.9317  
G01 X-1.7230 Y2.2936  
G01 X-1.6766 Y2.3864  
G01 X-1.6761 Y2.3872  
G01 X-1.6754 Y2.3888  
G01 X-1.6747 Y2.3903  
G01 X-1.6744 Y2.3912  
G01 X-1.6740 Y2.3921  
G01 X-1.6737 Y2.3938  
G01 X-1.6733 Y2.3954  
G01 X-1.6732 Y2.3964  
G01 X-1.6730 Y2.3973  
G01 X-1.6730 Y2.3990  
G01 X-1.6729 Y2.4007  
G01 X-1.6730 Y2.4017  
G01 X-1.6730 Y2.7730  
G01 X-1.6046 Y2.7730  
G01 X-1.6031 Y2.7715  
G01 X-1.5971 Y2.7675  
G01 X-1.5904 Y2.7647  
G01 X-1.5833 Y2.7633  
G01 X-1.5167 Y2.7633  
G01 X-1.5096 Y2.7647  
G01 X-1.5029 Y2.7675  
G01 X-1.4969 Y2.7715  
G01 X-1.4954 Y2.7730  
G01 X-1.3046 Y2.7730  
G01 X-1.3031 Y2.7715  
G01 X-1.2971 Y2.7675  
G01 X-1.2904 Y2.7647  
G01 X-1.2833 Y2.7633  
G01 X-1.2167 Y2.7633  
G01 X-1.2096 Y2.7647  
G01 X-1.2029 Y2.7675  
G01 X-1.1969 Y2.7715  
G01 X-1.1918 Y2.7766  
G01 X-1.1900 Y2.7793  
G01 X-0.7733 Y2.7793  
G01 X-0.7692 Y2.7737  
G01 X-0.7637 Y2.7682  
G01 X-0.7573 Y2.7635  
G01 X-0.7503 Y2.7600  
G01 X-0.7428 Y2.7575  
G01 X-0.7350 Y2.7563  
G01 X-0.7272 Y2.7563  
G01 X-0.7194 Y2.7575  
G01 X-0.7119 Y2.7600  
G01 X-0.7049 Y2.7635  
G01 X-0.6985 Y2.7682  
G01 X-0.6930 Y2.7737  
G01 X-0.6889 Y2.7793  
G01 X-0.2733 Y2.7793  
G01 X-0.2692 Y2.7737  
G01 X-0.2637 Y2.7682  
G01 X-0.2573 Y2.7635  
G01 X-0.2503 Y2.7600  
G01 X-0.2428 Y2.7575  
G01 X-0.2350 Y2.7563  
G01 X-0.2272 Y2.7563  
G01 X-0.2194 Y2.7575  
G01 X-0.2119 Y2.7600  
G01 X-0.2049 Y2.7635  
G01 X-0.1985 Y2.7682  
G01 X-0.1930 Y2.7737  
G01 X-0.1883 Y2.7801  
G01 X-0.1848 Y2.7871  
G01 X-0.1823 Y2.7946  
G01 X-0.1811 Y2.8024  
G01 X-0.1811 Y2.8102  
G01 X-0.1823 Y2.8180  
G01 X-0.1848 Y2.8255  
G01 X-0.1883 Y2.8325  
G01 X-0.1930 Y2.8389  
G01 X-0.1985 Y2.8444  
G01 X-0.2049 Y2.8491  
G01 X-0.2119 Y2.8526  
G01 X-0.2194 Y2.8551  
G01 X-0.2272 Y2.8563  
G01 X-0.2350 Y2.8563  
G01 X-0.2428 Y2.8551  
G01 X-0.2503 Y2.8526  
G01 X-0.2573 Y2.8491  
G01 X-0.2637 Y2.8444  
G01 X-0.2692 Y2.8389  
G01 X-0.2733 Y2.8333  
G01 X-0.6889 Y2.8333  
G01 X-0.6930 Y2.8389  
G01 X-0.6985 Y2.8444  
G01 X-0.7049 Y2.8491  
G01 X-0.7119 Y2.8526  
G01 X-0.7194 Y2.8551  
G01 X-0.7272 Y2.8563  
G01 X-0.7350 Y2.8563  
G01 X-0.7428 Y2.8551  
G01 X-0.7503 Y2.8526  
G01 X-0.7573 Y2.8491  
G01 X-0.7637 Y2.8444  
G01 X-0.7692 Y2.8389  
G01 X-0.7733 Y2.8333  
G01 X-1.2048 Y2.8333  
G01 X-1.2096 Y2.8353  
G01 X-1.2167 Y2.8367  
G01 X-1.2833 Y2.8367  
G01 X-1.2904 Y2.8353  
G01 X-1.2971 Y2.8325  
G01 X-1.3031 Y2.8285  
G01 X-1.3046 Y2.8270  
G01 X-1.4954 Y2.8270  
G01 X-1.4969 Y2.8285  
G01 X-1.5029 Y2.8325  
G01 X-1.5096 Y2.8353  
G01 X-1.5167 Y2.8367  
G01 X-1.5833 Y2.8367  
G01 X-1.5904 Y2.8353  
G01 X-1.5952 Y2.8333  
G01 X-1.8889 Y2.8333  
G01 X-1.8930 Y2.8389  
G01 X-1.8985 Y2.8444  
G01 X-1.9049 Y2.8491  
G01 X-1.9119 Y2.8526  
G01 X-1.9194 Y2.8551  
G01 X-1.9272 Y2.8563  
G01 X-1.9350 Y2.8563  
G01 X-1.9428 Y2.8551  
G01 X-1.9503 Y2.8526  
G01 X-1.9573 Y2.8491  
G01 X-1.9637 Y2.8444  
G01 X-1.9692 Y2.8389  
G01 X-1.9733 Y2.8333  
G01 X-2.3889 Y2.8333  
G01 X-2.3930 Y2.8389  
G01 X-2.3985 Y2.8444  
G01 X-2.4049 Y2.8491  
G01 X-2.4119 Y2.8526  
G01 X-2.4194 Y2.8551  
G01 X-2.4272 Y2.8563  
G01 X-2.4350 Y2.8563  
G01 X-2.4428 Y2.8551  
G01 X-2.4503 Y2.8526  
G01 X-2.4573 Y2.8491  
G01 X-2.4637 Y2.8444  
G01 X-2.4692 Y2.8389  
G01 X-2.4733 Y2.8333  
G01 X-2.8889 Y2.8333  
G01 X-2.8930 Y2.8389  
G01 X-2.8985 Y2.8444  
G01 X-2.9049 Y2.8491  
G01 X-2.9119 Y2.8526  
G01 X-2.9194 Y2.8551  
G01 X-2.9272 Y2.8563  
G01 X-2.9350 Y2.8563  
G01 X-2.9428 Y2.8551  
G01 X-2.9503 Y2.8526  
G01 X-2.9573 Y2.8491  
G01 X-2.9637 Y2.8444  
G01 X-2.9692 Y2.8389  
G01 X-2.9739 Y2.8325  
G01 X-2.9774 Y2.8255  
G01 X-2.9799 Y2.8180  
G01 X-2.9811 Y2.8102  
G01 X-2.9811 Y2.8024  
G01 X-2.9799 Y2.7946  
G01 X-2.9774 Y2.7871  
G01 X-2.9739 Y2.7801  
G01 X-2.9692 Y2.7737  
G01 X-2.9637 Y2.7682  
G01 X-2.9573 Y2.7635  
G01 X-2.9503 Y2.7600  
G01 X-2.9428 Y2.7575  
G01 X-2.9350 Y2.7563  
G01 X-2.9272 Y2.7563  
G01 X-2.9194 Y2.7575  
G01 X-2.9119 Y2.7600  
G01 X-2.9049 Y2.7635  
G01 X-2.8985 Y2.7682  
G01 X-2.8930 Y2.7737  
G01 X-2.8889 Y2.7793  
G01 X-2.4733 Y2.7793  
G01 X-2.4692 Y2.7737  
G01 X-2.4637 Y2.7682  
G01 X-2.4573 Y2.7635  
G01 X-2.4503 Y2.7600  
G01 X-2.4428 Y2.7575  
G01 X-2.4350 Y2.7563  
G01 X-2.4272 Y2.7563  
G01 X-2.4194 Y2.7575  
G01 X-2.4119 Y2.7600  
G01 X-2.4049 Y2.7635  
G01 X-2.3985 Y2.7682  
G01 X-2.3930 Y2.7737  
G01 X-2.3889 Y2.7793  
G01 X-1.9733 Y2.7793  
G01 X-1.9692 Y2.7737  
G01 X-1.9637 Y2.7682  
G01 X-1.9573 Y2.7635  
G01 X-1.9503 Y2.7600  
G01 X-1.9428 Y2.7575  
G01 X-1.9350 Y2.7563  
G01 X-1.9272 Y2.7563  
G01 X-1.9194 Y2.7575  
G01 X-1.9119 Y2.7600  
G01 X-1.9049 Y2.7635  
G01 X-1.8985 Y2.7682  
G01 X-1.8930 Y2.7737  
G01 X-1.8889 Y2.7793  
G01 X-1.7270 Y2.7793  
G01 X-1.7270 Y2.4064  
G01 X-1.7734 Y2.3136  
G01 X-1.7739 Y2.3128  
G01 X-1.7746 Y2.3112  
G01 X-1.7753 Y2.3097  
G01 X-1.7756 Y2.3088  
G01 X-1.7760 Y2.3079  
G01 X-1.7763 Y2.3062  
G01 X-1.7767 Y2.3046  
G01 X-1.7768 Y2.3036  
G01 X-1.7770 Y2.3027  
G01 X-1.7770 Y2.3010  
G01 X-1.7771 Y2.2993  
G01 X-1.7770 Y2.2983  
G01 X-1.7770 Y0.7973  
G01 X-1.7760 Y0.7921  
G01 X-1.7739 Y0.7872  
G01 X-1.7710 Y0.7828  
G01 X-1.5710 Y0.5828  
G01 X-1.5672 Y0.5790  
G01 X-1.5628 Y0.5761  
G01 X-1.5579 Y0.5740  
G01 X-1.5527 Y0.5730  
G01 X-1.5211 Y0.5730  
G01 X-1.5144 Y0.5662  
G01 X-1.4825 Y0.5662  
G01 X-1.4640 Y0.5847  
G01 X-1.4640 Y0.5683  
G01 X-1.4647 Y0.5679  
G01 X-1.4679 Y0.5647  
G01 X-1.4704 Y0.5609  
G01 X-1.4721 Y0.5567  
G01 X-1.4730 Y0.5523  
G01 X-1.4730 Y0.5095  
G01 X-1.6679 Y0.3147  
G01 X-1.6704 Y0.3109  
G01 X-1.6721 Y0.3067  
G01 X-1.6730 Y0.3023  
G01 X-1.6730 Y0.2584  
G01 X-1.6734 Y0.2582  
G01 X-1.6785 Y0.2531  
G01 X-1.6825 Y0.2471  
G01 X-1.6853 Y0.2404  
G01 X-1.6867 Y0.2333  
G01 X-1.6867 Y0.1667  
G01 X-1.6853 Y0.1596  
G01 X-1.6825 Y0.1529  
G01 X-1.6785 Y0.1469  
G01 X-1.6734 Y0.1418  
G01 X-1.6674 Y0.1378  
G01 X-1.6607 Y0.1350  
G01 X-1.6536 Y0.1336  
G01 X-1.6464 Y0.1336  
G01 X-1.6393 Y0.1350  
G01 X-1.6326 Y0.1378  
G01 X-1.6266 Y0.1418  
G01 X-1.6215 Y0.1469  
G01 X-1.6175 Y0.1529  
G01 X-1.6147 Y0.1596  
G01 X-1.6133 Y0.1667  
G01 X-1.6133 Y0.2333  
G01 X-1.6147 Y0.2404  
G01 X-1.6175 Y0.2471  
G01 X-1.6215 Y0.2531  
G01 X-1.6266 Y0.2582  
G01 X-1.6270 Y0.2584  
G01 X-1.6270 Y0.2905  
G01 X-1.4353 Y0.4821  
G01 X-1.4321 Y0.4853  
G01 X-1.4296 Y0.4891  
G01 X-1.4279 Y0.4933  
G01 X-1.4270 Y0.4977  
G01 X-1.4270 Y0.5523  
G01 X-1.4279 Y0.5567  
G01 X-1.4296 Y0.5609  
G01 X-1.4321 Y0.5647  
G01 X-1.4353 Y0.5679  
G01 X-1.4360 Y0.5683  
G01 X-1.4360 Y0.5863  
G01 X-1.4230 Y0.5733  
G01 X-1.4230 Y0.4595  
G01 X-1.5647 Y0.3179  
G01 X-1.5679 Y0.3147  
G01 X-1.5704 Y0.3109  
G01 X-1.5721 Y0.3067  
G01 X-1.5730 Y0.3023  
G01 X-1.5730 Y0.2584  
G01 X-1.5734 Y0.2582  
G01 X-1.5785 Y0.2531  
G01 X-1.5825 Y0.2471  
G01 X-1.5853 Y0.2404  
G01 X-1.5867 Y0.2333  
G01 X-1.5867 Y0.1667  
G01 X-1.5853 Y0.1596  
G01 X-1.5825 Y0.1529  
G01 X-1.5785 Y0.1469  
G01 X-1.5734 Y0.1418  
G01 X-1.5674 Y0.1378  
G01 X-1.5607 Y0.1350  
G01 X-1.5536 Y0.1336  
G01 X-1.5464 Y0.1336  
G01 X-1.5393 Y0.1350  
G01 X-1.5326 Y0.1378  
G01 X-1.5266 Y0.1418  
G01 X-1.5215 Y0.1469  
G01 X-1.5175 Y0.1529  
G01 X-1.5147 Y0.1596  
G01 X-1.5133 Y0.1667  
G01 X-1.5133 Y0.2333  
G01 X-1.5147 Y0.2404  
G01 X-1.5175 Y0.2471  
G01 X-1.5215 Y0.2531  
G01 X-1.5266 Y0.2582  
G01 X-1.5270 Y0.2584  
G01 X-1.5270 Y0.2905  
G01 X-1.3821 Y0.4353  
G01 X-1.3796 Y0.4391  
G01 X-1.3779 Y0.4433  
G01 X-1.3770 Y0.4477  
G01 X-1.3770 Y0.5733  
G01 X-1.3640 Y0.5863  
G01 X-1.3640 Y0.5683  
G01 X-1.3647 Y0.5679  
G01 X-1.3679 Y0.5647  
G01 X-1.3704 Y0.5609  
G01 X-1.3721 Y0.5567  
G01 X-1.3730 Y0.5523  
G01 X-1.3730 Y0.4095  
G01 X-1.4647 Y0.3179  
G01 X-1.4679 Y0.3147  
G01 X-1.4704 Y0.3109  
G01 X-1.4721 Y0.3067  
G01 X-1.4730 Y0.3023  
G01 X-1.4730 Y0.2584  
G01 X-1.4734 Y0.2582  
G01 X-1.4785 Y0.2531  
G01 X-1.4825 Y0.2471  
G01 X-1.4853 Y0.2404  
G01 X-1.4867 Y0.2333  
G01 X-1.4867 Y0.1667  
G01 X-1.4853 Y0.1596  
G01 X-1.4825 Y0.1529  
G01 X-1.4785 Y0.1469  
G01 X-1.4734 Y0.1418  
G01 X-1.4674 Y0.1378  
G01 X-1.4607 Y0.1350  
G01 X-1.4536 Y0.1336  
G01 X-1.4464 Y0.1336  
G01 X-1.4393 Y0.1350  
G01 X-1.4326 Y0.1378  
G01 X-1.4266 Y0.1418  
G01 X-1.4215 Y0.1469  
G01 X-1.4175 Y0.1529  
G01 X-1.4147 Y0.1596  
G01 X-1.4133 Y0.1667  
G01 X-1.4133 Y0.2333  
G01 X-1.4147 Y0.2404  
G01 X-1.4175 Y0.2471  
G01 X-1.4215 Y0.2531  
G01 X-1.4266 Y0.2582  
G01 X-1.4270 Y0.2584  
G01 X-1.4270 Y0.2905  
G01 X-1.3353 Y0.3821  
G01 X-1.3321 Y0.3853  
G01 X-1.3296 Y0.3891  
G01 X-1.3279 Y0.3933  
G01 X-1.3270 Y0.3977  
G01 X-1.3270 Y0.5523  
G01 X-1.3279 Y0.5567  
G01 X-1.3296 Y0.5609  
G01 X-1.3321 Y0.5647  
G01 X-1.3353 Y0.5679  
G01 X-1.3360 Y0.5683  
G01 X-1.3360 Y0.5847  
G01 X-1.3175 Y0.5662  
G01 X-1.2856 Y0.5662  
G01 X-1.2789 Y0.5730  
G01 X-1.1973 Y0.5730  
G01 X-1.1921 Y0.5740  
G01 X-1.1872 Y0.5761  
G01 X-1.1828 Y0.5790  
G01 X-1.1790 Y0.5828  
G01 X-1.0290 Y0.7328  
G01 X-1.0261 Y0.7372  
G01 X-1.0240 Y0.7421  
G01 X-1.0230 Y0.7473  
G01 X-1.0230 Y0.8230  
G01 X-0.8270 Y0.8230  
G01 X-0.8270 Y0.6473  
G01 X-0.8260 Y0.6421  
G01 X-0.8239 Y0.6372  
G01 X-0.8210 Y0.6328  
G01 X-0.8172 Y0.6290  
G01 X-0.7581 Y0.5699  
G01 X-0.7581 Y0.5359  
G01 X-0.7637 Y0.5318  
G01 X-0.7692 Y0.5263  
G01 X-0.7739 Y0.5199  
G01 X-0.7774 Y0.5129  
G01 X-0.7799 Y0.5054  
G01 X-0.7811 Y0.4976  
G01 X-0.7811 Y0.4898  
G01 X-0.7799 Y0.4820  
G01 X-0.7774 Y0.4745  
G01 X-0.7739 Y0.4675  
G01 X-0.7692 Y0.4611  
G01 X-0.7637 Y0.4556  
G01 X-0.7573 Y0.4509  
G01 X-0.7503 Y0.4474  
G01 X-0.7428 Y0.4449  
G01 X-0.7350 Y0.4437  
G01 X-0.7272 Y0.4437  
G01 X-0.7194 Y0.4449  
G01 X-0.7119 Y0.4474  
G01 X-0.7049 Y0.4509  
G01 X-0.6985 Y0.4556  
G01 X-0.6930 Y0.4611  
G01 X-0.6883 Y0.4675  
G01 X-0.6848 Y0.4745  
G01 X-0.6823 Y0.4820  
G01 X-0.6811 Y0.4898  
G01 X-0.6811 Y0.4976  
G01 X-0.6823 Y0.5054  
G01 X-0.6848 Y0.5129  
G01 X-0.6883 Y0.5199  
G01 X-0.6930 Y0.5263  
G01 X-0.6985 Y0.5318  
G01 X-0.7041 Y0.5359  
G01 X-0.7041 Y0.5838  
G01 X-0.7051 Y0.5890  
G01 X-0.7072 Y0.5939  
G01 X-0.7101 Y0.5983  
G01 X-0.7730 Y0.6612  
G01 X-0.7730 Y0.8230  
G01 X-0.4612 Y0.8230  
G01 X-0.2581 Y0.6199  
G01 X-0.2581 Y0.5359  
G01 X-0.2637 Y0.5318  
G01 X-0.2692 Y0.5263  
G01 X-0.2739 Y0.5199  
G01 X-0.2774 Y0.5129  
G01 X-0.2799 Y0.5054  
G01 X-0.2811 Y0.4976  
G01 X-0.2811 Y0.4898  
G01 X-0.2799 Y0.4820  
G01 X-0.2774 Y0.4745  
G01 X-0.2770 Y0.4736  
G01 X-0.2770 Y0.2600  
G01 X-0.4124 Y0.1020  
G01 X-2.8383 Y0.1020  
G01 X-3.1730 Y0.4606  
G01 X-3.1730 Y0.5083  
G01 X-3.0436 Y0.5730  
G01 X-3.0112 Y0.5730  
G01 X-2.9668 Y0.5287  
G01 X-2.9692 Y0.5263  
G01 X-2.9739 Y0.5199  
G01 X-2.9774 Y0.5129  
G01 X-2.9799 Y0.5054  
G01 X-2.9811 Y0.4976  
G01 X-2.9811 Y0.4898  
G01 X-2.9799 Y0.4820  
G01 X-2.9774 Y0.4745  
G01 X-2.9739 Y0.4675  
G01 X-2.9692 Y0.4611  
G01 X-2.9637 Y0.4556  
G01 X-2.9573 Y0.4509  
G01 X-2.9503 Y0.4474  
G01 X-2.9428 Y0.4449  
G01 X-2.9350 Y0.4437  
G01 X-2.9272 Y0.4437  
G01 X-2.9194 Y0.4449  
G01 X-2.9119 Y0.4474  
G01 X-2.9049 Y0.4509  
G01 X-2.8985 Y0.4556  
G01 X-2.8930 Y0.4611  
G01 X-2.8883 Y0.4675  
G01 X-2.8848 Y0.4745  
G01 X-2.8823 Y0.4820  
G01 X-2.8811 Y0.4898  
G01 X-2.8811 Y0.4976  
G01 X-2.8823 Y0.5054  
G01 X-2.8848 Y0.5129  
G01 X-2.8883 Y0.5199  
G01 X-2.8930 Y0.5263  
G01 X-2.8985 Y0.5318  
G01 X-2.9046 Y0.5362  
G01 X-2.9051 Y0.5390  
G01 X-2.9072 Y0.5439  
G01 X-2.9101 Y0.5483  
G01 X-2.9730 Y0.6112  
G01 X-2.9730 Y0.7388  
G01 X-2.8888 Y0.8230  
G01 X-2.5270 Y0.8230  
G01 X-2.5270 Y0.6473  
G01 X-2.5260 Y0.6421  
G01 X-2.5239 Y0.6372  
G01 X-2.5210 Y0.6328  
G01 X-2.5172 Y0.6290  
G01 X-2.4581 Y0.5699  
G01 X-2.4581 Y0.5359  
G01 X-2.4637 Y0.5318  
G01 X-2.4692 Y0.5263  
G01 X-2.4739 Y0.5199  
G01 X-2.4774 Y0.5129  
G01 X-2.4799 Y0.5054  
G01 X-2.4811 Y0.4976  
G01 X-2.4811 Y0.4898  
G01 X-2.4799 Y0.4820  
G01 X-2.4774 Y0.4745  
G01 X-2.4739 Y0.4675  
G01 X-2.4692 Y0.4611  
G01 X-2.4637 Y0.4556  
G01 X-2.4573 Y0.4509  
G01 X-2.4503 Y0.4474  
G01 X-2.4428 Y0.4449  
G01 X-2.4350 Y0.4437  
G01 X-2.4272 Y0.4437  
G01 X-2.4194 Y0.4449  
G01 X-2.4119 Y0.4474  
G01 X-2.4049 Y0.4509  
G01 X-2.3985 Y0.4556  
G01 X-2.3930 Y0.4611  
G01 X-2.3883 Y0.4675  
G01 X-2.3848 Y0.4745  
G01 X-2.3823 Y0.4820  
G01 X-2.3811 Y0.4898  
G01 X-2.3811 Y0.4976  
G01 X-2.3823 Y0.5054  
G01 X-2.3848 Y0.5129  
G01 X-2.3883 Y0.5199  
G01 X-2.3930 Y0.5263  
G01 X-2.3985 Y0.5318  
G01 X-2.4041 Y0.5359  
G01 X-2.4041 Y0.5838  
G01 X-2.4051 Y0.5890  
G01 X-2.4072 Y0.5939  
G01 X-2.4101 Y0.5983  
G01 X-2.4730 Y0.6612  
G01 X-2.4730 Y0.8230  
G01 X-2.1612 Y0.8230  
G01 X-1.9581 Y0.6199  
G01 X-1.9581 Y0.5359  
G01 X-1.9637 Y0.5318  
G01 X-1.9692 Y0.5263  
G01 X-1.9739 Y0.5199  
G01 X-1.9774 Y0.5129  
G01 X-1.9799 Y0.5054  
G01 X-1.9811 Y0.4976  
G01 X-1.9811 Y0.4898  
G01 X-1.9799 Y0.4820  
G01 X-1.9774 Y0.4745  
G01 X-1.9739 Y0.4675  
G01 X-1.9692 Y0.4611  
G01 X-1.9637 Y0.4556  
G01 X-1.9573 Y0.4509  
G01 X-1.9503 Y0.4474  
G01 X-1.9428 Y0.4449  
G01 X-1.9350 Y0.4437  
G01 X-1.9272 Y0.4437  
G01 X-1.9194 Y0.4449  
G01 X-1.9119 Y0.4474  
G01 X-1.9049 Y0.4509  
G01 X-1.8985 Y0.4556  
G01 X-1.8930 Y0.4611  
G01 X-1.8883 Y0.4675  
G01 X-1.8848 Y0.4745  
G01 X-1.8823 Y0.4820  
G01 X-1.8811 Y0.4898  
G01 X-1.8811 Y0.4976  
G01 X-1.8823 Y0.5054  
G01 X-1.8848 Y0.5129  
G01 X-1.8883 Y0.5199  
G01 X-1.8930 Y0.5263  
G01 X-1.8985 Y0.5318  
G01 X-1.9041 Y0.5359  
G01 X-1.9041 Y0.6338  
G01 X-1.9051 Y0.6390  
G01 X-1.9072 Y0.6439  
G01 X-1.9101 Y0.6483  
G01 X-2.1290 Y0.8672  
G01 X-2.1328 Y0.8710  
G01 X-2.1372 Y0.8739  
G01 X-2.1421 Y0.8760  
G01 X-2.1473 Y0.8770  
G01 X-2.9027 Y0.8770  
G01 X-2.9079 Y0.8760  
G01 X-2.9128 Y0.8739  
G01 X-2.9172 Y0.8710  
G01 X-3.0172 Y0.7710  
G01 X-3.0210 Y0.7672  
G01 X-3.0239 Y0.7628  
G01 X-3.0260 Y0.7579  
G01 X-3.0270 Y0.7527  
G01 X-3.0270 Y0.6270  
G01 X-3.0483 Y0.6270  
G01 X-3.0493 Y0.6271  
G01 X-3.0510 Y0.6270  
G01 X-3.0527 Y0.6270  
G01 X-3.0536 Y0.6268  
G01 X-3.0546 Y0.6267  
G01 X-3.0562 Y0.6263  
G01 X-3.0579 Y0.6260  
G01 X-3.0588 Y0.6256  
G01 X-3.0597 Y0.6253  
G01 X-3.0612 Y0.6246  
G01 X-3.0628 Y0.6239  
G01 X-3.0636 Y0.6234  
G01 X-3.2112 Y0.5496  
G01 X-3.2128 Y0.5489  
G01 X-3.2136 Y0.5484  
G01 X-3.2145 Y0.5480  
G01 X-3.2158 Y0.5469  
G01 X-3.2172 Y0.5460  
G01 X-3.2179 Y0.5453  
G01 X-3.2187 Y0.5447  
G01 X-3.2198 Y0.5434  
G01 X-3.2210 Y0.5422  
G01 X-3.2215 Y0.5414  
G01 X-3.2221 Y0.5407  
G01 X-3.2230 Y0.5392  
G01 X-3.2239 Y0.5378  
G01 X-3.2243 Y0.5369  
G01 X-3.2248 Y0.5361  
G01 X-3.2253 Y0.5344  
G01 X-3.2260 Y0.5329  
G01 X-3.2262 Y0.5319  
G01 X-3.2265 Y0.5310  
G01 X-3.2267 Y0.5293  
G01 X-3.2270 Y0.5277  
G01 X-3.2270 Y0.5267  
G01 X-3.2271 Y0.5257  
G01 X-3.2270 Y0.5240  
G01 X-3.2270 Y0.4505  
G01 X-3.2271 Y0.4483  
G01 X-3.2270 Y0.4478  
G01 X-3.2270 Y0.4473  
G01 X-3.2266 Y0.4452  
G01 X-3.2262 Y0.4430  
G01 X-3.2261 Y0.4426  
G01 X-3.2260 Y0.4421  
G01 X-3.2251 Y0.4401  
G01 X-3.2244 Y0.4380  
G01 X-3.2241 Y0.4376  
G01 X-3.2239 Y0.4372  
G01 X-3.2227 Y0.4354  
G01 X-3.2216 Y0.4335  
G01 X-3.2212 Y0.4332  
G01 X-3.2210 Y0.4328  
G01 X-3.2194 Y0.4312  
G01 X-2.8712 Y0.0582  
G01 X-2.8710 Y0.0578  
G01 X-2.8694 Y0.0562  
G01 X-2.8679 Y0.0546  
G01 X-2.8675 Y0.0544  
G01 X-2.8672 Y0.0540  
G01 X-2.8654 Y0.0528  
G01 X-2.8636 Y0.0515  
G01 X-2.8632 Y0.0513  
G01 X-2.8628 Y0.0511  
G01 X-2.8608 Y0.0502  
G01 X-2.8588 Y0.0493  
G01 X-2.8583 Y0.0492  
G01 X-2.8579 Y0.0490  
G01 X-2.8557 Y0.0486  
G01 X-2.8536 Y0.0481  
G01 X-2.8531 Y0.0481  
G01 X-2.8527 Y0.0480  
G01 X-2.8505 Y0.0480  
G01 X-2.8483 Y0.0479  
G01 X-2.8478 Y0.0480  
G01 X-0.4016 Y0.0480  
G01 X-0.4006 Y0.0479  
G01 X-0.3990 Y0.0480  
G01 X-0.3973 Y0.0480  
G01 X-0.3963 Y0.0482  
G01 X-0.3953 Y0.0483  
G01 X-0.3937 Y0.0487  
G01 X-0.3921 Y0.0490  
G01 X-0.3912 Y0.0494  
G01 X-0.3902 Y0.0497  
G01 X-0.3887 Y0.0505  
G01 X-0.3872 Y0.0511  
G01 X-0.3863 Y0.0517  
G01 X-0.3854 Y0.0521  
G01 X-0.3841 Y0.0531  
G01 X-0.3828 Y0.0540  
G01 X-0.3821 Y0.0548  
G01 X-0.3812 Y0.0554  
G00 Z0.0500  
G00 X-0.3821 Y0.3853  
G01 Z-0.0030 F10    
G01 X-0.3796 Y0.3891  F20    
G01 X-0.3779 Y0.3933  
G01 X-0.3770 Y0.3977  
G01 X-0.3770 Y0.4444  
G01 X-0.3728 Y0.4437  
G01 X-0.3650 Y0.4437  
G01 X-0.3572 Y0.4449  
G01 X-0.3497 Y0.4474  
G01 X-0.3427 Y0.4509  
G01 X-0.3363 Y0.4556  
G01 X-0.3308 Y0.4611  
G01 X-0.3261 Y0.4675  
G01 X-0.3226 Y0.4745  
G01 X-0.3201 Y0.4820  
G01 X-0.3189 Y0.4898  
G01 X-0.3189 Y0.4976  
G01 X-0.3201 Y0.5054  
G01 X-0.3226 Y0.5129  
G01 X-0.3261 Y0.5199  
G01 X-0.3308 Y0.5263  
G01 X-0.3363 Y0.5318  
G01 X-0.3427 Y0.5365  
G01 X-0.3497 Y0.5400  
G01 X-0.3572 Y0.5425  
G01 X-0.3650 Y0.5437  
G01 X-0.3728 Y0.5437  
G01 X-0.3806 Y0.5425  
G01 X-0.3881 Y0.5400  
G01 X-0.3951 Y0.5365  
G01 X-0.4015 Y0.5318  
G01 X-0.4070 Y0.5263  
G01 X-0.4117 Y0.5199  
G01 X-0.4152 Y0.5129  
G01 X-0.4177 Y0.5054  
G01 X-0.4189 Y0.4976  
G01 X-0.4189 Y0.4898  
G01 X-0.4177 Y0.4820  
G01 X-0.4166 Y0.4786  
G01 X-0.4179 Y0.4773  
G01 X-0.4204 Y0.4735  
G01 X-0.4221 Y0.4693  
G01 X-0.4230 Y0.4649  
G01 X-0.4230 Y0.4095  
G01 X-0.6095 Y0.2230  
G01 X-1.2133 Y0.2230  
G01 X-1.2133 Y0.2333  
G01 X-1.2147 Y0.2404  
G01 X-1.2175 Y0.2471  
G01 X-1.2215 Y0.2531  
G01 X-1.2266 Y0.2582  
G01 X-1.2326 Y0.2622  
G01 X-1.2393 Y0.2650  
G01 X-1.2464 Y0.2664  
G01 X-1.2536 Y0.2664  
G01 X-1.2607 Y0.2650  
G01 X-1.2674 Y0.2622  
G01 X-1.2734 Y0.2582  
G01 X-1.2785 Y0.2531  
G01 X-1.2825 Y0.2471  
G01 X-1.2853 Y0.2404  
G01 X-1.2867 Y0.2333  
G01 X-1.2867 Y0.1667  
G01 X-1.2853 Y0.1596  
G01 X-1.2825 Y0.1529  
G01 X-1.2785 Y0.1469  
G01 X-1.2734 Y0.1418  
G01 X-1.2674 Y0.1378  
G01 X-1.2607 Y0.1350  
G01 X-1.2536 Y0.1336  
G01 X-1.2464 Y0.1336  
G01 X-1.2393 Y0.1350  
G01 X-1.2326 Y0.1378  
G01 X-1.2266 Y0.1418  
G01 X-1.2215 Y0.1469  
G01 X-1.2175 Y0.1529  
G01 X-1.2147 Y0.1596  
G01 X-1.2133 Y0.1667  
G01 X-1.2133 Y0.1770  
G01 X-0.5977 Y0.1770  
G01 X-0.5933 Y0.1779  
G01 X-0.5891 Y0.1796  
G01 X-0.5853 Y0.1821  
G01 X-0.3853 Y0.3821  
G01 X-0.3821 Y0.3853  
G00 Z0.0500  
G00 X-0.4217 Y0.6198  
G01 Z-0.0030 F10    
G01 X-0.4164 Y0.6271  F20    
G01 X-0.4123 Y0.6351  
G01 X-0.4096 Y0.6437  
G01 X-0.4082 Y0.6526  
G01 X-0.4082 Y0.6616  
G01 X-0.4096 Y0.6705  
G01 X-0.4123 Y0.6790  
G01 X-0.4164 Y0.6871  
G01 X-0.4217 Y0.6943  
G01 X-0.4281 Y0.7007  
G01 X-0.4354 Y0.7060  
G01 X-0.4434 Y0.7101  
G01 X-0.4520 Y0.7129  
G01 X-0.4609 Y0.7143  
G01 X-0.4699 Y0.7143  
G01 X-0.4787 Y0.7129  
G01 X-0.4873 Y0.7101  
G01 X-0.4953 Y0.7060  
G01 X-0.5026 Y0.7007  
G01 X-0.5090 Y0.6943  
G01 X-0.5143 Y0.6871  
G01 X-0.5184 Y0.6790  
G01 X-0.5211 Y0.6705  
G01 X-0.5226 Y0.6616  
G01 X-0.5226 Y0.6526  
G01 X-0.5211 Y0.6437  
G01 X-0.5184 Y0.6351  
G01 X-0.5143 Y0.6271  
G01 X-0.5090 Y0.6198  
G01 X-0.5026 Y0.6135  
G01 X-0.4953 Y0.6082  
G01 X-0.4873 Y0.6041  
G01 X-0.4787 Y0.6013  
G01 X-0.4699 Y0.5999  
G01 X-0.4609 Y0.5999  
G01 X-0.4520 Y0.6013  
G01 X-0.4434 Y0.6041  
G01 X-0.4354 Y0.6082  
G01 X-0.4281 Y0.6135  
G01 X-0.4217 Y0.6198  
G00 Z0.0500  
G00 X-0.5910 Y0.6671  
G01 Z-0.0030 F10    
G01 X-0.5857 Y0.6744  F20    
G01 X-0.5816 Y0.6824  
G01 X-0.5789 Y0.6909  
G01 X-0.5774 Y0.6998  
G01 X-0.5774 Y0.7088  
G01 X-0.5789 Y0.7177  
G01 X-0.5816 Y0.7263  
G01 X-0.5857 Y0.7343  
G01 X-0.5910 Y0.7416  
G01 X-0.5974 Y0.7480  
G01 X-0.6047 Y0.7532  
G01 X-0.6127 Y0.7573  
G01 X-0.6213 Y0.7601  
G01 X-0.6301 Y0.7615  
G01 X-0.6391 Y0.7615  
G01 X-0.6480 Y0.7601  
G01 X-0.6566 Y0.7573  
G01 X-0.6646 Y0.7532  
G01 X-0.6719 Y0.7480  
G01 X-0.6783 Y0.7416  
G01 X-0.6836 Y0.7343  
G01 X-0.6877 Y0.7263  
G01 X-0.6904 Y0.7177  
G01 X-0.6918 Y0.7088  
G01 X-0.6918 Y0.6998  
G01 X-0.6904 Y0.6909  
G01 X-0.6877 Y0.6824  
G01 X-0.6836 Y0.6744  
G01 X-0.6783 Y0.6671  
G01 X-0.6719 Y0.6607  
G01 X-0.6646 Y0.6554  
G01 X-0.6566 Y0.6513  
G01 X-0.6480 Y0.6485  
G01 X-0.6391 Y0.6471  
G01 X-0.6301 Y0.6471  
G01 X-0.6213 Y0.6485  
G01 X-0.6127 Y0.6513  
G01 X-0.6047 Y0.6554  
G01 X-0.5974 Y0.6607  
G01 X-0.5910 Y0.6671  
G00 Z0.0500  
G00 X-0.9096 Y0.6705  
G01 Z-0.0030 F10    
G01 X-0.9123 Y0.6790  F20    
G01 X-0.9164 Y0.6871  
G01 X-0.9217 Y0.6943  
G01 X-0.9281 Y0.7007  
G01 X-0.9354 Y0.7060  
G01 X-0.9434 Y0.7101  
G01 X-0.9520 Y0.7129  
G01 X-0.9609 Y0.7143  
G01 X-0.9699 Y0.7143  
G01 X-0.9787 Y0.7129  
G01 X-0.9873 Y0.7101  
G01 X-0.9953 Y0.7060  
G01 X-1.0026 Y0.7007  
G01 X-1.0090 Y0.6943  
G01 X-1.0143 Y0.6871  
G01 X-1.0184 Y0.6790  
G01 X-1.0211 Y0.6705  
G01 X-1.0226 Y0.6616  
G01 X-1.0226 Y0.6526  
G01 X-1.0211 Y0.6437  
G01 X-1.0184 Y0.6351  
G01 X-1.0143 Y0.6271  
G01 X-1.0090 Y0.6198  
G01 X-1.0026 Y0.6135  
G01 X-0.9953 Y0.6082  
G01 X-0.9873 Y0.6041  
G01 X-0.9787 Y0.6013  
G01 X-0.9699 Y0.5999  
G01 X-0.9609 Y0.5999  
G01 X-0.9520 Y0.6013  
G01 X-0.9434 Y0.6041  
G01 X-0.9354 Y0.6082  
G01 X-0.9281 Y0.6135  
G01 X-0.9217 Y0.6198  
G01 X-0.9164 Y0.6271  
G01 X-0.9123 Y0.6351  
G01 X-0.9096 Y0.6437  
G01 X-0.9082 Y0.6526  
G01 X-0.9082 Y0.6616  
G01 X-0.9096 Y0.6705  
G00 Z0.0500  
G00 X-0.9070 Y0.5263  
G01 Z-0.0030 F10    
G01 X-0.9117 Y0.5199  F20    
G01 X-0.9152 Y0.5129  
G01 X-0.9177 Y0.5054  
G01 X-0.9189 Y0.4976  
G01 X-0.9189 Y0.4898  
G01 X-0.9177 Y0.4820  
G01 X-0.9152 Y0.4745  
G01 X-0.9117 Y0.4675  
G01 X-0.9070 Y0.4611  
G01 X-0.9015 Y0.4556  
G01 X-0.8951 Y0.4509  
G01 X-0.8919 Y0.4493  
G01 X-0.8919 Y0.4406  
G01 X-0.9595 Y0.3730  
G01 X-1.2523 Y0.3730  
G01 X-1.2567 Y0.3721  
G01 X-1.2609 Y0.3704  
G01 X-1.2647 Y0.3679  
G01 X-1.3647 Y0.2679  
G01 X-1.3679 Y0.2647  
G01 X-1.3704 Y0.2609  
G01 X-1.3708 Y0.2599  
G01 X-1.3734 Y0.2582  
G01 X-1.3785 Y0.2531  
G01 X-1.3825 Y0.2471  
G01 X-1.3853 Y0.2404  
G01 X-1.3867 Y0.2333  
G01 X-1.3867 Y0.1667  
G01 X-1.3853 Y0.1596  
G01 X-1.3825 Y0.1529  
G01 X-1.3785 Y0.1469  
G01 X-1.3734 Y0.1418  
G01 X-1.3674 Y0.1378  
G01 X-1.3607 Y0.1350  
G01 X-1.3536 Y0.1336  
G01 X-1.3464 Y0.1336  
G01 X-1.3393 Y0.1350  
G01 X-1.3326 Y0.1378  
G01 X-1.3266 Y0.1418  
G01 X-1.3215 Y0.1469  
G01 X-1.3175 Y0.1529  
G01 X-1.3147 Y0.1596  
G01 X-1.3133 Y0.1667  
G01 X-1.3133 Y0.2333  
G01 X-1.3147 Y0.2404  
G01 X-1.3175 Y0.2471  
G01 X-1.3187 Y0.2488  
G01 X-1.2405 Y0.3270  
G01 X-0.9477 Y0.3270  
G01 X-0.9433 Y0.3279  
G01 X-0.9391 Y0.3296  
G01 X-0.9353 Y0.3321  
G01 X-0.9321 Y0.3353  
G01 X-0.8510 Y0.4164  
G01 X-0.8485 Y0.4202  
G01 X-0.8468 Y0.4244  
G01 X-0.8459 Y0.4288  
G01 X-0.8459 Y0.4493  
G01 X-0.8427 Y0.4509  
G01 X-0.8363 Y0.4556  
G01 X-0.8308 Y0.4611  
G01 X-0.8261 Y0.4675  
G01 X-0.8226 Y0.4745  
G01 X-0.8201 Y0.4820  
G01 X-0.8189 Y0.4898  
G01 X-0.8189 Y0.4976  
G01 X-0.8201 Y0.5054  
G01 X-0.8226 Y0.5129  
G01 X-0.8261 Y0.5199  
G01 X-0.8308 Y0.5263  
G01 X-0.8363 Y0.5318  
G01 X-0.8427 Y0.5365  
G01 X-0.8497 Y0.5400  
G01 X-0.8572 Y0.5425  
G01 X-0.8650 Y0.5437  
G01 X-0.8728 Y0.5437  
G01 X-0.8806 Y0.5425  
G01 X-0.8881 Y0.5400  
G01 X-0.8951 Y0.5365  
G01 X-0.9015 Y0.5318  
G01 X-0.9070 Y0.5263  
G00 Z0.0500  
G00 X-1.2112 Y0.6270  
G01 Z-0.0030 F10    
G01 X-1.2694 Y0.6270  F20    
G01 X-1.2856 Y0.6432  
G01 X-1.3175 Y0.6432  
G01 X-1.3360 Y0.6247  
G01 X-1.3360 Y0.6317  
G01 X-1.3353 Y0.6321  
G01 X-1.3321 Y0.6353  
G01 X-1.3296 Y0.6391  
G01 X-1.3279 Y0.6433  
G01 X-1.3270 Y0.6477  
G01 X-1.3270 Y1.2023  
G01 X-1.3279 Y1.2067  
G01 X-1.3296 Y1.2109  
G01 X-1.3321 Y1.2147  
G01 X-1.3353 Y1.2179  
G01 X-1.3360 Y1.2183  
G01 X-1.3360 Y1.2347  
G01 X-1.3175 Y1.2162  
G01 X-1.2856 Y1.2162  
G01 X-1.2741 Y1.2277  
G01 X-1.0770 Y1.2277  
G01 X-1.0770 Y0.7612  
G01 X-1.2112 Y0.6270  
G00 Z0.0500  
G00 X-1.3640 Y0.6232  
G01 Z-0.0030 F10    
G01 X-1.3841 Y0.6432  F20    
G01 X-1.4159 Y0.6432  
G01 X-1.4360 Y0.6232  
G01 X-1.4360 Y0.6317  
G01 X-1.4353 Y0.6321  
G01 X-1.4321 Y0.6353  
G01 X-1.4296 Y0.6391  
G01 X-1.4279 Y0.6433  
G01 X-1.4270 Y0.6477  
G01 X-1.4270 Y1.1405  
G01 X-1.3853 Y1.1821  
G01 X-1.3821 Y1.1853  
G01 X-1.3796 Y1.1891  
G01 X-1.3779 Y1.1933  
G01 X-1.3770 Y1.1977  
G01 X-1.3770 Y1.2233  
G01 X-1.3640 Y1.2363  
G01 X-1.3640 Y1.2183  
G01 X-1.3647 Y1.2179  
G01 X-1.3679 Y1.2147  
G01 X-1.3704 Y1.2109  
G01 X-1.3721 Y1.2067  
G01 X-1.3730 Y1.2023  
G01 X-1.3730 Y0.6477  
G01 X-1.3721 Y0.6433  
G01 X-1.3704 Y0.6391  
G01 X-1.3679 Y0.6353  
G01 X-1.3647 Y0.6321  
G01 X-1.3640 Y0.6317  
G01 X-1.3640 Y0.6232  
G00 Z0.0500  
G00 X-1.2594 Y0.8726  
G01 Z-0.0030 F10    
G01 X-1.2207 Y0.8339  F20    
G01 X-1.1659 Y0.8339  
G01 X-1.1273 Y0.8726  
G01 X-1.1273 Y0.9274  
G01 X-1.1659 Y0.9661  
G01 X-1.2207 Y0.9661  
G01 X-1.2594 Y0.9274  
G01 X-1.2594 Y0.8726  
G00 Z0.0500  
G00 X-1.5406 Y0.8726  
G01 Z-0.0030 F10    
G01 X-1.5406 Y0.9274  F20    
G01 X-1.5793 Y0.9661  
G01 X-1.6341 Y0.9661  
G01 X-1.6727 Y0.9274  
G01 X-1.6727 Y0.8726  
G01 X-1.6341 Y0.8339  
G01 X-1.5793 Y0.8339  
G01 X-1.5406 Y0.8726  
G00 Z0.0500  
G00 X-1.7974 Y0.7480  
G01 Z-0.0030 F10    
G01 X-1.8047 Y0.7532  F20    
G01 X-1.8127 Y0.7573  
G01 X-1.8213 Y0.7601  
G01 X-1.8301 Y0.7615  
G01 X-1.8391 Y0.7615  
G01 X-1.8480 Y0.7601  
G01 X-1.8566 Y0.7573  
G01 X-1.8646 Y0.7532  
G01 X-1.8719 Y0.7480  
G01 X-1.8783 Y0.7416  
G01 X-1.8836 Y0.7343  
G01 X-1.8877 Y0.7263  
G01 X-1.8904 Y0.7177  
G01 X-1.8918 Y0.7088  
G01 X-1.8918 Y0.6998  
G01 X-1.8904 Y0.6909  
G01 X-1.8877 Y0.6824  
G01 X-1.8836 Y0.6744  
G01 X-1.8783 Y0.6671  
G01 X-1.8719 Y0.6607  
G01 X-1.8646 Y0.6554  
G01 X-1.8566 Y0.6513  
G01 X-1.8480 Y0.6485  
G01 X-1.8391 Y0.6471  
G01 X-1.8301 Y0.6471  
G01 X-1.8213 Y0.6485  
G01 X-1.8127 Y0.6513  
G01 X-1.8047 Y0.6554  
G01 X-1.7974 Y0.6607  
G01 X-1.7910 Y0.6671  
G01 X-1.7857 Y0.6744  
G01 X-1.7816 Y0.6824  
G01 X-1.7789 Y0.6909  
G01 X-1.7774 Y0.6998  
G01 X-1.7774 Y0.7088  
G01 X-1.7789 Y0.7177  
G01 X-1.7816 Y0.7263  
G01 X-1.7857 Y0.7343  
G01 X-1.7910 Y0.7416  
G01 X-1.7974 Y0.7480  
G00 Z0.0500  
G00 X-1.7977 Y0.4230  
G01 Z-0.0030 F10    
G01 X-1.9657 Y0.4230  F20    
G01 X-2.0212 Y0.4786  
G01 X-2.0201 Y0.4820  
G01 X-2.0189 Y0.4898  
G01 X-2.0189 Y0.4976  
G01 X-2.0201 Y0.5054  
G01 X-2.0226 Y0.5129  
G01 X-2.0261 Y0.5199  
G01 X-2.0308 Y0.5263  
G01 X-2.0363 Y0.5318  
G01 X-2.0427 Y0.5365  
G01 X-2.0497 Y0.5400  
G01 X-2.0572 Y0.5425  
G01 X-2.0650 Y0.5437  
G01 X-2.0728 Y0.5437  
G01 X-2.0806 Y0.5425  
G01 X-2.0881 Y0.5400  
G01 X-2.0951 Y0.5365  
G01 X-2.1015 Y0.5318  
G01 X-2.1070 Y0.5263  
G01 X-2.1117 Y0.5199  
G01 X-2.1152 Y0.5129  
G01 X-2.1177 Y0.5054  
G01 X-2.1189 Y0.4976  
G01 X-2.1189 Y0.4898  
G01 X-2.1177 Y0.4820  
G01 X-2.1152 Y0.4745  
G01 X-2.1117 Y0.4675  
G01 X-2.1070 Y0.4611  
G01 X-2.1015 Y0.4556  
G01 X-2.0951 Y0.4509  
G01 X-2.0881 Y0.4474  
G01 X-2.0806 Y0.4449  
G01 X-2.0728 Y0.4437  
G01 X-2.0650 Y0.4437  
G01 X-2.0572 Y0.4449  
G01 X-2.0538 Y0.4460  
G01 X-1.9899 Y0.3821  
G01 X-1.9861 Y0.3796  
G01 X-1.9819 Y0.3779  
G01 X-1.9775 Y0.3770  
G01 X-1.8095 Y0.3770  
G01 X-1.7730 Y0.3405  
G01 X-1.7730 Y0.2584  
G01 X-1.7734 Y0.2582  
G01 X-1.7785 Y0.2531  
G01 X-1.7825 Y0.2471  
G01 X-1.7853 Y0.2404  
G01 X-1.7867 Y0.2333  
G01 X-1.7867 Y0.1667  
G01 X-1.7853 Y0.1596  
G01 X-1.7825 Y0.1529  
G01 X-1.7785 Y0.1469  
G01 X-1.7734 Y0.1418  
G01 X-1.7674 Y0.1378  
G01 X-1.7607 Y0.1350  
G01 X-1.7536 Y0.1336  
G01 X-1.7464 Y0.1336  
G01 X-1.7393 Y0.1350  
G01 X-1.7326 Y0.1378  
G01 X-1.7266 Y0.1418  
G01 X-1.7215 Y0.1469  
G01 X-1.7175 Y0.1529  
G01 X-1.7147 Y0.1596  
G01 X-1.7133 Y0.1667  
G01 X-1.7133 Y0.2333  
G01 X-1.7147 Y0.2404  
G01 X-1.7175 Y0.2471  
G01 X-1.7215 Y0.2531  
G01 X-1.7266 Y0.2582  
G01 X-1.7270 Y0.2584  
G01 X-1.7270 Y0.3523  
G01 X-1.7279 Y0.3567  
G01 X-1.7296 Y0.3609  
G01 X-1.7321 Y0.3647  
G01 X-1.7821 Y0.4147  
G01 X-1.7853 Y0.4179  
G01 X-1.7891 Y0.4204  
G01 X-1.7933 Y0.4221  
G01 X-1.7977 Y0.4230  
G00 Z0.0500  
G00 X-1.8853 Y0.3179  
G01 Z-0.0030 F10    
G01 X-1.8891 Y0.3204  F20    
G01 X-1.8933 Y0.3221  
G01 X-1.8977 Y0.3230  
G01 X-2.4348 Y0.3230  
G01 X-2.5230 Y0.4112  
G01 X-2.5230 Y0.4736  
G01 X-2.5226 Y0.4745  
G01 X-2.5201 Y0.4820  
G01 X-2.5189 Y0.4898  
G01 X-2.5189 Y0.4976  
G01 X-2.5201 Y0.5054  
G01 X-2.5226 Y0.5129  
G01 X-2.5261 Y0.5199  
G01 X-2.5308 Y0.5263  
G01 X-2.5363 Y0.5318  
G01 X-2.5427 Y0.5365  
G01 X-2.5497 Y0.5400  
G01 X-2.5572 Y0.5425  
G01 X-2.5650 Y0.5437  
G01 X-2.5728 Y0.5437  
G01 X-2.5806 Y0.5425  
G01 X-2.5881 Y0.5400  
G01 X-2.5951 Y0.5365  
G01 X-2.6015 Y0.5318  
G01 X-2.6070 Y0.5263  
G01 X-2.6117 Y0.5199  
G01 X-2.6152 Y0.5129  
G01 X-2.6177 Y0.5054  
G01 X-2.6189 Y0.4976  
G01 X-2.6189 Y0.4898  
G01 X-2.6177 Y0.4820  
G01 X-2.6152 Y0.4745  
G01 X-2.6117 Y0.4675  
G01 X-2.6070 Y0.4611  
G01 X-2.6015 Y0.4556  
G01 X-2.5951 Y0.4509  
G01 X-2.5881 Y0.4474  
G01 X-2.5806 Y0.4449  
G01 X-2.5770 Y0.4444  
G01 X-2.5770 Y0.3973  
G01 X-2.5760 Y0.3921  
G01 X-2.5739 Y0.3872  
G01 X-2.5710 Y0.3828  
G01 X-2.5672 Y0.3790  
G01 X-2.4672 Y0.2790  
G01 X-2.4628 Y0.2761  
G01 X-2.4579 Y0.2740  
G01 X-2.4527 Y0.2730  
G01 X-2.4473 Y0.2730  
G01 X-2.4421 Y0.2740  
G01 X-2.4372 Y0.2761  
G01 X-2.4358 Y0.2770  
G01 X-1.9095 Y0.2770  
G01 X-1.8813 Y0.2488  
G01 X-1.8825 Y0.2471  
G01 X-1.8853 Y0.2404  
G01 X-1.8867 Y0.2333  
G01 X-1.8867 Y0.1667  
G01 X-1.8853 Y0.1596  
G01 X-1.8825 Y0.1529  
G01 X-1.8785 Y0.1469  
G01 X-1.8734 Y0.1418  
G01 X-1.8674 Y0.1378  
G01 X-1.8607 Y0.1350  
G01 X-1.8536 Y0.1336  
G01 X-1.8464 Y0.1336  
G01 X-1.8393 Y0.1350  
G01 X-1.8326 Y0.1378  
G01 X-1.8266 Y0.1418  
G01 X-1.8215 Y0.1469  
G01 X-1.8175 Y0.1529  
G01 X-1.8147 Y0.1596  
G01 X-1.8133 Y0.1667  
G01 X-1.8133 Y0.2333  
G01 X-1.8147 Y0.2404  
G01 X-1.8175 Y0.2471  
G01 X-1.8215 Y0.2531  
G01 X-1.8266 Y0.2582  
G01 X-1.8292 Y0.2599  
G01 X-1.8296 Y0.2609  
G01 X-1.8321 Y0.2647  
G01 X-1.8821 Y0.3147  
G01 X-1.8853 Y0.3179  
G00 Z0.0500  
G00 X-1.9266 Y0.2582  
G01 Z-0.0030 F10    
G01 X-1.9326 Y0.2622  F20    
G01 X-1.9393 Y0.2650  
G01 X-1.9464 Y0.2664  
G01 X-1.9536 Y0.2664  
G01 X-1.9607 Y0.2650  
G01 X-1.9674 Y0.2622  
G01 X-1.9734 Y0.2582  
G01 X-1.9785 Y0.2531  
G01 X-1.9825 Y0.2471  
G01 X-1.9853 Y0.2404  
G01 X-1.9867 Y0.2333  
G01 X-1.9867 Y0.2230  
G01 X-2.7848 Y0.2230  
G01 X-3.0275 Y0.4657  
G01 X-3.0261 Y0.4675  
G01 X-3.0226 Y0.4745  
G01 X-3.0201 Y0.4820  
G01 X-3.0189 Y0.4898  
G01 X-3.0189 Y0.4976  
G01 X-3.0201 Y0.5054  
G01 X-3.0226 Y0.5129  
G01 X-3.0261 Y0.5199  
G01 X-3.0308 Y0.5263  
G01 X-3.0363 Y0.5318  
G01 X-3.0427 Y0.5365  
G01 X-3.0497 Y0.5400  
G01 X-3.0572 Y0.5425  
G01 X-3.0650 Y0.5437  
G01 X-3.0728 Y0.5437  
G01 X-3.0806 Y0.5425  
G01 X-3.0881 Y0.5400  
G01 X-3.0951 Y0.5365  
G01 X-3.1015 Y0.5318  
G01 X-3.1070 Y0.5263  
G01 X-3.1117 Y0.5199  
G01 X-3.1152 Y0.5129  
G01 X-3.1177 Y0.5054  
G01 X-3.1189 Y0.4976  
G01 X-3.1189 Y0.4898  
G01 X-3.1177 Y0.4820  
G01 X-3.1152 Y0.4745  
G01 X-3.1117 Y0.4675  
G01 X-3.1070 Y0.4611  
G01 X-3.1015 Y0.4556  
G01 X-3.0951 Y0.4509  
G01 X-3.0881 Y0.4474  
G01 X-3.0843 Y0.4461  
G01 X-2.8172 Y0.1790  
G01 X-2.8128 Y0.1761  
G01 X-2.8079 Y0.1740  
G01 X-2.8027 Y0.1730  
G01 X-2.7973 Y0.1730  
G01 X-2.7921 Y0.1740  
G01 X-2.7872 Y0.1761  
G01 X-2.7858 Y0.1770  
G01 X-1.9867 Y0.1770  
G01 X-1.9867 Y0.1667  
G01 X-1.9853 Y0.1596  
G01 X-1.9825 Y0.1529  
G01 X-1.9785 Y0.1469  
G01 X-1.9734 Y0.1418  
G01 X-1.9674 Y0.1378  
G01 X-1.9607 Y0.1350  
G01 X-1.9536 Y0.1336  
G01 X-1.9464 Y0.1336  
G01 X-1.9393 Y0.1350  
G01 X-1.9326 Y0.1378  
G01 X-1.9266 Y0.1418  
G01 X-1.9215 Y0.1469  
G01 X-1.9175 Y0.1529  
G01 X-1.9147 Y0.1596  
G01 X-1.9133 Y0.1667  
G01 X-1.9133 Y0.2333  
G01 X-1.9147 Y0.2404  
G01 X-1.9175 Y0.2471  
G01 X-1.9215 Y0.2531  
G01 X-1.9266 Y0.2582  
G00 Z0.0500  
G00 X-2.1217 Y0.6198  
G01 Z-0.0030 F10    
G01 X-2.1164 Y0.6271  F20    
G01 X-2.1123 Y0.6351  
G01 X-2.1096 Y0.6437  
G01 X-2.1082 Y0.6526  
G01 X-2.1082 Y0.6616  
G01 X-2.1096 Y0.6705  
G01 X-2.1123 Y0.6790  
G01 X-2.1164 Y0.6871  
G01 X-2.1217 Y0.6943  
G01 X-2.1281 Y0.7007  
G01 X-2.1354 Y0.7060  
G01 X-2.1434 Y0.7101  
G01 X-2.1520 Y0.7129  
G01 X-2.1609 Y0.7143  
G01 X-2.1699 Y0.7143  
G01 X-2.1787 Y0.7129  
G01 X-2.1873 Y0.7101  
G01 X-2.1953 Y0.7060  
G01 X-2.2026 Y0.7007  
G01 X-2.2090 Y0.6943  
G01 X-2.2143 Y0.6871  
G01 X-2.2184 Y0.6790  
G01 X-2.2211 Y0.6705  
G01 X-2.2226 Y0.6616  
G01 X-2.2226 Y0.6526  
G01 X-2.2211 Y0.6437  
G01 X-2.2184 Y0.6351  
G01 X-2.2143 Y0.6271  
G01 X-2.2090 Y0.6198  
G01 X-2.2026 Y0.6135  
G01 X-2.1953 Y0.6082  
G01 X-2.1873 Y0.6041  
G01 X-2.1787 Y0.6013  
G01 X-2.1699 Y0.5999  
G01 X-2.1609 Y0.5999  
G01 X-2.1520 Y0.6013  
G01 X-2.1434 Y0.6041  
G01 X-2.1354 Y0.6082  
G01 X-2.1281 Y0.6135  
G01 X-2.1217 Y0.6198  
G00 Z0.0500  
G00 X-2.2910 Y0.6671  
G01 Z-0.0030 F10    
G01 X-2.2857 Y0.6744  F20    
G01 X-2.2816 Y0.6824  
G01 X-2.2789 Y0.6909  
G01 X-2.2774 Y0.6998  
G01 X-2.2774 Y0.7088  
G01 X-2.2789 Y0.7177  
G01 X-2.2816 Y0.7263  
G01 X-2.2857 Y0.7343  
G01 X-2.2910 Y0.7416  
G01 X-2.2974 Y0.7480  
G01 X-2.3047 Y0.7532  
G01 X-2.3127 Y0.7573  
G01 X-2.3213 Y0.7601  
G01 X-2.3301 Y0.7615  
G01 X-2.3391 Y0.7615  
G01 X-2.3480 Y0.7601  
G01 X-2.3566 Y0.7573  
G01 X-2.3646 Y0.7532  
G01 X-2.3719 Y0.7480  
G01 X-2.3783 Y0.7416  
G01 X-2.3836 Y0.7343  
G01 X-2.3877 Y0.7263  
G01 X-2.3904 Y0.7177  
G01 X-2.3918 Y0.7088  
G01 X-2.3918 Y0.6998  
G01 X-2.3904 Y0.6909  
G01 X-2.3877 Y0.6824  
G01 X-2.3836 Y0.6744  
G01 X-2.3783 Y0.6671  
G01 X-2.3719 Y0.6607  
G01 X-2.3646 Y0.6554  
G01 X-2.3566 Y0.6513  
G01 X-2.3480 Y0.6485  
G01 X-2.3391 Y0.6471  
G01 X-2.3301 Y0.6471  
G01 X-2.3213 Y0.6485  
G01 X-2.3127 Y0.6513  
G01 X-2.3047 Y0.6554  
G01 X-2.2974 Y0.6607  
G01 X-2.2910 Y0.6671  
G00 Z0.0500  
G00 X-2.6096 Y0.6705  
G01 Z-0.0030 F10    
G01 X-2.6123 Y0.6790  F20    
G01 X-2.6164 Y0.6871  
G01 X-2.6217 Y0.6943  
G01 X-2.6281 Y0.7007  
G01 X-2.6354 Y0.7060  
G01 X-2.6434 Y0.7101  
G01 X-2.6520 Y0.7129  
G01 X-2.6609 Y0.7143  
G01 X-2.6699 Y0.7143  
G01 X-2.6787 Y0.7129  
G01 X-2.6873 Y0.7101  
G01 X-2.6953 Y0.7060  
G01 X-2.7026 Y0.7007  
G01 X-2.7090 Y0.6943  
G01 X-2.7143 Y0.6871  
G01 X-2.7184 Y0.6790  
G01 X-2.7211 Y0.6705  
G01 X-2.7226 Y0.6616  
G01 X-2.7226 Y0.6526  
G01 X-2.7211 Y0.6437  
G01 X-2.7184 Y0.6351  
G01 X-2.7143 Y0.6271  
G01 X-2.7090 Y0.6198  
G01 X-2.7026 Y0.6135  
G01 X-2.6953 Y0.6082  
G01 X-2.6873 Y0.6041  
G01 X-2.6787 Y0.6013  
G01 X-2.6699 Y0.5999  
G01 X-2.6609 Y0.5999  
G01 X-2.6520 Y0.6013  
G01 X-2.6434 Y0.6041  
G01 X-2.6354 Y0.6082  
G01 X-2.6281 Y0.6135  
G01 X-2.6217 Y0.6198  
G01 X-2.6164 Y0.6271  
G01 X-2.6123 Y0.6351  
G01 X-2.6096 Y0.6437  
G01 X-2.6082 Y0.6526  
G01 X-2.6082 Y0.6616  
G01 X-2.6096 Y0.6705  
G00 Z0.0500  
G00 X-2.7857 Y0.6744  
G01 Z-0.0030 F10    
G01 X-2.7816 Y0.6824  F20    
G01 X-2.7789 Y0.6909  
G01 X-2.7774 Y0.6998  
G01 X-2.7774 Y0.7088  
G01 X-2.7789 Y0.7177  
G01 X-2.7816 Y0.7263  
G01 X-2.7857 Y0.7343  
G01 X-2.7910 Y0.7416  
G01 X-2.7974 Y0.7480  
G01 X-2.8047 Y0.7532  
G01 X-2.8127 Y0.7573  
G01 X-2.8213 Y0.7601  
G01 X-2.8301 Y0.7615  
G01 X-2.8391 Y0.7615  
G01 X-2.8480 Y0.7601  
G01 X-2.8566 Y0.7573  
G01 X-2.8646 Y0.7532  
G01 X-2.8719 Y0.7480  
G01 X-2.8783 Y0.7416  
G01 X-2.8836 Y0.7343  
G01 X-2.8877 Y0.7263  
G01 X-2.8904 Y0.7177  
G01 X-2.8918 Y0.7088  
G01 X-2.8918 Y0.6998  
G01 X-2.8904 Y0.6909  
G01 X-2.8877 Y0.6824  
G01 X-2.8836 Y0.6744  
G01 X-2.8783 Y0.6671  
G01 X-2.8719 Y0.6607  
G01 X-2.8646 Y0.6554  
G01 X-2.8566 Y0.6513  
G01 X-2.8480 Y0.6485  
G01 X-2.8391 Y0.6471  
G01 X-2.8301 Y0.6471  
G01 X-2.8213 Y0.6485  
G01 X-2.8127 Y0.6513  
G01 X-2.8047 Y0.6554  
G01 X-2.7974 Y0.6607  
G01 X-2.7910 Y0.6671  
G01 X-2.7857 Y0.6744  
G00 Z0.0500  
G00 X-3.1096 Y0.6705  
G01 Z-0.0030 F10    
G01 X-3.1123 Y0.6790  F20    
G01 X-3.1164 Y0.6871  
G01 X-3.1217 Y0.6943  
G01 X-3.1281 Y0.7007  
G01 X-3.1354 Y0.7060  
G01 X-3.1434 Y0.7101  
G01 X-3.1520 Y0.7129  
G01 X-3.1609 Y0.7143  
G01 X-3.1699 Y0.7143  
G01 X-3.1787 Y0.7129  
G01 X-3.1873 Y0.7101  
G01 X-3.1953 Y0.7060  
G01 X-3.2026 Y0.7007  
G01 X-3.2090 Y0.6943  
G01 X-3.2143 Y0.6871  
G01 X-3.2184 Y0.6790  
G01 X-3.2211 Y0.6705  
G01 X-3.2226 Y0.6616  
G01 X-3.2226 Y0.6526  
G01 X-3.2211 Y0.6437  
G01 X-3.2184 Y0.6351  
G01 X-3.2143 Y0.6271  
G01 X-3.2090 Y0.6198  
G01 X-3.2026 Y0.6135  
G01 X-3.1953 Y0.6082  
G01 X-3.1873 Y0.6041  
G01 X-3.1787 Y0.6013  
G01 X-3.1699 Y0.5999  
G01 X-3.1609 Y0.5999  
G01 X-3.1520 Y0.6013  
G01 X-3.1434 Y0.6041  
G01 X-3.1354 Y0.6082  
G01 X-3.1281 Y0.6135  
G01 X-3.1217 Y0.6198  
G01 X-3.1164 Y0.6271  
G01 X-3.1123 Y0.6351  
G01 X-3.1096 Y0.6437  
G01 X-3.1082 Y0.6526  
G01 X-3.1082 Y0.6616  
G01 X-3.1096 Y0.6705  
G00 Z0.0500  
G00 X-3.1217 Y2.6057  
G01 Z-0.0030 F10    
G01 X-3.1164 Y2.6129  F20    
G01 X-3.1123 Y2.6210  
G01 X-3.1096 Y2.6295  
G01 X-3.1082 Y2.6384  
G01 X-3.1082 Y2.6474  
G01 X-3.1096 Y2.6563  
G01 X-3.1123 Y2.6649  
G01 X-3.1164 Y2.6729  
G01 X-3.1217 Y2.6802  
G01 X-3.1281 Y2.6865  
G01 X-3.1354 Y2.6918  
G01 X-3.1434 Y2.6959  
G01 X-3.1520 Y2.6987  
G01 X-3.1609 Y2.7001  
G01 X-3.1699 Y2.7001  
G01 X-3.1787 Y2.6987  
G01 X-3.1873 Y2.6959  
G01 X-3.1953 Y2.6918  
G01 X-3.2026 Y2.6865  
G01 X-3.2090 Y2.6802  
G01 X-3.2143 Y2.6729  
G01 X-3.2184 Y2.6649  
G01 X-3.2211 Y2.6563  
G01 X-3.2226 Y2.6474  
G01 X-3.2226 Y2.6384  
G01 X-3.2211 Y2.6295  
G01 X-3.2184 Y2.6210  
G01 X-3.2143 Y2.6129  
G01 X-3.2090 Y2.6057  
G01 X-3.2026 Y2.5993  
G01 X-3.1953 Y2.5940  
G01 X-3.1873 Y2.5899  
G01 X-3.1787 Y2.5871  
G01 X-3.1699 Y2.5857  
G01 X-3.1609 Y2.5857  
G01 X-3.1520 Y2.5871  
G01 X-3.1434 Y2.5899  
G01 X-3.1354 Y2.5940  
G01 X-3.1281 Y2.5993  
G01 X-3.1217 Y2.6057  
G00 Z0.0500  
G00 X-2.8904 Y2.6091  
G01 Z-0.0030 F10    
G01 X-2.8918 Y2.6002  F20    
G01 X-2.8918 Y2.5912  
G01 X-2.8904 Y2.5823  
G01 X-2.8877 Y2.5737  
G01 X-2.8836 Y2.5657  
G01 X-2.8783 Y2.5584  
G01 X-2.8719 Y2.5520  
G01 X-2.8646 Y2.5468  
G01 X-2.8566 Y2.5427  
G01 X-2.8480 Y2.5399  
G01 X-2.8391 Y2.5385  
G01 X-2.8301 Y2.5385  
G01 X-2.8213 Y2.5399  
G01 X-2.8127 Y2.5427  
G01 X-2.8047 Y2.5468  
G01 X-2.7974 Y2.5520  
G01 X-2.7910 Y2.5584  
G01 X-2.7857 Y2.5657  
G01 X-2.7816 Y2.5737  
G01 X-2.7789 Y2.5823  
G01 X-2.7774 Y2.5912  
G01 X-2.7774 Y2.6002  
G01 X-2.7789 Y2.6091  
G01 X-2.7816 Y2.6176  
G01 X-2.7857 Y2.6256  
G01 X-2.7910 Y2.6329  
G01 X-2.7974 Y2.6393  
G01 X-2.8047 Y2.6446  
G01 X-2.8127 Y2.6487  
G01 X-2.8213 Y2.6515  
G01 X-2.8301 Y2.6529  
G01 X-2.8391 Y2.6529  
G01 X-2.8480 Y2.6515  
G01 X-2.8566 Y2.6487  
G01 X-2.8646 Y2.6446  
G01 X-2.8719 Y2.6393  
G01 X-2.8783 Y2.6329  
G01 X-2.8836 Y2.6256  
G01 X-2.8877 Y2.6176  
G01 X-2.8904 Y2.6091  
G00 Z0.0500  
G00 X-2.7143 Y2.6129  
G01 Z-0.0030 F10    
G01 X-2.7090 Y2.6057  F20    
G01 X-2.7026 Y2.5993  
G01 X-2.6953 Y2.5940  
G01 X-2.6873 Y2.5899  
G01 X-2.6787 Y2.5871  
G01 X-2.6699 Y2.5857  
G01 X-2.6609 Y2.5857  
G01 X-2.6520 Y2.5871  
G01 X-2.6434 Y2.5899  
G01 X-2.6354 Y2.5940  
G01 X-2.6281 Y2.5993  
G01 X-2.6217 Y2.6057  
G01 X-2.6164 Y2.6129  
G01 X-2.6123 Y2.6210  
G01 X-2.6096 Y2.6295  
G01 X-2.6082 Y2.6384  
G01 X-2.6082 Y2.6474  
G01 X-2.6096 Y2.6563  
G01 X-2.6123 Y2.6649  
G01 X-2.6164 Y2.6729  
G01 X-2.6217 Y2.6802  
G01 X-2.6281 Y2.6865  
G01 X-2.6354 Y2.6918  
G01 X-2.6434 Y2.6959  
G01 X-2.6520 Y2.6987  
G01 X-2.6609 Y2.7001  
G01 X-2.6699 Y2.7001  
G01 X-2.6787 Y2.6987  
G01 X-2.6873 Y2.6959  
G01 X-2.6953 Y2.6918  
G01 X-2.7026 Y2.6865  
G01 X-2.7090 Y2.6802  
G01 X-2.7143 Y2.6729  
G01 X-2.7184 Y2.6649  
G01 X-2.7211 Y2.6563  
G01 X-2.7226 Y2.6474  
G01 X-2.7226 Y2.6384  
G01 X-2.7211 Y2.6295  
G01 X-2.7184 Y2.6210  
G01 X-2.7143 Y2.6129  
G00 Z0.0500  
G00 X-2.3904 Y2.6091  
G01 Z-0.0030 F10    
G01 X-2.3918 Y2.6002  F20    
G01 X-2.3918 Y2.5912  
G01 X-2.3904 Y2.5823  
G01 X-2.3877 Y2.5737  
G01 X-2.3836 Y2.5657  
G01 X-2.3783 Y2.5584  
G01 X-2.3719 Y2.5520  
G01 X-2.3646 Y2.5468  
G01 X-2.3566 Y2.5427  
G01 X-2.3480 Y2.5399  
G01 X-2.3391 Y2.5385  
G01 X-2.3301 Y2.5385  
G01 X-2.3213 Y2.5399  
G01 X-2.3127 Y2.5427  
G01 X-2.3047 Y2.5468  
G01 X-2.2974 Y2.5520  
G01 X-2.2910 Y2.5584  
G01 X-2.2857 Y2.5657  
G01 X-2.2816 Y2.5737  
G01 X-2.2789 Y2.5823  
G01 X-2.2774 Y2.5912  
G01 X-2.2774 Y2.6002  
G01 X-2.2789 Y2.6091  
G01 X-2.2816 Y2.6176  
G01 X-2.2857 Y2.6256  
G01 X-2.2910 Y2.6329  
G01 X-2.2974 Y2.6393  
G01 X-2.3047 Y2.6446  
G01 X-2.3127 Y2.6487  
G01 X-2.3213 Y2.6515  
G01 X-2.3301 Y2.6529  
G01 X-2.3391 Y2.6529  
G01 X-2.3480 Y2.6515  
G01 X-2.3566 Y2.6487  
G01 X-2.3646 Y2.6446  
G01 X-2.3719 Y2.6393  
G01 X-2.3783 Y2.6329  
G01 X-2.3836 Y2.6256  
G01 X-2.3877 Y2.6176  
G01 X-2.3904 Y2.6091  
G00 Z0.0500  
G00 X-2.2143 Y2.6129  
G01 Z-0.0030 F10    
G01 X-2.2090 Y2.6057  F20    
G01 X-2.2026 Y2.5993  
G01 X-2.1953 Y2.5940  
G01 X-2.1873 Y2.5899  
G01 X-2.1787 Y2.5871  
G01 X-2.1699 Y2.5857  
G01 X-2.1609 Y2.5857  
G01 X-2.1520 Y2.5871  
G01 X-2.1434 Y2.5899  
G01 X-2.1354 Y2.5940  
G01 X-2.1281 Y2.5993  
G01 X-2.1217 Y2.6057  
G01 X-2.1164 Y2.6129  
G01 X-2.1123 Y2.6210  
G01 X-2.1096 Y2.6295  
G01 X-2.1082 Y2.6384  
G01 X-2.1082 Y2.6474  
G01 X-2.1096 Y2.6563  
G01 X-2.1123 Y2.6649  
G01 X-2.1164 Y2.6729  
G01 X-2.1217 Y2.6802  
G01 X-2.1281 Y2.6865  
G01 X-2.1354 Y2.6918  
G01 X-2.1434 Y2.6959  
G01 X-2.1520 Y2.6987  
G01 X-2.1609 Y2.7001  
G01 X-2.1699 Y2.7001  
G01 X-2.1787 Y2.6987  
G01 X-2.1873 Y2.6959  
G01 X-2.1953 Y2.6918  
G01 X-2.2026 Y2.6865  
G01 X-2.2090 Y2.6802  
G01 X-2.2143 Y2.6729  
G01 X-2.2184 Y2.6649  
G01 X-2.2211 Y2.6563  
G01 X-2.2226 Y2.6474  
G01 X-2.2226 Y2.6384  
G01 X-2.2211 Y2.6295  
G01 X-2.2184 Y2.6210  
G01 X-2.2143 Y2.6129  
G00 Z0.0500  
G00 X-1.8904 Y2.6091  
G01 Z-0.0030 F10    
G01 X-1.8918 Y2.6002  F20    
G01 X-1.8918 Y2.5912  
G01 X-1.8904 Y2.5823  
G01 X-1.8877 Y2.5737  
G01 X-1.8836 Y2.5657  
G01 X-1.8783 Y2.5584  
G01 X-1.8719 Y2.5520  
G01 X-1.8646 Y2.5468  
G01 X-1.8566 Y2.5427  
G01 X-1.8480 Y2.5399  
G01 X-1.8391 Y2.5385  
G01 X-1.8301 Y2.5385  
G01 X-1.8213 Y2.5399  
G01 X-1.8127 Y2.5427  
G01 X-1.8047 Y2.5468  
G01 X-1.7974 Y2.5520  
G01 X-1.7910 Y2.5584  
G01 X-1.7857 Y2.5657  
G01 X-1.7816 Y2.5737  
G01 X-1.7789 Y2.5823  
G01 X-1.7774 Y2.5912  
G01 X-1.7774 Y2.6002  
G01 X-1.7789 Y2.6091  
G01 X-1.7816 Y2.6176  
G01 X-1.7857 Y2.6256  
