(.../pcb-gcode-3.6.2.4/pcb-gcode.ulp)
(Copyright 2005 - 2012 by John Johnson)
(See readme.txt for licensing terms.)
(This file generated from the board:)
(.../atmega_midi_pg800/eagle/pta_series_pot_test.brd)
(Current profile is .../pcb-gcode-3.6.2.4/profiles/mach.pp  )
(This file generated 2/20/17 3:48 PM)
(Settings from pcb-machine.h)
(spindle on time = 0.0000)
(  Tool Size)
(0.0030  )
(spindle speed = 30000.0000)
(tool change at 0.0000  0.0000  1.5000  )
(feed rate xy = F20    )
(feed rate z  = F10    )
(Z Axis Settings)
(  High     Up        Down     Drill)
(0.2500  	0.0500  	-0.0035 	-0.0710 )
(Settings from pcb-defaults.h)
(isolate min = 0.0040)
(isolate max = 0.0200)
(isolate step = 0.0025)
(Generated bottom outlines, bottom drill, )
(Unit of measure: inch)
(Inch Mode)
G20
(Absolute Coordinates)
G90
S30000
G00 Z0.2500  
G00 X0.0000  Y0.0000  
M03
G04 P0.000000
G00 Z0.0500  
G00 X-0.1563 Y0.2184  
G01 Z-0.0035 F10    
G01 X-0.1518 Y0.2246  F20    
G01 X-0.1484 Y0.2314  
G01 X-0.1460 Y0.2386  
G01 X-0.1448 Y0.2462  
G01 X-0.1448 Y0.2538  
G01 X-0.1460 Y0.2614  
G01 X-0.1484 Y0.2686  
G01 X-0.1518 Y0.2754  
G01 X-0.1563 Y0.2816  
G01 X-0.1617 Y0.2870  
G01 X-0.1679 Y0.2915  
G01 X-0.1747 Y0.2949  
G01 X-0.1819 Y0.2973  
G01 X-0.1895 Y0.2985  
G01 X-0.1971 Y0.2985  
G01 X-0.2047 Y0.2973  
G01 X-0.2119 Y0.2949  
G01 X-0.2187 Y0.2915  
G01 X-0.2249 Y0.2870  
G01 X-0.2303 Y0.2816  
G01 X-0.2348 Y0.2754  
G01 X-0.2383 Y0.2686  
G01 X-0.2406 Y0.2614  
G01 X-0.2418 Y0.2538  
G01 X-0.2418 Y0.2462  
G01 X-0.2406 Y0.2386  
G01 X-0.2383 Y0.2314  
G01 X-0.2348 Y0.2246  
G01 X-0.2303 Y0.2184  
G01 X-0.2249 Y0.2130  
G01 X-0.2187 Y0.2085  
G01 X-0.2119 Y0.2051  
G01 X-0.2047 Y0.2027  
G01 X-0.1971 Y0.2015  
G01 X-0.1895 Y0.2015  
G01 X-0.1819 Y0.2027  
G01 X-0.1747 Y0.2051  
G01 X-0.1679 Y0.2085  
G01 X-0.1617 Y0.2130  
G01 X-0.1563 Y0.2184  
G00 Z0.0500  
G00 X-0.2941 Y0.2184  
G01 Z-0.0035 F10    
G01 X-0.2896 Y0.2246  F20    
G01 X-0.2862 Y0.2314  
G01 X-0.2838 Y0.2386  
G01 X-0.2826 Y0.2462  
G01 X-0.2826 Y0.2538  
G01 X-0.2838 Y0.2614  
G01 X-0.2862 Y0.2686  
G01 X-0.2896 Y0.2754  
G01 X-0.2941 Y0.2816  
G01 X-0.2995 Y0.2870  
G01 X-0.3044 Y0.2906  
G01 X-0.2623 Y0.3707  
G01 X-0.2611 Y0.3728  
G01 X-0.2610 Y0.3732  
G01 X-0.2608 Y0.3736  
G01 X-0.2602 Y0.3759  
G01 X-0.2596 Y0.3783  
G01 X-0.2596 Y0.3787  
G01 X-0.2595 Y0.3791  
G01 X-0.2596 Y0.3815  
G01 X-0.2596 Y0.4502  
G01 X-0.2557 Y0.4522  
G01 X-0.2495 Y0.4567  
G01 X-0.2441 Y0.4621  
G01 X-0.2396 Y0.4683  
G01 X-0.2362 Y0.4751  
G01 X-0.2338 Y0.4823  
G01 X-0.2326 Y0.4899  
G01 X-0.2326 Y0.4975  
G01 X-0.2338 Y0.5051  
G01 X-0.2362 Y0.5123  
G01 X-0.2396 Y0.5191  
G01 X-0.2441 Y0.5253  
G01 X-0.2495 Y0.5307  
G01 X-0.2557 Y0.5352  
G01 X-0.2625 Y0.5386  
G01 X-0.2697 Y0.5410  
G01 X-0.2773 Y0.5422  
G01 X-0.2849 Y0.5422  
G01 X-0.2925 Y0.5410  
G01 X-0.2997 Y0.5386  
G01 X-0.3065 Y0.5352  
G01 X-0.3127 Y0.5307  
G01 X-0.3181 Y0.5253  
G01 X-0.3226 Y0.5191  
G01 X-0.3260 Y0.5123  
G01 X-0.3284 Y0.5051  
G01 X-0.3296 Y0.4975  
G01 X-0.3296 Y0.4899  
G01 X-0.3284 Y0.4823  
G01 X-0.3260 Y0.4751  
G01 X-0.3226 Y0.4683  
G01 X-0.3181 Y0.4621  
G01 X-0.3127 Y0.4567  
G01 X-0.3065 Y0.4522  
G01 X-0.3026 Y0.4502  
G01 X-0.3026 Y0.3864  
G01 X-0.3510 Y0.2943  
G01 X-0.3565 Y0.2915  
G01 X-0.3627 Y0.2870  
G01 X-0.3681 Y0.2816  
G01 X-0.3726 Y0.2754  
G01 X-0.3760 Y0.2686  
G01 X-0.3784 Y0.2614  
G01 X-0.3796 Y0.2538  
G01 X-0.3796 Y0.2462  
G01 X-0.3784 Y0.2386  
G01 X-0.3760 Y0.2314  
G01 X-0.3726 Y0.2246  
G01 X-0.3681 Y0.2184  
G01 X-0.3627 Y0.2130  
G01 X-0.3565 Y0.2085  
G01 X-0.3497 Y0.2051  
G01 X-0.3425 Y0.2027  
G01 X-0.3349 Y0.2015  
G01 X-0.3273 Y0.2015  
G01 X-0.3197 Y0.2027  
G01 X-0.3125 Y0.2051  
G01 X-0.3057 Y0.2085  
G01 X-0.2995 Y0.2130  
G01 X-0.2941 Y0.2184  
G00 Z0.0500  
G00 X-0.4319 Y0.2184  
G01 Z-0.0035 F10    
G01 X-0.4274 Y0.2246  F20    
G01 X-0.4240 Y0.2314  
G01 X-0.4216 Y0.2386  
G01 X-0.4204 Y0.2462  
G01 X-0.4204 Y0.2538  
G01 X-0.4216 Y0.2614  
G01 X-0.4240 Y0.2686  
G01 X-0.4274 Y0.2754  
G01 X-0.4319 Y0.2816  
G01 X-0.4373 Y0.2870  
G01 X-0.4418 Y0.2903  
G01 X-0.4291 Y0.3448  
G01 X-0.4285 Y0.3472  
G01 X-0.4285 Y0.3475  
G01 X-0.4284 Y0.3479  
G01 X-0.4285 Y0.3504  
G01 X-0.4285 Y0.4461  
G01 X-0.4227 Y0.4452  
G01 X-0.4151 Y0.4452  
G01 X-0.4075 Y0.4464  
G01 X-0.4003 Y0.4488  
G01 X-0.3935 Y0.4522  
G01 X-0.3873 Y0.4567  
G01 X-0.3819 Y0.4621  
G01 X-0.3774 Y0.4683  
G01 X-0.3740 Y0.4751  
G01 X-0.3716 Y0.4823  
G01 X-0.3704 Y0.4899  
G01 X-0.3704 Y0.4975  
G01 X-0.3716 Y0.5051  
G01 X-0.3740 Y0.5123  
G01 X-0.3774 Y0.5191  
G01 X-0.3819 Y0.5253  
G01 X-0.3873 Y0.5307  
G01 X-0.3935 Y0.5352  
G01 X-0.4003 Y0.5386  
G01 X-0.4075 Y0.5410  
G01 X-0.4151 Y0.5422  
G01 X-0.4227 Y0.5422  
G01 X-0.4303 Y0.5410  
G01 X-0.4375 Y0.5386  
G01 X-0.4443 Y0.5352  
G01 X-0.4505 Y0.5307  
G01 X-0.4559 Y0.5253  
G01 X-0.4604 Y0.5191  
G01 X-0.4638 Y0.5123  
G01 X-0.4662 Y0.5051  
G01 X-0.4674 Y0.4975  
G01 X-0.4674 Y0.4899  
G01 X-0.4662 Y0.4823  
G01 X-0.4648 Y0.4782  
G01 X-0.4672 Y0.4758  
G01 X-0.4700 Y0.4709  
G01 X-0.4715 Y0.4654  
G01 X-0.4715 Y0.3525  
G01 X-0.4847 Y0.2959  
G01 X-0.4875 Y0.2949  
G01 X-0.4943 Y0.2915  
G01 X-0.5005 Y0.2870  
G01 X-0.5059 Y0.2816  
G01 X-0.5104 Y0.2754  
G01 X-0.5138 Y0.2686  
G01 X-0.5162 Y0.2614  
G01 X-0.5174 Y0.2538  
G01 X-0.5174 Y0.2462  
G01 X-0.5162 Y0.2386  
G01 X-0.5138 Y0.2314  
G01 X-0.5104 Y0.2246  
G01 X-0.5059 Y0.2184  
G01 X-0.5005 Y0.2130  
G01 X-0.4943 Y0.2085  
G01 X-0.4875 Y0.2051  
G01 X-0.4803 Y0.2027  
G01 X-0.4727 Y0.2015  
G01 X-0.4651 Y0.2015  
G01 X-0.4575 Y0.2027  
G01 X-0.4503 Y0.2051  
G01 X-0.4435 Y0.2085  
G01 X-0.4373 Y0.2130  
G01 X-0.4319 Y0.2184  
G00 Z0.0500  
G00 X-0.5697 Y0.2184  
G01 Z-0.0035 F10    
G01 X-0.5652 Y0.2246  F20    
G01 X-0.5617 Y0.2314  
G01 X-0.5594 Y0.2386  
G01 X-0.5582 Y0.2462  
G01 X-0.5582 Y0.2538  
G01 X-0.5594 Y0.2614  
G01 X-0.5617 Y0.2686  
G01 X-0.5652 Y0.2754  
G01 X-0.5697 Y0.2816  
G01 X-0.5751 Y0.2870  
G01 X-0.5813 Y0.2915  
G01 X-0.5881 Y0.2949  
G01 X-0.5940 Y0.2969  
G01 X-0.6035 Y0.3454  
G01 X-0.6035 Y0.6926  
G01 X-0.3339 Y1.0357  
G01 X-0.3328 Y1.0368  
G01 X-0.3321 Y1.0379  
G01 X-0.3313 Y1.0389  
G01 X-0.3307 Y1.0404  
G01 X-0.3300 Y1.0417  
G01 X-0.3296 Y1.0430  
G01 X-0.3291 Y1.0441  
G01 X-0.3289 Y1.0457  
G01 X-0.3285 Y1.0472  
G01 X-0.3285 Y1.0485  
G01 X-0.3283 Y1.0498  
G01 X-0.3285 Y1.0513  
G01 X-0.3285 Y2.6942  
G01 X-0.2911 Y2.7588  
G01 X-0.2849 Y2.7578  
G01 X-0.2773 Y2.7578  
G01 X-0.2697 Y2.7590  
G01 X-0.2625 Y2.7614  
G01 X-0.2557 Y2.7648  
G01 X-0.2495 Y2.7693  
G01 X-0.2441 Y2.7747  
G01 X-0.2396 Y2.7809  
G01 X-0.2362 Y2.7877  
G01 X-0.2338 Y2.7949  
G01 X-0.2326 Y2.8025  
G01 X-0.2326 Y2.8101  
G01 X-0.2338 Y2.8177  
G01 X-0.2362 Y2.8249  
G01 X-0.2396 Y2.8317  
G01 X-0.2441 Y2.8379  
G01 X-0.2495 Y2.8433  
G01 X-0.2557 Y2.8478  
G01 X-0.2625 Y2.8512  
G01 X-0.2697 Y2.8536  
G01 X-0.2773 Y2.8548  
G01 X-0.2849 Y2.8548  
G01 X-0.2925 Y2.8536  
G01 X-0.2997 Y2.8512  
G01 X-0.3065 Y2.8478  
G01 X-0.3127 Y2.8433  
G01 X-0.3181 Y2.8379  
G01 X-0.3226 Y2.8317  
G01 X-0.3260 Y2.8249  
G01 X-0.3284 Y2.8177  
G01 X-0.3296 Y2.8101  
G01 X-0.3296 Y2.8025  
G01 X-0.3284 Y2.7949  
G01 X-0.3260 Y2.7877  
G01 X-0.3251 Y2.7858  
G01 X-0.3672 Y2.7132  
G01 X-0.3686 Y2.7108  
G01 X-0.3700 Y2.7083  
G01 X-0.3708 Y2.7056  
G01 X-0.3715 Y2.7029  
G01 X-0.3715 Y2.7000  
G01 X-0.3715 Y2.6972  
G01 X-0.3715 Y1.0574  
G01 X-0.6411 Y0.7143  
G01 X-0.6422 Y0.7132  
G01 X-0.6429 Y0.7121  
G01 X-0.6437 Y0.7111  
G01 X-0.6443 Y0.7096  
G01 X-0.6450 Y0.7083  
G01 X-0.6454 Y0.7070  
G01 X-0.6459 Y0.7059  
G01 X-0.6461 Y0.7043  
G01 X-0.6465 Y0.7028  
G01 X-0.6465 Y0.7015  
G01 X-0.6467 Y0.7002  
G01 X-0.6465 Y0.6987  
G01 X-0.6465 Y0.3440  
G01 X-0.6466 Y0.3419  
G01 X-0.6465 Y0.3412  
G01 X-0.6465 Y0.3405  
G01 X-0.6460 Y0.3384  
G01 X-0.6362 Y0.2885  
G01 X-0.6383 Y0.2870  
G01 X-0.6437 Y0.2816  
G01 X-0.6482 Y0.2754  
G01 X-0.6516 Y0.2686  
G01 X-0.6540 Y0.2614  
G01 X-0.6552 Y0.2538  
G01 X-0.6552 Y0.2462  
G01 X-0.6540 Y0.2386  
G01 X-0.6516 Y0.2314  
G01 X-0.6482 Y0.2246  
G01 X-0.6437 Y0.2184  
G01 X-0.6383 Y0.2130  
G01 X-0.6321 Y0.2085  
G01 X-0.6253 Y0.2051  
G01 X-0.6180 Y0.2027  
G01 X-0.6105 Y0.2015  
G01 X-0.6029 Y0.2015  
G01 X-0.5953 Y0.2027  
G01 X-0.5881 Y0.2051  
G01 X-0.5813 Y0.2085  
G01 X-0.5751 Y0.2130  
G01 X-0.5697 Y0.2184  
G00 Z0.0500  
G00 X-0.5516 Y0.6146  
G01 Z-0.0035 F10    
G01 X-0.5445 Y0.6095  F20    
G01 X-0.5367 Y0.6055  
G01 X-0.5284 Y0.6028  
G01 X-0.5197 Y0.6014  
G01 X-0.5110 Y0.6014  
G01 X-0.5023 Y0.6028  
G01 X-0.4940 Y0.6055  
G01 X-0.4862 Y0.6095  
G01 X-0.4791 Y0.6146  
G01 X-0.4729 Y0.6208  
G01 X-0.4677 Y0.6279  
G01 X-0.4637 Y0.6357  
G01 X-0.4610 Y0.6440  
G01 X-0.4597 Y0.6527  
G01 X-0.4597 Y0.6615  
G01 X-0.4610 Y0.6701  
G01 X-0.4637 Y0.6785  
G01 X-0.4677 Y0.6863  
G01 X-0.4729 Y0.6934  
G01 X-0.4791 Y0.6996  
G01 X-0.4862 Y0.7047  
G01 X-0.4940 Y0.7087  
G01 X-0.5023 Y0.7114  
G01 X-0.5110 Y0.7128  
G01 X-0.5197 Y0.7128  
G01 X-0.5284 Y0.7114  
G01 X-0.5367 Y0.7087  
G01 X-0.5445 Y0.7047  
G01 X-0.5516 Y0.6996  
G01 X-0.5578 Y0.6934  
G01 X-0.5630 Y0.6863  
G01 X-0.5670 Y0.6785  
G01 X-0.5697 Y0.6701  
G01 X-0.5711 Y0.6615  
G01 X-0.5711 Y0.6527  
G01 X-0.5697 Y0.6440  
G01 X-0.5670 Y0.6357  
G01 X-0.5630 Y0.6279  
G01 X-0.5578 Y0.6208  
G01 X-0.5516 Y0.6146  
G00 Z0.0500  
G00 X-0.2209 Y0.6618  
G01 Z-0.0035 F10    
G01 X-0.2138 Y0.6567  F20    
G01 X-0.2060 Y0.6527  
G01 X-0.1977 Y0.6500  
G01 X-0.1890 Y0.6486  
G01 X-0.1803 Y0.6486  
G01 X-0.1716 Y0.6500  
G01 X-0.1633 Y0.6527  
G01 X-0.1555 Y0.6567  
G01 X-0.1484 Y0.6618  
G01 X-0.1422 Y0.6680  
G01 X-0.1370 Y0.6751  
G01 X-0.1330 Y0.6830  
G01 X-0.1303 Y0.6913  
G01 X-0.1289 Y0.6999  
G01 X-0.1289 Y0.7087  
G01 X-0.1303 Y0.7174  
G01 X-0.1330 Y0.7257  
G01 X-0.1370 Y0.7335  
G01 X-0.1422 Y0.7406  
G01 X-0.1484 Y0.7468  
G01 X-0.1555 Y0.7520  
G01 X-0.1633 Y0.7559  
G01 X-0.1716 Y0.7587  
G01 X-0.1803 Y0.7600  
G01 X-0.1890 Y0.7600  
G01 X-0.1977 Y0.7587  
G01 X-0.2060 Y0.7559  
G01 X-0.2138 Y0.7520  
G01 X-0.2209 Y0.7468  
G01 X-0.2271 Y0.7406  
G01 X-0.2323 Y0.7335  
G01 X-0.2363 Y0.7257  
G01 X-0.2390 Y0.7174  
G01 X-0.2403 Y0.7087  
G01 X-0.2403 Y0.6999  
G01 X-0.2390 Y0.6913  
G01 X-0.2363 Y0.6830  
G01 X-0.2323 Y0.6751  
G01 X-0.2271 Y0.6680  
G01 X-0.2209 Y0.6618  
G00 Z0.0500  
G00 X-0.2209 Y2.5532  
G01 Z-0.0035 F10    
G01 X-0.2138 Y2.5480  F20    
G01 X-0.2060 Y2.5441  
G01 X-0.1977 Y2.5413  
G01 X-0.1890 Y2.5400  
G01 X-0.1803 Y2.5400  
G01 X-0.1716 Y2.5413  
G01 X-0.1633 Y2.5441  
G01 X-0.1555 Y2.5480  
G01 X-0.1484 Y2.5532  
G01 X-0.1422 Y2.5594  
G01 X-0.1370 Y2.5665  
G01 X-0.1330 Y2.5743  
G01 X-0.1303 Y2.5826  
G01 X-0.1289 Y2.5913  
G01 X-0.1289 Y2.6001  
G01 X-0.1303 Y2.6087  
G01 X-0.1330 Y2.6170  
G01 X-0.1370 Y2.6249  
G01 X-0.1422 Y2.6320  
G01 X-0.1484 Y2.6382  
G01 X-0.1555 Y2.6433  
G01 X-0.1633 Y2.6473  
G01 X-0.1716 Y2.6500  
G01 X-0.1803 Y2.6514  
G01 X-0.1890 Y2.6514  
G01 X-0.1977 Y2.6500  
G01 X-0.2060 Y2.6473  
G01 X-0.2138 Y2.6433  
G01 X-0.2209 Y2.6382  
G01 X-0.2271 Y2.6320  
G01 X-0.2323 Y2.6249  
G01 X-0.2363 Y2.6170  
G01 X-0.2390 Y2.6087  
G01 X-0.2403 Y2.6001  
G01 X-0.2403 Y2.5913  
G01 X-0.2390 Y2.5826  
G01 X-0.2363 Y2.5743  
G01 X-0.2323 Y2.5665  
G01 X-0.2271 Y2.5594  
G01 X-0.2209 Y2.5532  
G00 Z0.0500  
G00 X-0.4729 Y2.6066  
G01 Z-0.0035 F10    
G01 X-0.4677 Y2.6137  F20    
G01 X-0.4637 Y2.6215  
G01 X-0.4610 Y2.6299  
G01 X-0.4597 Y2.6385  
G01 X-0.4597 Y2.6473  
G01 X-0.4610 Y2.6560  
G01 X-0.4637 Y2.6643  
G01 X-0.4677 Y2.6721  
G01 X-0.4729 Y2.6792  
G01 X-0.4791 Y2.6854  
G01 X-0.4862 Y2.6905  
G01 X-0.4940 Y2.6945  
G01 X-0.5023 Y2.6972  
G01 X-0.5110 Y2.6986  
G01 X-0.5197 Y2.6986  
G01 X-0.5284 Y2.6972  
G01 X-0.5367 Y2.6945  
G01 X-0.5445 Y2.6905  
G01 X-0.5516 Y2.6854  
G01 X-0.5578 Y2.6792  
G01 X-0.5630 Y2.6721  
G01 X-0.5670 Y2.6643  
G01 X-0.5697 Y2.6560  
G01 X-0.5711 Y2.6473  
G01 X-0.5711 Y2.6385  
G01 X-0.5697 Y2.6299  
G01 X-0.5670 Y2.6215  
G01 X-0.5630 Y2.6137  
G01 X-0.5578 Y2.6066  
G01 X-0.5516 Y2.6004  
G01 X-0.5445 Y2.5953  
G01 X-0.5367 Y2.5913  
G01 X-0.5284 Y2.5886  
G01 X-0.5197 Y2.5872  
G01 X-0.5110 Y2.5872  
G01 X-0.5023 Y2.5886  
G01 X-0.4940 Y2.5913  
G01 X-0.4862 Y2.5953  
G01 X-0.4791 Y2.6004  
G01 X-0.4729 Y2.6066  
G00 Z0.0500  
G00 X-0.1544 Y0.2168  
G01 Z-0.0035 F10    
G01 X-0.1497 Y0.2233  F20    
G01 X-0.1460 Y0.2304  
G01 X-0.1436 Y0.2381  
G01 X-0.1423 Y0.2460  
G01 X-0.1423 Y0.2540  
G01 X-0.1436 Y0.2619  
G01 X-0.1460 Y0.2696  
G01 X-0.1497 Y0.2767  
G01 X-0.1544 Y0.2832  
G01 X-0.1601 Y0.2889  
G01 X-0.1666 Y0.2936  
G01 X-0.1737 Y0.2973  
G01 X-0.1814 Y0.2997  
G01 X-0.1893 Y0.3010  
G01 X-0.1973 Y0.3010  
G01 X-0.2052 Y0.2997  
G01 X-0.2129 Y0.2973  
G01 X-0.2200 Y0.2936  
G01 X-0.2265 Y0.2889  
G01 X-0.2322 Y0.2832  
G01 X-0.2369 Y0.2767  
G01 X-0.2406 Y0.2696  
G01 X-0.2431 Y0.2619  
G01 X-0.2443 Y0.2540  
G01 X-0.2443 Y0.2460  
G01 X-0.2431 Y0.2381  
G01 X-0.2406 Y0.2304  
G01 X-0.2369 Y0.2233  
G01 X-0.2322 Y0.2168  
G01 X-0.2265 Y0.2111  
G01 X-0.2200 Y0.2064  
G01 X-0.2129 Y0.2027  
G01 X-0.2052 Y0.2003  
G01 X-0.1973 Y0.1990  
G01 X-0.1893 Y0.1990  
G01 X-0.1814 Y0.2003  
G01 X-0.1737 Y0.2027  
G01 X-0.1666 Y0.2064  
G01 X-0.1601 Y0.2111  
G01 X-0.1544 Y0.2168  
G00 Z0.0500  
G00 X-0.2922 Y0.2168  
G01 Z-0.0035 F10    
G01 X-0.2875 Y0.2233  F20    
G01 X-0.2838 Y0.2304  
G01 X-0.2814 Y0.2381  
G01 X-0.2801 Y0.2460  
G01 X-0.2801 Y0.2540  
G01 X-0.2814 Y0.2619  
G01 X-0.2838 Y0.2696  
G01 X-0.2875 Y0.2767  
G01 X-0.2922 Y0.2832  
G01 X-0.2979 Y0.2889  
G01 X-0.3012 Y0.2913  
G01 X-0.2604 Y0.3688  
G01 X-0.2598 Y0.3697  
G01 X-0.2593 Y0.3709  
G01 X-0.2588 Y0.3720  
G01 X-0.2584 Y0.3731  
G01 X-0.2580 Y0.3741  
G01 X-0.2578 Y0.3753  
G01 X-0.2574 Y0.3766  
G01 X-0.2573 Y0.3777  
G01 X-0.2571 Y0.3787  
G01 X-0.2571 Y0.3800  
G01 X-0.2570 Y0.3813  
G01 X-0.2571 Y0.3824  
G01 X-0.2571 Y0.4487  
G01 X-0.2544 Y0.4501  
G01 X-0.2479 Y0.4548  
G01 X-0.2422 Y0.4605  
G01 X-0.2375 Y0.4670  
G01 X-0.2338 Y0.4741  
G01 X-0.2314 Y0.4818  
G01 X-0.2301 Y0.4897  
G01 X-0.2301 Y0.4977  
G01 X-0.2314 Y0.5056  
G01 X-0.2338 Y0.5133  
G01 X-0.2375 Y0.5204  
G01 X-0.2422 Y0.5269  
G01 X-0.2479 Y0.5326  
G01 X-0.2544 Y0.5373  
G01 X-0.2615 Y0.5410  
G01 X-0.2692 Y0.5434  
G01 X-0.2771 Y0.5447  
G01 X-0.2851 Y0.5447  
G01 X-0.2930 Y0.5434  
G01 X-0.3007 Y0.5410  
G01 X-0.3078 Y0.5373  
G01 X-0.3143 Y0.5326  
G01 X-0.3200 Y0.5269  
G01 X-0.3247 Y0.5204  
G01 X-0.3284 Y0.5133  
G01 X-0.3308 Y0.5056  
G01 X-0.3321 Y0.4977  
G01 X-0.3321 Y0.4897  
G01 X-0.3308 Y0.4818  
G01 X-0.3284 Y0.4741  
G01 X-0.3247 Y0.4670  
G01 X-0.3200 Y0.4605  
G01 X-0.3143 Y0.4548  
G01 X-0.3078 Y0.4501  
G01 X-0.3051 Y0.4487  
G01 X-0.3051 Y0.3870  
G01 X-0.3529 Y0.2962  
G01 X-0.3578 Y0.2936  
G01 X-0.3643 Y0.2889  
G01 X-0.3700 Y0.2832  
G01 X-0.3747 Y0.2767  
G01 X-0.3784 Y0.2696  
G01 X-0.3808 Y0.2619  
G01 X-0.3821 Y0.2540  
G01 X-0.3821 Y0.2460  
G01 X-0.3808 Y0.2381  
G01 X-0.3784 Y0.2304  
G01 X-0.3747 Y0.2233  
G01 X-0.3700 Y0.2168  
G01 X-0.3643 Y0.2111  
G01 X-0.3578 Y0.2064  
G01 X-0.3507 Y0.2027  
G01 X-0.3430 Y0.2003  
G01 X-0.3351 Y0.1990  
G01 X-0.3271 Y0.1990  
G01 X-0.3192 Y0.2003  
G01 X-0.3115 Y0.2027  
G01 X-0.3044 Y0.2064  
G01 X-0.2979 Y0.2111  
G01 X-0.2922 Y0.2168  
G00 Z0.0500  
G00 X-0.4300 Y0.2168  
G01 Z-0.0035 F10    
G01 X-0.4253 Y0.2233  F20    
G01 X-0.4216 Y0.2304  
G01 X-0.4192 Y0.2381  
G01 X-0.4179 Y0.2460  
G01 X-0.4179 Y0.2540  
G01 X-0.4192 Y0.2619  
G01 X-0.4216 Y0.2696  
G01 X-0.4253 Y0.2767  
G01 X-0.4300 Y0.2832  
G01 X-0.4357 Y0.2889  
G01 X-0.4390 Y0.2913  
G01 X-0.4271 Y0.3426  
G01 X-0.4269 Y0.3430  
G01 X-0.4265 Y0.3449  
G01 X-0.4261 Y0.3469  
G01 X-0.4261 Y0.3472  
G01 X-0.4260 Y0.3476  
G01 X-0.4260 Y0.3496  
G01 X-0.4259 Y0.3516  
G01 X-0.4260 Y0.3520  
G01 X-0.4260 Y0.4432  
G01 X-0.4229 Y0.4427  
G01 X-0.4149 Y0.4427  
G01 X-0.4070 Y0.4440  
G01 X-0.3993 Y0.4464  
G01 X-0.3922 Y0.4501  
G01 X-0.3857 Y0.4548  
G01 X-0.3800 Y0.4605  
G01 X-0.3753 Y0.4670  
G01 X-0.3716 Y0.4741  
G01 X-0.3692 Y0.4818  
G01 X-0.3679 Y0.4897  
G01 X-0.3679 Y0.4977  
G01 X-0.3692 Y0.5056  
G01 X-0.3716 Y0.5133  
G01 X-0.3753 Y0.5204  
G01 X-0.3800 Y0.5269  
G01 X-0.3857 Y0.5326  
G01 X-0.3922 Y0.5373  
G01 X-0.3993 Y0.5410  
G01 X-0.4070 Y0.5434  
G01 X-0.4149 Y0.5447  
G01 X-0.4229 Y0.5447  
G01 X-0.4308 Y0.5434  
G01 X-0.4385 Y0.5410  
G01 X-0.4456 Y0.5373  
G01 X-0.4521 Y0.5326  
G01 X-0.4578 Y0.5269  
G01 X-0.4625 Y0.5204  
G01 X-0.4662 Y0.5133  
G01 X-0.4686 Y0.5056  
G01 X-0.4699 Y0.4977  
G01 X-0.4699 Y0.4897  
G01 X-0.4686 Y0.4818  
G01 X-0.4677 Y0.4788  
G01 X-0.4686 Y0.4779  
G01 X-0.4713 Y0.4740  
G01 X-0.4731 Y0.4696  
G01 X-0.4740 Y0.4650  
G01 X-0.4740 Y0.3528  
G01 X-0.4868 Y0.2978  
G01 X-0.4885 Y0.2973  
G01 X-0.4956 Y0.2936  
G01 X-0.5021 Y0.2889  
G01 X-0.5078 Y0.2832  
G01 X-0.5125 Y0.2767  
G01 X-0.5162 Y0.2696  
G01 X-0.5186 Y0.2619  
G01 X-0.5199 Y0.2540  
G01 X-0.5199 Y0.2460  
G01 X-0.5186 Y0.2381  
G01 X-0.5162 Y0.2304  
G01 X-0.5125 Y0.2233  
G01 X-0.5078 Y0.2168  
G01 X-0.5021 Y0.2111  
G01 X-0.4956 Y0.2064  
G01 X-0.4885 Y0.2027  
G01 X-0.4808 Y0.2003  
G01 X-0.4729 Y0.1990  
G01 X-0.4649 Y0.1990  
G01 X-0.4570 Y0.2003  
G01 X-0.4493 Y0.2027  
G01 X-0.4422 Y0.2064  
G01 X-0.4357 Y0.2111  
G01 X-0.4300 Y0.2168  
G00 Z0.0500  
G00 X-0.5678 Y0.2168  
G01 Z-0.0035 F10    
G01 X-0.5631 Y0.2233  F20    
G01 X-0.5594 Y0.2304  
G01 X-0.5569 Y0.2381  
G01 X-0.5557 Y0.2460  
G01 X-0.5557 Y0.2540  
G01 X-0.5569 Y0.2619  
G01 X-0.5594 Y0.2696  
G01 X-0.5631 Y0.2767  
G01 X-0.5678 Y0.2832  
G01 X-0.5735 Y0.2889  
G01 X-0.5800 Y0.2936  
G01 X-0.5871 Y0.2973  
G01 X-0.5918 Y0.2988  
G01 X-0.6010 Y0.3456  
G01 X-0.6010 Y0.6917  
G01 X-0.3320 Y1.0340  
G01 X-0.3314 Y1.0347  
G01 X-0.3306 Y1.0359  
G01 X-0.3297 Y1.0370  
G01 X-0.3292 Y1.0379  
G01 X-0.3287 Y1.0386  
G01 X-0.3282 Y1.0400  
G01 X-0.3275 Y1.0412  
G01 X-0.3273 Y1.0421  
G01 X-0.3269 Y1.0430  
G01 X-0.3266 Y1.0444  
G01 X-0.3263 Y1.0458  
G01 X-0.3262 Y1.0467  
G01 X-0.3260 Y1.0476  
G01 X-0.3260 Y1.0491  
G01 X-0.3259 Y1.0505  
G01 X-0.3260 Y1.0514  
G01 X-0.3260 Y2.6935  
G01 X-0.2898 Y2.7560  
G01 X-0.2851 Y2.7553  
G01 X-0.2771 Y2.7553  
G01 X-0.2692 Y2.7566  
G01 X-0.2615 Y2.7590  
G01 X-0.2544 Y2.7627  
G01 X-0.2479 Y2.7674  
G01 X-0.2422 Y2.7731  
G01 X-0.2375 Y2.7796  
G01 X-0.2338 Y2.7867  
G01 X-0.2314 Y2.7944  
G01 X-0.2301 Y2.8023  
G01 X-0.2301 Y2.8103  
G01 X-0.2314 Y2.8182  
G01 X-0.2338 Y2.8259  
G01 X-0.2375 Y2.8330  
G01 X-0.2422 Y2.8395  
G01 X-0.2479 Y2.8452  
G01 X-0.2544 Y2.8499  
G01 X-0.2615 Y2.8536  
G01 X-0.2692 Y2.8560  
G01 X-0.2771 Y2.8573  
G01 X-0.2851 Y2.8573  
G01 X-0.2930 Y2.8560  
G01 X-0.3007 Y2.8536  
G01 X-0.3078 Y2.8499  
G01 X-0.3143 Y2.8452  
G01 X-0.3200 Y2.8395  
G01 X-0.3247 Y2.8330  
G01 X-0.3284 Y2.8259  
G01 X-0.3308 Y2.8182  
G01 X-0.3321 Y2.8103  
G01 X-0.3321 Y2.8023  
G01 X-0.3308 Y2.7944  
G01 X-0.3284 Y2.7867  
G01 X-0.3280 Y2.7859  
G01 X-0.3704 Y2.7127  
G01 X-0.3713 Y2.7114  
G01 X-0.3716 Y2.7107  
G01 X-0.3720 Y2.7100  
G01 X-0.3725 Y2.7085  
G01 X-0.3731 Y2.7070  
G01 X-0.3732 Y2.7062  
G01 X-0.3735 Y2.7055  
G01 X-0.3737 Y2.7039  
G01 X-0.3740 Y2.7024  
G01 X-0.3740 Y2.7016  
G01 X-0.3741 Y2.7008  
G01 X-0.3740 Y2.6992  
G01 X-0.3740 Y1.0583  
G01 X-0.6430 Y0.7160  
G01 X-0.6436 Y0.7153  
G01 X-0.6444 Y0.7141  
G01 X-0.6453 Y0.7130  
G01 X-0.6458 Y0.7121  
G01 X-0.6463 Y0.7114  
G01 X-0.6468 Y0.7100  
G01 X-0.6475 Y0.7088  
G01 X-0.6477 Y0.7079  
G01 X-0.6481 Y0.7070  
G01 X-0.6484 Y0.7056  
G01 X-0.6487 Y0.7042  
G01 X-0.6488 Y0.7033  
G01 X-0.6490 Y0.7024  
G01 X-0.6490 Y0.7009  
G01 X-0.6491 Y0.6995  
G01 X-0.6490 Y0.6986  
G01 X-0.6490 Y0.3433  
G01 X-0.6490 Y0.3410  
G01 X-0.6485 Y0.3386  
G01 X-0.6389 Y0.2896  
G01 X-0.6399 Y0.2889  
G01 X-0.6456 Y0.2832  
G01 X-0.6503 Y0.2767  
G01 X-0.6540 Y0.2696  
G01 X-0.6564 Y0.2619  
G01 X-0.6577 Y0.2540  
G01 X-0.6577 Y0.2460  
G01 X-0.6564 Y0.2381  
G01 X-0.6540 Y0.2304  
G01 X-0.6503 Y0.2233  
G01 X-0.6456 Y0.2168  
G01 X-0.6399 Y0.2111  
G01 X-0.6334 Y0.2064  
G01 X-0.6263 Y0.2027  
G01 X-0.6186 Y0.2003  
G01 X-0.6107 Y0.1990  
G01 X-0.6027 Y0.1990  
G01 X-0.5948 Y0.2003  
G01 X-0.5871 Y0.2027  
G01 X-0.5800 Y0.2064  
G01 X-0.5735 Y0.2111  
G01 X-0.5678 Y0.2168  
G00 Z0.0500  
G00 X-0.5533 Y0.6127  
G01 Z-0.0035 F10    
G01 X-0.5459 Y0.6073  F20    
G01 X-0.5377 Y0.6032  
G01 X-0.5290 Y0.6003  
G01 X-0.5199 Y0.5989  
G01 X-0.5108 Y0.5989  
G01 X-0.5017 Y0.6003  
G01 X-0.4930 Y0.6032  
G01 X-0.4849 Y0.6073  
G01 X-0.4774 Y0.6127  
G01 X-0.4710 Y0.6192  
G01 X-0.4656 Y0.6266  
G01 X-0.4614 Y0.6347  
G01 X-0.4586 Y0.6435  
G01 X-0.4572 Y0.6525  
G01 X-0.4572 Y0.6617  
G01 X-0.4586 Y0.6707  
G01 X-0.4614 Y0.6794  
G01 X-0.4656 Y0.6876  
G01 X-0.4710 Y0.6950  
G01 X-0.4774 Y0.7015  
G01 X-0.4849 Y0.7069  
G01 X-0.4930 Y0.7110  
G01 X-0.5017 Y0.7139  
G01 X-0.5108 Y0.7153  
G01 X-0.5199 Y0.7153  
G01 X-0.5290 Y0.7139  
G01 X-0.5377 Y0.7110  
G01 X-0.5459 Y0.7069  
G01 X-0.5533 Y0.7015  
G01 X-0.5597 Y0.6950  
G01 X-0.5651 Y0.6876  
G01 X-0.5693 Y0.6794  
G01 X-0.5721 Y0.6707  
G01 X-0.5736 Y0.6617  
G01 X-0.5736 Y0.6525  
G01 X-0.5721 Y0.6435  
G01 X-0.5693 Y0.6347  
G01 X-0.5651 Y0.6266  
G01 X-0.5597 Y0.6192  
G01 X-0.5533 Y0.6127  
G00 Z0.0500  
G00 X-0.2226 Y0.6599  
G01 Z-0.0035 F10    
G01 X-0.2151 Y0.6546  F20    
G01 X-0.2070 Y0.6504  
G01 X-0.1983 Y0.6476  
G01 X-0.1892 Y0.6461  
G01 X-0.1801 Y0.6461  
G01 X-0.1710 Y0.6476  
G01 X-0.1623 Y0.6504  
G01 X-0.1541 Y0.6546  
G01 X-0.1467 Y0.6599  
G01 X-0.1403 Y0.6664  
G01 X-0.1349 Y0.6738  
G01 X-0.1307 Y0.6820  
G01 X-0.1279 Y0.6907  
G01 X-0.1264 Y0.6998  
G01 X-0.1264 Y0.7089  
G01 X-0.1279 Y0.7180  
G01 X-0.1307 Y0.7267  
G01 X-0.1349 Y0.7348  
G01 X-0.1403 Y0.7422  
G01 X-0.1467 Y0.7487  
G01 X-0.1541 Y0.7541  
G01 X-0.1623 Y0.7583  
G01 X-0.1710 Y0.7611  
G01 X-0.1801 Y0.7625  
G01 X-0.1892 Y0.7625  
G01 X-0.1983 Y0.7611  
G01 X-0.2070 Y0.7583  
G01 X-0.2151 Y0.7541  
G01 X-0.2226 Y0.7487  
G01 X-0.2290 Y0.7422  
G01 X-0.2344 Y0.7348  
G01 X-0.2386 Y0.7267  
G01 X-0.2414 Y0.7180  
G01 X-0.2428 Y0.7089  
G01 X-0.2428 Y0.6998  
G01 X-0.2414 Y0.6907  
G01 X-0.2386 Y0.6820  
G01 X-0.2344 Y0.6738  
G01 X-0.2290 Y0.6664  
G01 X-0.2226 Y0.6599  
G00 Z0.0500  
G00 X-0.2226 Y2.5513  
G01 Z-0.0035 F10    
G01 X-0.2151 Y2.5459  F20    
G01 X-0.2070 Y2.5417  
G01 X-0.1983 Y2.5389  
G01 X-0.1892 Y2.5375  
G01 X-0.1801 Y2.5375  
G01 X-0.1710 Y2.5389  
G01 X-0.1623 Y2.5417  
G01 X-0.1541 Y2.5459  
G01 X-0.1467 Y2.5513  
G01 X-0.1403 Y2.5578  
G01 X-0.1349 Y2.5652  
G01 X-0.1307 Y2.5733  
G01 X-0.1279 Y2.5820  
G01 X-0.1264 Y2.5911  
G01 X-0.1264 Y2.6002  
G01 X-0.1279 Y2.6093  
G01 X-0.1307 Y2.6180  
G01 X-0.1349 Y2.6262  
G01 X-0.1403 Y2.6336  
G01 X-0.1467 Y2.6401  
G01 X-0.1541 Y2.6454  
G01 X-0.1623 Y2.6496  
G01 X-0.1710 Y2.6524  
G01 X-0.1801 Y2.6539  
G01 X-0.1892 Y2.6539  
G01 X-0.1983 Y2.6524  
G01 X-0.2070 Y2.6496  
G01 X-0.2151 Y2.6454  
G01 X-0.2226 Y2.6401  
G01 X-0.2290 Y2.6336  
G01 X-0.2344 Y2.6262  
G01 X-0.2386 Y2.6180  
G01 X-0.2414 Y2.6093  
G01 X-0.2428 Y2.6002  
G01 X-0.2428 Y2.5911  
G01 X-0.2414 Y2.5820  
G01 X-0.2386 Y2.5733  
G01 X-0.2344 Y2.5652  
G01 X-0.2290 Y2.5578  
G01 X-0.2226 Y2.5513  
G00 Z0.0500  
G00 X-0.4710 Y2.6050  
G01 Z-0.0035 F10    
G01 X-0.4656 Y2.6124  F20    
G01 X-0.4614 Y2.6206  
G01 X-0.4586 Y2.6293  
G01 X-0.4572 Y2.6383  
G01 X-0.4572 Y2.6475  
G01 X-0.4586 Y2.6565  
G01 X-0.4614 Y2.6653  
G01 X-0.4656 Y2.6734  
G01 X-0.4710 Y2.6808  
G01 X-0.4774 Y2.6873  
G01 X-0.4849 Y2.6927  
G01 X-0.4930 Y2.6968  
G01 X-0.5017 Y2.6997  
G01 X-0.5108 Y2.7011  
G01 X-0.5199 Y2.7011  
G01 X-0.5290 Y2.6997  
G01 X-0.5377 Y2.6968  
G01 X-0.5459 Y2.6927  
G01 X-0.5533 Y2.6873  
G01 X-0.5597 Y2.6808  
G01 X-0.5651 Y2.6734  
G01 X-0.5693 Y2.6653  
G01 X-0.5721 Y2.6565  
G01 X-0.5736 Y2.6475  
G01 X-0.5736 Y2.6383  
G01 X-0.5721 Y2.6293  
G01 X-0.5693 Y2.6206  
G01 X-0.5651 Y2.6124  
G01 X-0.5597 Y2.6050  
G01 X-0.5533 Y2.5985  
G01 X-0.5459 Y2.5931  
G01 X-0.5377 Y2.5890  
G01 X-0.5290 Y2.5861  
G01 X-0.5199 Y2.5847  
G01 X-0.5108 Y2.5847  
G01 X-0.5017 Y2.5861  
G01 X-0.4930 Y2.5890  
G01 X-0.4849 Y2.5931  
G01 X-0.4774 Y2.5985  
G01 X-0.4710 Y2.6050  
G00 Z0.0500  
G00 X-0.1525 Y0.2151  
G01 Z-0.0035 F10    
G01 X-0.1475 Y0.2220  F20    
G01 X-0.1437 Y0.2295  
G01 X-0.1411 Y0.2375  
G01 X-0.1398 Y0.2458  
G01 X-0.1398 Y0.2542  
G01 X-0.1411 Y0.2625  
G01 X-0.1437 Y0.2705  
G01 X-0.1475 Y0.2780  
G01 X-0.1525 Y0.2849  
G01 X-0.1585 Y0.2908  
G01 X-0.1653 Y0.2958  
G01 X-0.1728 Y0.2996  
G01 X-0.1808 Y0.3022  
G01 X-0.1891 Y0.3035  
G01 X-0.1975 Y0.3035  
G01 X-0.2058 Y0.3022  
G01 X-0.2138 Y0.2996  
G01 X-0.2213 Y0.2958  
G01 X-0.2282 Y0.2908  
G01 X-0.2341 Y0.2849  
G01 X-0.2391 Y0.2780  
G01 X-0.2429 Y0.2705  
G01 X-0.2455 Y0.2625  
G01 X-0.2468 Y0.2542  
G01 X-0.2468 Y0.2458  
G01 X-0.2455 Y0.2375  
G01 X-0.2429 Y0.2295  
G01 X-0.2391 Y0.2220  
G01 X-0.2341 Y0.2151  
G01 X-0.2282 Y0.2092  
G01 X-0.2213 Y0.2042  
G01 X-0.2138 Y0.2004  
G01 X-0.2058 Y0.1978  
G01 X-0.1975 Y0.1965  
G01 X-0.1891 Y0.1965  
G01 X-0.1808 Y0.1978  
G01 X-0.1728 Y0.2004  
G01 X-0.1653 Y0.2042  
G01 X-0.1585 Y0.2092  
G01 X-0.1525 Y0.2151  
G00 Z0.0500  
G00 X-0.2903 Y0.2151  
G01 Z-0.0035 F10    
G01 X-0.2853 Y0.2220  F20    
G01 X-0.2815 Y0.2295  
G01 X-0.2789 Y0.2375  
G01 X-0.2776 Y0.2458  
G01 X-0.2776 Y0.2542  
G01 X-0.2789 Y0.2625  
G01 X-0.2815 Y0.2705  
G01 X-0.2853 Y0.2780  
G01 X-0.2903 Y0.2849  
G01 X-0.2962 Y0.2908  
G01 X-0.2980 Y0.2921  
G01 X-0.2583 Y0.3675  
G01 X-0.2576 Y0.3685  
G01 X-0.2571 Y0.3698  
G01 X-0.2564 Y0.3711  
G01 X-0.2561 Y0.3722  
G01 X-0.2556 Y0.3734  
G01 X-0.2553 Y0.3747  
G01 X-0.2550 Y0.3761  
G01 X-0.2548 Y0.3773  
G01 X-0.2546 Y0.3785  
G01 X-0.2546 Y0.3799  
G01 X-0.2545 Y0.3813  
G01 X-0.2546 Y0.3825  
G01 X-0.2546 Y0.4472  
G01 X-0.2531 Y0.4479  
G01 X-0.2462 Y0.4529  
G01 X-0.2403 Y0.4588  
G01 X-0.2353 Y0.4657  
G01 X-0.2315 Y0.4732  
G01 X-0.2289 Y0.4812  
G01 X-0.2276 Y0.4895  
G01 X-0.2276 Y0.4979  
G01 X-0.2289 Y0.5062  
G01 X-0.2315 Y0.5142  
G01 X-0.2353 Y0.5217  
G01 X-0.2403 Y0.5286  
G01 X-0.2462 Y0.5345  
G01 X-0.2531 Y0.5395  
G01 X-0.2606 Y0.5433  
G01 X-0.2686 Y0.5459  
G01 X-0.2769 Y0.5472  
G01 X-0.2853 Y0.5472  
G01 X-0.2936 Y0.5459  
G01 X-0.3016 Y0.5433  
G01 X-0.3091 Y0.5395  
G01 X-0.3160 Y0.5345  
G01 X-0.3219 Y0.5286  
G01 X-0.3269 Y0.5217  
G01 X-0.3307 Y0.5142  
G01 X-0.3333 Y0.5062  
G01 X-0.3346 Y0.4979  
G01 X-0.3346 Y0.4895  
G01 X-0.3333 Y0.4812  
G01 X-0.3307 Y0.4732  
G01 X-0.3269 Y0.4657  
G01 X-0.3219 Y0.4588  
G01 X-0.3160 Y0.4529  
G01 X-0.3091 Y0.4479  
G01 X-0.3076 Y0.4472  
G01 X-0.3076 Y0.3876  
G01 X-0.3547 Y0.2980  
G01 X-0.3591 Y0.2958  
G01 X-0.3660 Y0.2908  
G01 X-0.3719 Y0.2849  
G01 X-0.3769 Y0.2780  
G01 X-0.3807 Y0.2705  
G01 X-0.3833 Y0.2625  
G01 X-0.3846 Y0.2542  
G01 X-0.3846 Y0.2458  
G01 X-0.3833 Y0.2375  
G01 X-0.3807 Y0.2295  
G01 X-0.3769 Y0.2220  
G01 X-0.3719 Y0.2151  
G01 X-0.3660 Y0.2092  
G01 X-0.3591 Y0.2042  
G01 X-0.3516 Y0.2004  
G01 X-0.3436 Y0.1978  
G01 X-0.3353 Y0.1965  
G01 X-0.3269 Y0.1965  
G01 X-0.3186 Y0.1978  
G01 X-0.3106 Y0.2004  
G01 X-0.3031 Y0.2042  
G01 X-0.2962 Y0.2092  
G01 X-0.2903 Y0.2151  
G00 Z0.0500  
G00 X-0.4281 Y0.2151  
G01 Z-0.0035 F10    
G01 X-0.4231 Y0.2220  F20    
G01 X-0.4193 Y0.2295  
G01 X-0.4167 Y0.2375  
G01 X-0.4154 Y0.2458  
G01 X-0.4154 Y0.2542  
G01 X-0.4167 Y0.2625  
G01 X-0.4193 Y0.2705  
G01 X-0.4231 Y0.2780  
G01 X-0.4281 Y0.2849  
G01 X-0.4340 Y0.2908  
G01 X-0.4362 Y0.2924  
G01 X-0.4247 Y0.3419  
G01 X-0.4245 Y0.3423  
G01 X-0.4241 Y0.3444  
G01 X-0.4236 Y0.3465  
G01 X-0.4236 Y0.3470  
G01 X-0.4235 Y0.3474  
G01 X-0.4235 Y0.3496  
G01 X-0.4234 Y0.3517  
G01 X-0.4235 Y0.3522  
G01 X-0.4235 Y0.4403  
G01 X-0.4231 Y0.4402  
G01 X-0.4147 Y0.4402  
G01 X-0.4064 Y0.4415  
G01 X-0.3984 Y0.4441  
G01 X-0.3909 Y0.4479  
G01 X-0.3840 Y0.4529  
G01 X-0.3781 Y0.4588  
G01 X-0.3731 Y0.4657  
G01 X-0.3693 Y0.4732  
G01 X-0.3667 Y0.4812  
G01 X-0.3654 Y0.4895  
G01 X-0.3654 Y0.4979  
G01 X-0.3667 Y0.5062  
G01 X-0.3693 Y0.5142  
G01 X-0.3731 Y0.5217  
G01 X-0.3781 Y0.5286  
G01 X-0.3840 Y0.5345  
G01 X-0.3909 Y0.5395  
G01 X-0.3984 Y0.5433  
G01 X-0.4064 Y0.5459  
G01 X-0.4147 Y0.5472  
G01 X-0.4231 Y0.5472  
G01 X-0.4314 Y0.5459  
G01 X-0.4394 Y0.5433  
G01 X-0.4469 Y0.5395  
G01 X-0.4538 Y0.5345  
G01 X-0.4597 Y0.5286  
G01 X-0.4647 Y0.5217  
G01 X-0.4685 Y0.5142  
G01 X-0.4711 Y0.5062  
G01 X-0.4724 Y0.4979  
G01 X-0.4724 Y0.4895  
G01 X-0.4711 Y0.4812  
G01 X-0.4705 Y0.4795  
G01 X-0.4735 Y0.4752  
G01 X-0.4755 Y0.4703  
G01 X-0.4765 Y0.4652  
G01 X-0.4765 Y0.3530  
G01 X-0.4889 Y0.2997  
G01 X-0.4894 Y0.2996  
G01 X-0.4969 Y0.2958  
G01 X-0.5038 Y0.2908  
G01 X-0.5097 Y0.2849  
G01 X-0.5147 Y0.2780  
G01 X-0.5185 Y0.2705  
G01 X-0.5211 Y0.2625  
G01 X-0.5224 Y0.2542  
G01 X-0.5224 Y0.2458  
G01 X-0.5211 Y0.2375  
G01 X-0.5185 Y0.2295  
G01 X-0.5147 Y0.2220  
G01 X-0.5097 Y0.2151  
G01 X-0.5038 Y0.2092  
G01 X-0.4969 Y0.2042  
G01 X-0.4894 Y0.2004  
G01 X-0.4814 Y0.1978  
G01 X-0.4731 Y0.1965  
G01 X-0.4647 Y0.1965  
G01 X-0.4564 Y0.1978  
G01 X-0.4484 Y0.2004  
G01 X-0.4409 Y0.2042  
G01 X-0.4340 Y0.2092  
G01 X-0.4281 Y0.2151  
G00 Z0.0500  
G00 X-0.5659 Y0.2151  
G01 Z-0.0035 F10    
G01 X-0.5609 Y0.2220  F20    
G01 X-0.5571 Y0.2295  
G01 X-0.5545 Y0.2375  
G01 X-0.5532 Y0.2458  
G01 X-0.5532 Y0.2542  
G01 X-0.5545 Y0.2625  
G01 X-0.5571 Y0.2705  
G01 X-0.5609 Y0.2780  
G01 X-0.5659 Y0.2849  
G01 X-0.5718 Y0.2908  
G01 X-0.5787 Y0.2958  
G01 X-0.5862 Y0.2996  
G01 X-0.5896 Y0.3007  
G01 X-0.5985 Y0.3459  
G01 X-0.5985 Y0.6908  
G01 X-0.3301 Y1.0324  
G01 X-0.3294 Y1.0331  
G01 X-0.3285 Y1.0344  
G01 X-0.3276 Y1.0357  
G01 X-0.3271 Y1.0366  
G01 X-0.3265 Y1.0374  
G01 X-0.3259 Y1.0389  
G01 X-0.3252 Y1.0403  
G01 X-0.3249 Y1.0413  
G01 X-0.3245 Y1.0423  
G01 X-0.3242 Y1.0438  
G01 X-0.3238 Y1.0454  
G01 X-0.3237 Y1.0464  
G01 X-0.3235 Y1.0474  
G01 X-0.3235 Y1.0490  
G01 X-0.3234 Y1.0506  
G01 X-0.3235 Y1.0516  
G01 X-0.3235 Y2.6929  
G01 X-0.2885 Y2.7533  
G01 X-0.2853 Y2.7528  
G01 X-0.2769 Y2.7528  
G01 X-0.2686 Y2.7541  
G01 X-0.2606 Y2.7567  
G01 X-0.2531 Y2.7605  
G01 X-0.2462 Y2.7655  
G01 X-0.2403 Y2.7714  
G01 X-0.2353 Y2.7783  
G01 X-0.2315 Y2.7858  
G01 X-0.2289 Y2.7938  
G01 X-0.2276 Y2.8021  
G01 X-0.2276 Y2.8105  
G01 X-0.2289 Y2.8188  
G01 X-0.2315 Y2.8268  
G01 X-0.2353 Y2.8343  
G01 X-0.2403 Y2.8412  
G01 X-0.2462 Y2.8471  
G01 X-0.2531 Y2.8521  
G01 X-0.2606 Y2.8559  
G01 X-0.2686 Y2.8585  
G01 X-0.2769 Y2.8598  
G01 X-0.2853 Y2.8598  
G01 X-0.2936 Y2.8585  
G01 X-0.3016 Y2.8559  
G01 X-0.3091 Y2.8521  
G01 X-0.3160 Y2.8471  
G01 X-0.3219 Y2.8412  
G01 X-0.3269 Y2.8343  
G01 X-0.3307 Y2.8268  
G01 X-0.3333 Y2.8188  
G01 X-0.3346 Y2.8105  
G01 X-0.3346 Y2.8021  
G01 X-0.3333 Y2.7938  
G01 X-0.3308 Y2.7860  
G01 X-0.3725 Y2.7140  
G01 X-0.3735 Y2.7126  
G01 X-0.3738 Y2.7118  
G01 X-0.3742 Y2.7110  
G01 X-0.3748 Y2.7094  
G01 X-0.3755 Y2.7077  
G01 X-0.3756 Y2.7069  
G01 X-0.3759 Y2.7061  
G01 X-0.3762 Y2.7043  
G01 X-0.3765 Y2.7026  
G01 X-0.3765 Y2.7018  
G01 X-0.3766 Y2.7009  
G01 X-0.3765 Y2.6992  
G01 X-0.3765 Y1.0592  
G01 X-0.6449 Y0.7176  
G01 X-0.6456 Y0.7169  
G01 X-0.6465 Y0.7156  
G01 X-0.6474 Y0.7143  
G01 X-0.6479 Y0.7134  
G01 X-0.6485 Y0.7126  
G01 X-0.6491 Y0.7111  
G01 X-0.6498 Y0.7097  
G01 X-0.6501 Y0.7087  
G01 X-0.6505 Y0.7077  
G01 X-0.6508 Y0.7062  
G01 X-0.6512 Y0.7046  
G01 X-0.6513 Y0.7036  
G01 X-0.6515 Y0.7026  
G01 X-0.6515 Y0.7010  
G01 X-0.6516 Y0.6994  
G01 X-0.6515 Y0.6984  
G01 X-0.6515 Y0.3434  
G01 X-0.6515 Y0.3408  
G01 X-0.6510 Y0.3382  
G01 X-0.6417 Y0.2907  
G01 X-0.6475 Y0.2849  
G01 X-0.6525 Y0.2780  
G01 X-0.6563 Y0.2705  
G01 X-0.6589 Y0.2625  
G01 X-0.6602 Y0.2542  
G01 X-0.6602 Y0.2458  
G01 X-0.6589 Y0.2375  
G01 X-0.6563 Y0.2295  
G01 X-0.6525 Y0.2220  
G01 X-0.6475 Y0.2151  
G01 X-0.6415 Y0.2092  
G01 X-0.6347 Y0.2042  
G01 X-0.6272 Y0.2004  
G01 X-0.6192 Y0.1978  
G01 X-0.6109 Y0.1965  
G01 X-0.6025 Y0.1965  
G01 X-0.5942 Y0.1978  
G01 X-0.5862 Y0.2004  
G01 X-0.5787 Y0.2042  
G01 X-0.5718 Y0.2092  
G01 X-0.5659 Y0.2151  
G00 Z0.0500  
G00 X-0.5549 Y0.6108  
G01 Z-0.0035 F10    
G01 X-0.5472 Y0.6052  F20    
G01 X-0.5387 Y0.6008  
G01 X-0.5296 Y0.5979  
G01 X-0.5201 Y0.5964  
G01 X-0.5106 Y0.5964  
G01 X-0.5011 Y0.5979  
G01 X-0.4921 Y0.6008  
G01 X-0.4835 Y0.6052  
G01 X-0.4758 Y0.6108  
G01 X-0.4691 Y0.6175  
G01 X-0.4634 Y0.6253  
G01 X-0.4591 Y0.6338  
G01 X-0.4562 Y0.6429  
G01 X-0.4547 Y0.6523  
G01 X-0.4547 Y0.6619  
G01 X-0.4562 Y0.6713  
G01 X-0.4591 Y0.6804  
G01 X-0.4634 Y0.6889  
G01 X-0.4691 Y0.6966  
G01 X-0.4758 Y0.7034  
G01 X-0.4835 Y0.7090  
G01 X-0.4921 Y0.7133  
G01 X-0.5011 Y0.7163  
G01 X-0.5106 Y0.7178  
G01 X-0.5201 Y0.7178  
G01 X-0.5296 Y0.7163  
G01 X-0.5387 Y0.7133  
G01 X-0.5472 Y0.7090  
G01 X-0.5549 Y0.7034  
G01 X-0.5617 Y0.6966  
G01 X-0.5673 Y0.6889  
G01 X-0.5716 Y0.6804  
G01 X-0.5746 Y0.6713  
G01 X-0.5761 Y0.6619  
G01 X-0.5761 Y0.6523  
G01 X-0.5746 Y0.6429  
G01 X-0.5716 Y0.6338  
G01 X-0.5673 Y0.6253  
G01 X-0.5617 Y0.6175  
G01 X-0.5549 Y0.6108  
G00 Z0.0500  
G00 X-0.2242 Y0.6580  
G01 Z-0.0035 F10    
G01 X-0.2165 Y0.6524  F20    
G01 X-0.2079 Y0.6481  
G01 X-0.1989 Y0.6451  
G01 X-0.1894 Y0.6436  
G01 X-0.1799 Y0.6436  
G01 X-0.1704 Y0.6451  
G01 X-0.1613 Y0.6481  
G01 X-0.1528 Y0.6524  
G01 X-0.1451 Y0.6580  
G01 X-0.1383 Y0.6648  
G01 X-0.1327 Y0.6725  
G01 X-0.1284 Y0.6810  
G01 X-0.1254 Y0.6901  
G01 X-0.1239 Y0.6996  
G01 X-0.1239 Y0.7091  
G01 X-0.1254 Y0.7185  
G01 X-0.1284 Y0.7276  
G01 X-0.1327 Y0.7361  
G01 X-0.1383 Y0.7439  
G01 X-0.1451 Y0.7506  
G01 X-0.1528 Y0.7562  
G01 X-0.1613 Y0.7606  
G01 X-0.1704 Y0.7635  
G01 X-0.1799 Y0.7650  
G01 X-0.1894 Y0.7650  
G01 X-0.1989 Y0.7635  
G01 X-0.2079 Y0.7606  
G01 X-0.2165 Y0.7562  
G01 X-0.2242 Y0.7506  
G01 X-0.2309 Y0.7439  
G01 X-0.2366 Y0.7361  
G01 X-0.2409 Y0.7276  
G01 X-0.2438 Y0.7185  
G01 X-0.2453 Y0.7091  
G01 X-0.2453 Y0.6996  
G01 X-0.2438 Y0.6901  
G01 X-0.2409 Y0.6810  
G01 X-0.2366 Y0.6725  
G01 X-0.2309 Y0.6648  
G01 X-0.2242 Y0.6580  
G00 Z0.0500  
G00 X-0.2242 Y2.5494  
G01 Z-0.0035 F10    
G01 X-0.2165 Y2.5438  F20    
G01 X-0.2079 Y2.5394  
G01 X-0.1989 Y2.5365  
G01 X-0.1894 Y2.5350  
G01 X-0.1799 Y2.5350  
G01 X-0.1704 Y2.5365  
G01 X-0.1613 Y2.5394  
G01 X-0.1528 Y2.5438  
G01 X-0.1451 Y2.5494  
G01 X-0.1383 Y2.5561  
G01 X-0.1327 Y2.5639  
G01 X-0.1284 Y2.5724  
G01 X-0.1254 Y2.5815  
G01 X-0.1239 Y2.5909  
G01 X-0.1239 Y2.6004  
G01 X-0.1254 Y2.6099  
G01 X-0.1284 Y2.6190  
G01 X-0.1327 Y2.6275  
G01 X-0.1383 Y2.6352  
G01 X-0.1451 Y2.6420  
G01 X-0.1528 Y2.6476  
G01 X-0.1613 Y2.6519  
G01 X-0.1704 Y2.6549  
G01 X-0.1799 Y2.6564  
G01 X-0.1894 Y2.6564  
G01 X-0.1989 Y2.6549  
G01 X-0.2079 Y2.6519  
G01 X-0.2165 Y2.6476  
G01 X-0.2242 Y2.6420  
G01 X-0.2309 Y2.6352  
G01 X-0.2366 Y2.6275  
G01 X-0.2409 Y2.6190  
G01 X-0.2438 Y2.6099  
G01 X-0.2453 Y2.6004  
G01 X-0.2453 Y2.5909  
G01 X-0.2438 Y2.5815  
G01 X-0.2409 Y2.5724  
G01 X-0.2366 Y2.5639  
G01 X-0.2309 Y2.5561  
G01 X-0.2242 Y2.5494  
G00 Z0.0500  
G00 X-0.4691 Y2.6034  
G01 Z-0.0035 F10    
G01 X-0.4634 Y2.6111  F20    
G01 X-0.4591 Y2.6196  
G01 X-0.4562 Y2.6287  
G01 X-0.4547 Y2.6381  
G01 X-0.4547 Y2.6477  
G01 X-0.4562 Y2.6571  
G01 X-0.4591 Y2.6662  
G01 X-0.4634 Y2.6747  
G01 X-0.4691 Y2.6825  
G01 X-0.4758 Y2.6892  
G01 X-0.4835 Y2.6948  
G01 X-0.4921 Y2.6992  
G01 X-0.5011 Y2.7021  
G01 X-0.5106 Y2.7036  
G01 X-0.5201 Y2.7036  
G01 X-0.5296 Y2.7021  
G01 X-0.5387 Y2.6992  
G01 X-0.5472 Y2.6948  
G01 X-0.5549 Y2.6892  
G01 X-0.5617 Y2.6825  
G01 X-0.5673 Y2.6747  
G01 X-0.5716 Y2.6662  
G01 X-0.5746 Y2.6571  
G01 X-0.5761 Y2.6477  
G01 X-0.5761 Y2.6381  
G01 X-0.5746 Y2.6287  
G01 X-0.5716 Y2.6196  
G01 X-0.5673 Y2.6111  
G01 X-0.5617 Y2.6034  
G01 X-0.5549 Y2.5966  
G01 X-0.5472 Y2.5910  
G01 X-0.5387 Y2.5867  
G01 X-0.5296 Y2.5837  
G01 X-0.5201 Y2.5822  
G01 X-0.5106 Y2.5822  
G01 X-0.5011 Y2.5837  
G01 X-0.4921 Y2.5867  
G01 X-0.4835 Y2.5910  
G01 X-0.4758 Y2.5966  
G01 X-0.4691 Y2.6034  
G00 Z0.0500  
G00 X-0.1506 Y0.2135  
G01 Z-0.0035 F10    
G01 X-0.1454 Y0.2206  F20    
G01 X-0.1414 Y0.2285  
G01 X-0.1387 Y0.2369  
G01 X-0.1373 Y0.2456  
G01 X-0.1373 Y0.2544  
G01 X-0.1387 Y0.2631  
G01 X-0.1414 Y0.2715  
G01 X-0.1454 Y0.2794  
G01 X-0.1506 Y0.2865  
G01 X-0.1568 Y0.2927  
G01 X-0.1640 Y0.2979  
G01 X-0.1718 Y0.3019  
G01 X-0.1802 Y0.3046  
G01 X-0.1889 Y0.3060  
G01 X-0.1977 Y0.3060  
G01 X-0.2064 Y0.3046  
G01 X-0.2148 Y0.3019  
G01 X-0.2227 Y0.2979  
G01 X-0.2298 Y0.2927  
G01 X-0.2360 Y0.2865  
G01 X-0.2412 Y0.2794  
G01 X-0.2452 Y0.2715  
G01 X-0.2479 Y0.2631  
G01 X-0.2493 Y0.2544  
G01 X-0.2493 Y0.2456  
G01 X-0.2479 Y0.2369  
G01 X-0.2452 Y0.2285  
G01 X-0.2412 Y0.2206  
G01 X-0.2360 Y0.2135  
G01 X-0.2298 Y0.2073  
G01 X-0.2227 Y0.2021  
G01 X-0.2148 Y0.1981  
G01 X-0.2064 Y0.1954  
G01 X-0.1977 Y0.1940  
G01 X-0.1889 Y0.1940  
G01 X-0.1802 Y0.1954  
G01 X-0.1718 Y0.1981  
G01 X-0.1640 Y0.2021  
G01 X-0.1568 Y0.2073  
G01 X-0.1506 Y0.2135  
G00 Z0.0500  
G00 X-0.2884 Y0.2135  
G01 Z-0.0035 F10    
G01 X-0.2832 Y0.2206  F20    
G01 X-0.2792 Y0.2285  
G01 X-0.2765 Y0.2369  
G01 X-0.2751 Y0.2456  
G01 X-0.2751 Y0.2544  
G01 X-0.2765 Y0.2631  
G01 X-0.2792 Y0.2715  
G01 X-0.2832 Y0.2794  
G01 X-0.2884 Y0.2865  
G01 X-0.2946 Y0.2927  
G01 X-0.2947 Y0.2928  
G01 X-0.2561 Y0.3663  
G01 X-0.2554 Y0.3674  
G01 X-0.2548 Y0.3688  
G01 X-0.2541 Y0.3701  
G01 X-0.2537 Y0.3714  
G01 X-0.2532 Y0.3726  
G01 X-0.2529 Y0.3741  
G01 X-0.2525 Y0.3756  
G01 X-0.2524 Y0.3769  
G01 X-0.2521 Y0.3782  
G01 X-0.2521 Y0.3798  
G01 X-0.2520 Y0.3813  
G01 X-0.2521 Y0.3826  
G01 X-0.2521 Y0.4456  
G01 X-0.2518 Y0.4458  
G01 X-0.2446 Y0.4510  
G01 X-0.2384 Y0.4572  
G01 X-0.2332 Y0.4644  
G01 X-0.2292 Y0.4722  
G01 X-0.2265 Y0.4806  
G01 X-0.2251 Y0.4893  
G01 X-0.2251 Y0.4981  
G01 X-0.2265 Y0.5068  
G01 X-0.2292 Y0.5152  
G01 X-0.2332 Y0.5231  
G01 X-0.2384 Y0.5302  
G01 X-0.2446 Y0.5364  
G01 X-0.2518 Y0.5416  
G01 X-0.2596 Y0.5456  
G01 X-0.2680 Y0.5483  
G01 X-0.2767 Y0.5497  
G01 X-0.2855 Y0.5497  
G01 X-0.2942 Y0.5483  
G01 X-0.3026 Y0.5456  
G01 X-0.3105 Y0.5416  
G01 X-0.3176 Y0.5364  
G01 X-0.3238 Y0.5302  
G01 X-0.3290 Y0.5231  
G01 X-0.3330 Y0.5152  
G01 X-0.3357 Y0.5068  
G01 X-0.3371 Y0.4981  
G01 X-0.3371 Y0.4893  
G01 X-0.3357 Y0.4806  
G01 X-0.3330 Y0.4722  
G01 X-0.3290 Y0.4644  
G01 X-0.3238 Y0.4572  
G01 X-0.3176 Y0.4510  
G01 X-0.3105 Y0.4458  
G01 X-0.3101 Y0.4456  
G01 X-0.3101 Y0.3883  
G01 X-0.3565 Y0.2999  
G01 X-0.3605 Y0.2979  
G01 X-0.3676 Y0.2927  
G01 X-0.3738 Y0.2865  
G01 X-0.3790 Y0.2794  
G01 X-0.3830 Y0.2715  
G01 X-0.3857 Y0.2631  
G01 X-0.3871 Y0.2544  
G01 X-0.3871 Y0.2456  
G01 X-0.3857 Y0.2369  
G01 X-0.3830 Y0.2285  
G01 X-0.3790 Y0.2206  
G01 X-0.3738 Y0.2135  
G01 X-0.3676 Y0.2073  
G01 X-0.3605 Y0.2021  
G01 X-0.3526 Y0.1981  
G01 X-0.3442 Y0.1954  
G01 X-0.3355 Y0.1940  
G01 X-0.3267 Y0.1940  
G01 X-0.3180 Y0.1954  
G01 X-0.3096 Y0.1981  
G01 X-0.3018 Y0.2021  
G01 X-0.2946 Y0.2073  
G01 X-0.2884 Y0.2135  
G00 Z0.0500  
G00 X-0.4262 Y0.2135  
G01 Z-0.0035 F10    
G01 X-0.4210 Y0.2206  F20    
G01 X-0.4170 Y0.2285  
G01 X-0.4143 Y0.2369  
G01 X-0.4129 Y0.2456  
G01 X-0.4129 Y0.2544  
G01 X-0.4143 Y0.2631  
G01 X-0.4170 Y0.2715  
G01 X-0.4210 Y0.2794  
G01 X-0.4262 Y0.2865  
G01 X-0.4324 Y0.2927  
G01 X-0.4334 Y0.2934  
G01 X-0.4223 Y0.3411  
G01 X-0.4221 Y0.3415  
G01 X-0.4216 Y0.3439  
G01 X-0.4211 Y0.3462  
G01 X-0.4211 Y0.3467  
G01 X-0.4210 Y0.3471  
G01 X-0.4210 Y0.3495  
G01 X-0.4209 Y0.3519  
G01 X-0.4210 Y0.3524  
G01 X-0.4210 Y0.4377  
G01 X-0.4145 Y0.4377  
G01 X-0.4058 Y0.4391  
G01 X-0.3974 Y0.4418  
G01 X-0.3895 Y0.4458  
G01 X-0.3824 Y0.4510  
G01 X-0.3762 Y0.4572  
G01 X-0.3710 Y0.4644  
G01 X-0.3670 Y0.4722  
G01 X-0.3643 Y0.4806  
G01 X-0.3629 Y0.4893  
G01 X-0.3629 Y0.4981  
G01 X-0.3643 Y0.5068  
G01 X-0.3670 Y0.5152  
G01 X-0.3710 Y0.5231  
G01 X-0.3762 Y0.5302  
G01 X-0.3824 Y0.5364  
G01 X-0.3895 Y0.5416  
G01 X-0.3974 Y0.5456  
G01 X-0.4058 Y0.5483  
G01 X-0.4145 Y0.5497  
G01 X-0.4233 Y0.5497  
G01 X-0.4320 Y0.5483  
G01 X-0.4404 Y0.5456  
G01 X-0.4482 Y0.5416  
G01 X-0.4554 Y0.5364  
G01 X-0.4616 Y0.5302  
G01 X-0.4668 Y0.5231  
G01 X-0.4708 Y0.5152  
G01 X-0.4735 Y0.5068  
G01 X-0.4749 Y0.4981  
G01 X-0.4749 Y0.4893  
G01 X-0.4735 Y0.4806  
G01 X-0.4733 Y0.4799  
G01 X-0.4757 Y0.4763  
G01 X-0.4779 Y0.4711  
G01 X-0.4790 Y0.4655  
G01 X-0.4790 Y0.3533  
G01 X-0.4911 Y0.3016  
G01 X-0.4982 Y0.2979  
G01 X-0.5054 Y0.2927  
G01 X-0.5116 Y0.2865  
G01 X-0.5168 Y0.2794  
G01 X-0.5208 Y0.2715  
G01 X-0.5235 Y0.2631  
G01 X-0.5249 Y0.2544  
G01 X-0.5249 Y0.2456  
G01 X-0.5235 Y0.2369  
G01 X-0.5208 Y0.2285  
G01 X-0.5168 Y0.2206  
G01 X-0.5116 Y0.2135  
G01 X-0.5054 Y0.2073  
G01 X-0.4982 Y0.2021  
G01 X-0.4904 Y0.1981  
G01 X-0.4820 Y0.1954  
G01 X-0.4733 Y0.1940  
G01 X-0.4645 Y0.1940  
G01 X-0.4558 Y0.1954  
G01 X-0.4474 Y0.1981  
G01 X-0.4395 Y0.2021  
G01 X-0.4324 Y0.2073  
G01 X-0.4262 Y0.2135  
G00 Z0.0500  
G00 X-0.5640 Y0.2135  
G01 Z-0.0035 F10    
G01 X-0.5588 Y0.2206  F20    
G01 X-0.5548 Y0.2285  
G01 X-0.5521 Y0.2369  
G01 X-0.5507 Y0.2456  
G01 X-0.5507 Y0.2544  
G01 X-0.5521 Y0.2631  
G01 X-0.5548 Y0.2715  
G01 X-0.5588 Y0.2794  
G01 X-0.5640 Y0.2865  
G01 X-0.5702 Y0.2927  
G01 X-0.5773 Y0.2979  
G01 X-0.5852 Y0.3019  
G01 X-0.5875 Y0.3026  
G01 X-0.5960 Y0.3461  
G01 X-0.5960 Y0.6900  
G01 X-0.3283 Y1.0307  
G01 X-0.3275 Y1.0315  
G01 X-0.3265 Y1.0330  
G01 X-0.3254 Y1.0343  
G01 X-0.3249 Y1.0353  
G01 X-0.3243 Y1.0363  
G01 X-0.3236 Y1.0379  
G01 X-0.3228 Y1.0394  
G01 X-0.3225 Y1.0405  
G01 X-0.3221 Y1.0415  
G01 X-0.3218 Y1.0432  
G01 X-0.3213 Y1.0449  
G01 X-0.3212 Y1.0460  
G01 X-0.3210 Y1.0471  
G01 X-0.3210 Y1.0489  
G01 X-0.3209 Y1.0506  
G01 X-0.3210 Y1.0517  
G01 X-0.3210 Y2.6922  
G01 X-0.2872 Y2.7506  
G01 X-0.2855 Y2.7503  
G01 X-0.2767 Y2.7503  
G01 X-0.2680 Y2.7517  
G01 X-0.2596 Y2.7544  
G01 X-0.2518 Y2.7584  
G01 X-0.2446 Y2.7636  
G01 X-0.2384 Y2.7698  
G01 X-0.2332 Y2.7769  
G01 X-0.2292 Y2.7848  
G01 X-0.2265 Y2.7932  
G01 X-0.2251 Y2.8019  
G01 X-0.2251 Y2.8107  
G01 X-0.2265 Y2.8194  
G01 X-0.2292 Y2.8278  
G01 X-0.2332 Y2.8356  
G01 X-0.2384 Y2.8428  
G01 X-0.2446 Y2.8490  
G01 X-0.2518 Y2.8542  
G01 X-0.2596 Y2.8582  
G01 X-0.2680 Y2.8609  
G01 X-0.2767 Y2.8623  
G01 X-0.2855 Y2.8623  
G01 X-0.2942 Y2.8609  
G01 X-0.3026 Y2.8582  
G01 X-0.3105 Y2.8542  
G01 X-0.3176 Y2.8490  
G01 X-0.3238 Y2.8428  
G01 X-0.3290 Y2.8356  
G01 X-0.3330 Y2.8278  
G01 X-0.3357 Y2.8194  
G01 X-0.3371 Y2.8107  
G01 X-0.3371 Y2.8019  
G01 X-0.3357 Y2.7932  
G01 X-0.3335 Y2.7863  
G01 X-0.3746 Y2.7153  
G01 X-0.3757 Y2.7137  
G01 X-0.3761 Y2.7129  
G01 X-0.3765 Y2.7121  
G01 X-0.3771 Y2.7102  
G01 X-0.3779 Y2.7085  
G01 X-0.3781 Y2.7075  
G01 X-0.3784 Y2.7067  
G01 X-0.3786 Y2.7047  
G01 X-0.3790 Y2.7029  
G01 X-0.3790 Y2.7019  
G01 X-0.3791 Y2.7010  
G01 X-0.3790 Y2.6991  
G01 X-0.3790 Y1.0600  
G01 X-0.6467 Y0.7193  
G01 X-0.6475 Y0.7185  
G01 X-0.6485 Y0.7170  
G01 X-0.6496 Y0.7157  
G01 X-0.6501 Y0.7147  
G01 X-0.6507 Y0.7137  
G01 X-0.6514 Y0.7121  
G01 X-0.6522 Y0.7106  
G01 X-0.6525 Y0.7095  
G01 X-0.6529 Y0.7085  
G01 X-0.6532 Y0.7068  
G01 X-0.6537 Y0.7051  
G01 X-0.6538 Y0.7040  
G01 X-0.6540 Y0.7029  
G01 X-0.6540 Y0.7011  
G01 X-0.6541 Y0.6994  
G01 X-0.6540 Y0.6983  
G01 X-0.6540 Y0.3434  
G01 X-0.6540 Y0.3405  
G01 X-0.6535 Y0.3377  
G01 X-0.6444 Y0.2915  
G01 X-0.6494 Y0.2865  
G01 X-0.6546 Y0.2794  
G01 X-0.6586 Y0.2715  
G01 X-0.6613 Y0.2631  
G01 X-0.6627 Y0.2544  
G01 X-0.6627 Y0.2456  
G01 X-0.6613 Y0.2369  
G01 X-0.6586 Y0.2285  
G01 X-0.6546 Y0.2206  
G01 X-0.6494 Y0.2135  
G01 X-0.6432 Y0.2073  
G01 X-0.6360 Y0.2021  
G01 X-0.6282 Y0.1981  
G01 X-0.6198 Y0.1954  
G01 X-0.6111 Y0.1940  
G01 X-0.6023 Y0.1940  
G01 X-0.5936 Y0.1954  
G01 X-0.5852 Y0.1981  
G01 X-0.5773 Y0.2021  
G01 X-0.5702 Y0.2073  
G01 X-0.5640 Y0.2135  
G00 Z0.0500  
G00 X-0.5565 Y0.6089  
G01 Z-0.0035 F10    
G01 X-0.5485 Y0.6030  F20    
G01 X-0.5396 Y0.5985  
G01 X-0.5302 Y0.5954  
G01 X-0.5203 Y0.5939  
G01 X-0.5104 Y0.5939  
G01 X-0.5006 Y0.5954  
G01 X-0.4911 Y0.5985  
G01 X-0.4822 Y0.6030  
G01 X-0.4742 Y0.6089  
G01 X-0.4672 Y0.6159  
G01 X-0.4613 Y0.6240  
G01 X-0.4568 Y0.6328  
G01 X-0.4537 Y0.6423  
G01 X-0.4522 Y0.6521  
G01 X-0.4522 Y0.6621  
G01 X-0.4537 Y0.6719  
G01 X-0.4568 Y0.6813  
G01 X-0.4613 Y0.6902  
G01 X-0.4672 Y0.6983  
G01 X-0.4742 Y0.7053  
G01 X-0.4822 Y0.7111  
G01 X-0.4911 Y0.7157  
G01 X-0.5006 Y0.7187  
G01 X-0.5104 Y0.7203  
G01 X-0.5203 Y0.7203  
G01 X-0.5302 Y0.7187  
G01 X-0.5396 Y0.7157  
G01 X-0.5485 Y0.7111  
G01 X-0.5565 Y0.7053  
G01 X-0.5636 Y0.6983  
G01 X-0.5694 Y0.6902  
G01 X-0.5739 Y0.6813  
G01 X-0.5770 Y0.6719  
G01 X-0.5786 Y0.6621  
G01 X-0.5786 Y0.6521  
G01 X-0.5770 Y0.6423  
G01 X-0.5739 Y0.6328  
G01 X-0.5694 Y0.6240  
G01 X-0.5636 Y0.6159  
G01 X-0.5565 Y0.6089  
G00 Z0.0500  
G00 X-0.2258 Y0.6561  
G01 Z-0.0035 F10    
G01 X-0.2178 Y0.6503  F20    
G01 X-0.2089 Y0.6458  
G01 X-0.1994 Y0.6427  
G01 X-0.1896 Y0.6411  
G01 X-0.1797 Y0.6411  
G01 X-0.1698 Y0.6427  
G01 X-0.1604 Y0.6458  
G01 X-0.1515 Y0.6503  
G01 X-0.1435 Y0.6561  
G01 X-0.1364 Y0.6632  
G01 X-0.1306 Y0.6712  
G01 X-0.1261 Y0.6801  
G01 X-0.1230 Y0.6895  
G01 X-0.1214 Y0.6994  
G01 X-0.1214 Y0.7093  
G01 X-0.1230 Y0.7191  
G01 X-0.1261 Y0.7286  
G01 X-0.1306 Y0.7375  
G01 X-0.1364 Y0.7455  
G01 X-0.1435 Y0.7525  
G01 X-0.1515 Y0.7584  
G01 X-0.1604 Y0.7629  
G01 X-0.1698 Y0.7660  
G01 X-0.1797 Y0.7675  
G01 X-0.1896 Y0.7675  
G01 X-0.1994 Y0.7660  
G01 X-0.2089 Y0.7629  
G01 X-0.2178 Y0.7584  
G01 X-0.2258 Y0.7525  
G01 X-0.2328 Y0.7455  
G01 X-0.2387 Y0.7375  
G01 X-0.2432 Y0.7286  
G01 X-0.2463 Y0.7191  
G01 X-0.2478 Y0.7093  
G01 X-0.2478 Y0.6994  
G01 X-0.2463 Y0.6895  
G01 X-0.2432 Y0.6801  
G01 X-0.2387 Y0.6712  
G01 X-0.2328 Y0.6632  
G01 X-0.2258 Y0.6561  
G00 Z0.0500  
G00 X-0.2258 Y2.5475  
G01 Z-0.0035 F10    
G01 X-0.2178 Y2.5416  F20    
G01 X-0.2089 Y2.5371  
G01 X-0.1994 Y2.5340  
G01 X-0.1896 Y2.5325  
G01 X-0.1797 Y2.5325  
G01 X-0.1698 Y2.5340  
G01 X-0.1604 Y2.5371  
G01 X-0.1515 Y2.5416  
G01 X-0.1435 Y2.5475  
G01 X-0.1364 Y2.5545  
G01 X-0.1306 Y2.5625  
G01 X-0.1261 Y2.5714  
G01 X-0.1230 Y2.5809  
G01 X-0.1214 Y2.5907  
G01 X-0.1214 Y2.6006  
G01 X-0.1230 Y2.6105  
G01 X-0.1261 Y2.6199  
G01 X-0.1306 Y2.6288  
G01 X-0.1364 Y2.6368  
G01 X-0.1435 Y2.6439  
G01 X-0.1515 Y2.6497  
G01 X-0.1604 Y2.6542  
G01 X-0.1698 Y2.6573  
G01 X-0.1797 Y2.6589  
G01 X-0.1896 Y2.6589  
G01 X-0.1994 Y2.6573  
G01 X-0.2089 Y2.6542  
G01 X-0.2178 Y2.6497  
G01 X-0.2258 Y2.6439  
G01 X-0.2328 Y2.6368  
G01 X-0.2387 Y2.6288  
G01 X-0.2432 Y2.6199  
G01 X-0.2463 Y2.6105  
G01 X-0.2478 Y2.6006  
G01 X-0.2478 Y2.5907  
G01 X-0.2463 Y2.5809  
G01 X-0.2432 Y2.5714  
G01 X-0.2387 Y2.5625  
G01 X-0.2328 Y2.5545  
G01 X-0.2258 Y2.5475  
G00 Z0.0500  
G00 X-0.4672 Y2.6017  
G01 Z-0.0035 F10    
G01 X-0.4613 Y2.6098  F20    
G01 X-0.4568 Y2.6187  
G01 X-0.4537 Y2.6281  
G01 X-0.4522 Y2.6379  
G01 X-0.4522 Y2.6479  
G01 X-0.4537 Y2.6577  
G01 X-0.4568 Y2.6672  
G01 X-0.4613 Y2.6760  
G01 X-0.4672 Y2.6841  
G01 X-0.4742 Y2.6911  
G01 X-0.4822 Y2.6970  
G01 X-0.4911 Y2.7015  
G01 X-0.5006 Y2.7046  
G01 X-0.5104 Y2.7061  
G01 X-0.5203 Y2.7061  
G01 X-0.5302 Y2.7046  
G01 X-0.5396 Y2.7015  
G01 X-0.5485 Y2.6970  
G01 X-0.5565 Y2.6911  
G01 X-0.5636 Y2.6841  
G01 X-0.5694 Y2.6760  
G01 X-0.5739 Y2.6672  
G01 X-0.5770 Y2.6577  
G01 X-0.5786 Y2.6479  
G01 X-0.5786 Y2.6379  
G01 X-0.5770 Y2.6281  
G01 X-0.5739 Y2.6187  
G01 X-0.5694 Y2.6098  
G01 X-0.5636 Y2.6017  
G01 X-0.5565 Y2.5947  
G01 X-0.5485 Y2.5889  
G01 X-0.5396 Y2.5843  
G01 X-0.5302 Y2.5813  
G01 X-0.5203 Y2.5797  
G01 X-0.5104 Y2.5797  
G01 X-0.5006 Y2.5813  
G01 X-0.4911 Y2.5843  
G01 X-0.4822 Y2.5889  
G01 X-0.4742 Y2.5947  
G01 X-0.4672 Y2.6017  
G00 Z0.0500  
G00 X-0.1487 Y0.2119  
G01 Z-0.0035 F10    
G01 X-0.1433 Y0.2193  F20    
G01 X-0.1391 Y0.2275  
G01 X-0.1362 Y0.2363  
G01 X-0.1348 Y0.2454  
G01 X-0.1348 Y0.2546  
G01 X-0.1362 Y0.2637  
G01 X-0.1391 Y0.2725  
G01 X-0.1433 Y0.2807  
G01 X-0.1487 Y0.2881  
G01 X-0.1552 Y0.2946  
G01 X-0.1626 Y0.3000  
G01 X-0.1709 Y0.3042  
G01 X-0.1796 Y0.3071  
G01 X-0.1887 Y0.3085  
G01 X-0.1979 Y0.3085  
G01 X-0.2070 Y0.3071  
G01 X-0.2158 Y0.3042  
G01 X-0.2240 Y0.3000  
G01 X-0.2314 Y0.2946  
G01 X-0.2379 Y0.2881  
G01 X-0.2433 Y0.2807  
G01 X-0.2475 Y0.2725  
G01 X-0.2504 Y0.2637  
G01 X-0.2518 Y0.2546  
G01 X-0.2518 Y0.2454  
G01 X-0.2504 Y0.2363  
G01 X-0.2475 Y0.2275  
G01 X-0.2433 Y0.2193  
G01 X-0.2379 Y0.2119  
G01 X-0.2314 Y0.2054  
G01 X-0.2240 Y0.2000  
G01 X-0.2158 Y0.1958  
G01 X-0.2070 Y0.1929  
G01 X-0.1979 Y0.1915  
G01 X-0.1887 Y0.1915  
G01 X-0.1796 Y0.1929  
G01 X-0.1709 Y0.1958  
G01 X-0.1626 Y0.2000  
G01 X-0.1552 Y0.2054  
G01 X-0.1487 Y0.2119  
G00 Z0.0500  
G00 X-0.2865 Y0.2119  
G01 Z-0.0035 F10    
G01 X-0.2811 Y0.2193  F20    
G01 X-0.2769 Y0.2275  
G01 X-0.2740 Y0.2363  
G01 X-0.2726 Y0.2454  
G01 X-0.2726 Y0.2546  
G01 X-0.2740 Y0.2637  
G01 X-0.2769 Y0.2725  
G01 X-0.2811 Y0.2807  
G01 X-0.2865 Y0.2881  
G01 X-0.2917 Y0.2933  
G01 X-0.2540 Y0.3650  
G01 X-0.2532 Y0.3662  
G01 X-0.2525 Y0.3677  
G01 X-0.2518 Y0.3692  
G01 X-0.2514 Y0.3706  
G01 X-0.2508 Y0.3719  
G01 X-0.2505 Y0.3735  
G01 X-0.2500 Y0.3751  
G01 X-0.2499 Y0.3766  
G01 X-0.2496 Y0.3780  
G01 X-0.2496 Y0.3797  
G01 X-0.2495 Y0.3813  
G01 X-0.2496 Y0.3828  
G01 X-0.2496 Y0.4443  
G01 X-0.2430 Y0.4491  
G01 X-0.2365 Y0.4556  
G01 X-0.2311 Y0.4630  
G01 X-0.2269 Y0.4712  
G01 X-0.2240 Y0.4800  
G01 X-0.2226 Y0.4891  
G01 X-0.2226 Y0.4983  
G01 X-0.2240 Y0.5074  
G01 X-0.2269 Y0.5162  
G01 X-0.2311 Y0.5244  
G01 X-0.2365 Y0.5318  
G01 X-0.2430 Y0.5383  
G01 X-0.2504 Y0.5437  
G01 X-0.2586 Y0.5479  
G01 X-0.2674 Y0.5508  
G01 X-0.2765 Y0.5522  
G01 X-0.2857 Y0.5522  
G01 X-0.2948 Y0.5508  
G01 X-0.3036 Y0.5479  
G01 X-0.3118 Y0.5437  
G01 X-0.3192 Y0.5383  
G01 X-0.3257 Y0.5318  
G01 X-0.3311 Y0.5244  
G01 X-0.3353 Y0.5162  
G01 X-0.3382 Y0.5074  
G01 X-0.3396 Y0.4983  
G01 X-0.3396 Y0.4891  
G01 X-0.3382 Y0.4800  
G01 X-0.3353 Y0.4712  
G01 X-0.3311 Y0.4630  
G01 X-0.3257 Y0.4556  
G01 X-0.3192 Y0.4491  
G01 X-0.3126 Y0.4443  
G01 X-0.3126 Y0.3889  
G01 X-0.3584 Y0.3018  
G01 X-0.3618 Y0.3000  
G01 X-0.3692 Y0.2946  
G01 X-0.3757 Y0.2881  
G01 X-0.3811 Y0.2807  
G01 X-0.3853 Y0.2725  
G01 X-0.3882 Y0.2637  
G01 X-0.3896 Y0.2546  
G01 X-0.3896 Y0.2454  
G01 X-0.3882 Y0.2363  
G01 X-0.3853 Y0.2275  
G01 X-0.3811 Y0.2193  
G01 X-0.3757 Y0.2119  
G01 X-0.3692 Y0.2054  
G01 X-0.3618 Y0.2000  
G01 X-0.3536 Y0.1958  
G01 X-0.3448 Y0.1929  
G01 X-0.3357 Y0.1915  
G01 X-0.3265 Y0.1915  
G01 X-0.3174 Y0.1929  
G01 X-0.3086 Y0.1958  
G01 X-0.3004 Y0.2000  
G01 X-0.2930 Y0.2054  
G01 X-0.2865 Y0.2119  
G00 Z0.0500  
G00 X-0.4243 Y0.2119  
G01 Z-0.0035 F10    
G01 X-0.4189 Y0.2193  F20    
G01 X-0.4147 Y0.2275  
G01 X-0.4118 Y0.2363  
G01 X-0.4104 Y0.2454  
G01 X-0.4104 Y0.2546  
G01 X-0.4118 Y0.2637  
G01 X-0.4147 Y0.2725  
G01 X-0.4189 Y0.2807  
G01 X-0.4243 Y0.2881  
G01 X-0.4306 Y0.2944  
G01 X-0.4199 Y0.3403  
G01 X-0.4197 Y0.3408  
G01 X-0.4192 Y0.3434  
G01 X-0.4186 Y0.3459  
G01 X-0.4186 Y0.3464  
G01 X-0.4185 Y0.3469  
G01 X-0.4185 Y0.3495  
G01 X-0.4184 Y0.3521  
G01 X-0.4185 Y0.3526  
G01 X-0.4185 Y0.4352  
G01 X-0.4143 Y0.4352  
G01 X-0.4052 Y0.4366  
G01 X-0.3964 Y0.4395  
G01 X-0.3882 Y0.4437  
G01 X-0.3808 Y0.4491  
G01 X-0.3743 Y0.4556  
G01 X-0.3689 Y0.4630  
G01 X-0.3647 Y0.4712  
G01 X-0.3618 Y0.4800  
G01 X-0.3604 Y0.4891  
G01 X-0.3604 Y0.4983  
G01 X-0.3618 Y0.5074  
G01 X-0.3647 Y0.5162  
G01 X-0.3689 Y0.5244  
G01 X-0.3743 Y0.5318  
G01 X-0.3808 Y0.5383  
G01 X-0.3882 Y0.5437  
G01 X-0.3964 Y0.5479  
G01 X-0.4052 Y0.5508  
G01 X-0.4143 Y0.5522  
G01 X-0.4235 Y0.5522  
G01 X-0.4326 Y0.5508  
G01 X-0.4414 Y0.5479  
G01 X-0.4496 Y0.5437  
G01 X-0.4570 Y0.5383  
G01 X-0.4635 Y0.5318  
G01 X-0.4689 Y0.5244  
G01 X-0.4731 Y0.5162  
G01 X-0.4760 Y0.5074  
G01 X-0.4774 Y0.4983  
G01 X-0.4774 Y0.4891  
G01 X-0.4760 Y0.4804  
G01 X-0.4779 Y0.4775  
G01 X-0.4803 Y0.4718  
G01 X-0.4815 Y0.4657  
G01 X-0.4815 Y0.3536  
G01 X-0.4932 Y0.3033  
G01 X-0.4996 Y0.3000  
G01 X-0.5070 Y0.2946  
G01 X-0.5135 Y0.2881  
G01 X-0.5189 Y0.2807  
G01 X-0.5231 Y0.2725  
G01 X-0.5260 Y0.2637  
G01 X-0.5274 Y0.2546  
G01 X-0.5274 Y0.2454  
G01 X-0.5260 Y0.2363  
G01 X-0.5231 Y0.2275  
G01 X-0.5189 Y0.2193  
G01 X-0.5135 Y0.2119  
G01 X-0.5070 Y0.2054  
G01 X-0.4996 Y0.2000  
G01 X-0.4914 Y0.1958  
G01 X-0.4826 Y0.1929  
G01 X-0.4735 Y0.1915  
G01 X-0.4643 Y0.1915  
G01 X-0.4552 Y0.1929  
G01 X-0.4464 Y0.1958  
G01 X-0.4382 Y0.2000  
G01 X-0.4308 Y0.2054  
G01 X-0.4243 Y0.2119  
G00 Z0.0500  
G00 X-0.5621 Y0.2119  
G01 Z-0.0035 F10    
G01 X-0.5567 Y0.2193  F20    
G01 X-0.5525 Y0.2275  
G01 X-0.5496 Y0.2363  
G01 X-0.5482 Y0.2454  
G01 X-0.5482 Y0.2546  
G01 X-0.5496 Y0.2637  
G01 X-0.5525 Y0.2725  
G01 X-0.5567 Y0.2807  
G01 X-0.5621 Y0.2881  
G01 X-0.5686 Y0.2946  
G01 X-0.5760 Y0.3000  
G01 X-0.5842 Y0.3042  
G01 X-0.5853 Y0.3046  
G01 X-0.5935 Y0.3464  
G01 X-0.5935 Y0.6891  
G01 X-0.3264 Y1.0291  
G01 X-0.3255 Y1.0299  
G01 X-0.3245 Y1.0315  
G01 X-0.3233 Y1.0330  
G01 X-0.3228 Y1.0341  
G01 X-0.3221 Y1.0351  
G01 X-0.3214 Y1.0368  
G01 X-0.3205 Y1.0385  
G01 X-0.3202 Y1.0397  
G01 X-0.3197 Y1.0408  
G01 X-0.3193 Y1.0427  
G01 X-0.3188 Y1.0445  
G01 X-0.3187 Y1.0457  
G01 X-0.3185 Y1.0469  
G01 X-0.3185 Y1.0488  
G01 X-0.3184 Y1.0507  
G01 X-0.3185 Y1.0519  
G01 X-0.3185 Y2.6915  
G01 X-0.2859 Y2.7478  
G01 X-0.2857 Y2.7478  
G01 X-0.2765 Y2.7478  
G01 X-0.2674 Y2.7492  
G01 X-0.2586 Y2.7521  
G01 X-0.2504 Y2.7563  
G01 X-0.2430 Y2.7617  
G01 X-0.2365 Y2.7682  
G01 X-0.2311 Y2.7756  
G01 X-0.2269 Y2.7838  
G01 X-0.2240 Y2.7926  
G01 X-0.2226 Y2.8017  
G01 X-0.2226 Y2.8109  
G01 X-0.2240 Y2.8200  
G01 X-0.2269 Y2.8288  
G01 X-0.2311 Y2.8370  
G01 X-0.2365 Y2.8444  
G01 X-0.2430 Y2.8509  
G01 X-0.2504 Y2.8563  
G01 X-0.2586 Y2.8605  
G01 X-0.2674 Y2.8634  
G01 X-0.2765 Y2.8648  
G01 X-0.2857 Y2.8648  
G01 X-0.2948 Y2.8634  
G01 X-0.3036 Y2.8605  
G01 X-0.3118 Y2.8563  
G01 X-0.3192 Y2.8509  
G01 X-0.3257 Y2.8444  
G01 X-0.3311 Y2.8370  
G01 X-0.3353 Y2.8288  
G01 X-0.3382 Y2.8200  
G01 X-0.3396 Y2.8109  
G01 X-0.3396 Y2.8017  
G01 X-0.3382 Y2.7926  
G01 X-0.3362 Y2.7866  
G01 X-0.3768 Y2.7167  
G01 X-0.3779 Y2.7149  
G01 X-0.3783 Y2.7140  
G01 X-0.3788 Y2.7131  
G01 X-0.3795 Y2.7111  
G01 X-0.3803 Y2.7092  
G01 X-0.3805 Y2.7082  
G01 X-0.3808 Y2.7072  
G01 X-0.3811 Y2.7052  
G01 X-0.3815 Y2.7031  
G01 X-0.3815 Y2.7021  
G01 X-0.3816 Y2.7011  
G01 X-0.3815 Y2.6990  
G01 X-0.3815 Y1.0609  
G01 X-0.6486 Y0.7209  
G01 X-0.6495 Y0.7201  
G01 X-0.6505 Y0.7185  
G01 X-0.6517 Y0.7170  
G01 X-0.6522 Y0.7159  
G01 X-0.6529 Y0.7149  
G01 X-0.6536 Y0.7132  
G01 X-0.6545 Y0.7115  
G01 X-0.6548 Y0.7103  
G01 X-0.6553 Y0.7092  
G01 X-0.6557 Y0.7073  
G01 X-0.6562 Y0.7055  
G01 X-0.6563 Y0.7043  
G01 X-0.6565 Y0.7031  
G01 X-0.6565 Y0.7012  
G01 X-0.6566 Y0.6993  
G01 X-0.6565 Y0.6981  
G01 X-0.6565 Y0.3433  
G01 X-0.6565 Y0.3403  
G01 X-0.6559 Y0.3372  
G01 X-0.6471 Y0.2923  
G01 X-0.6513 Y0.2881  
G01 X-0.6567 Y0.2807  
G01 X-0.6609 Y0.2725  
G01 X-0.6638 Y0.2637  
G01 X-0.6652 Y0.2546  
G01 X-0.6652 Y0.2454  
G01 X-0.6638 Y0.2363  
G01 X-0.6609 Y0.2275  
G01 X-0.6567 Y0.2193  
G01 X-0.6513 Y0.2119  
G01 X-0.6448 Y0.2054  
G01 X-0.6374 Y0.2000  
G01 X-0.6291 Y0.1958  
G01 X-0.6204 Y0.1929  
G01 X-0.6113 Y0.1915  
G01 X-0.6021 Y0.1915  
G01 X-0.5930 Y0.1929  
G01 X-0.5842 Y0.1958  
G01 X-0.5760 Y0.2000  
G01 X-0.5686 Y0.2054  
G01 X-0.5621 Y0.2119  
G00 Z0.0500  
G00 X-0.5588 Y0.6076  
G01 Z-0.0035 F10    
G01 X-0.5519 Y0.6023  F20    
G01 X-0.5445 Y0.5980  
G01 X-0.5365 Y0.5947  
G01 X-0.5282 Y0.5925  
G01 X-0.5197 Y0.5914  
G01 X-0.5110 Y0.5914  
G01 X-0.5025 Y0.5925  
G01 X-0.4942 Y0.5947  
G01 X-0.4862 Y0.5980  
G01 X-0.4788 Y0.6023  
G01 X-0.4719 Y0.6076  
G01 X-0.4659 Y0.6137  
G01 X-0.4606 Y0.6205  
G01 X-0.4563 Y0.6280  
G01 X-0.4530 Y0.6359  
G01 X-0.4508 Y0.6442  
G01 X-0.4497 Y0.6528  
G01 X-0.4497 Y0.6614  
G01 X-0.4508 Y0.6699  
G01 X-0.4530 Y0.6782  
G01 X-0.4563 Y0.6862  
G01 X-0.4606 Y0.6937  
G01 X-0.4659 Y0.7005  
G01 X-0.4719 Y0.7066  
G01 X-0.4788 Y0.7118  
G01 X-0.4862 Y0.7161  
G01 X-0.4942 Y0.7194  
G01 X-0.5025 Y0.7217  
G01 X-0.5110 Y0.7228  
G01 X-0.5197 Y0.7228  
G01 X-0.5282 Y0.7217  
G01 X-0.5365 Y0.7194  
G01 X-0.5445 Y0.7161  
G01 X-0.5519 Y0.7118  
G01 X-0.5588 Y0.7066  
G01 X-0.5649 Y0.7005  
G01 X-0.5701 Y0.6937  
G01 X-0.5744 Y0.6862  
G01 X-0.5777 Y0.6782  
G01 X-0.5799 Y0.6699  
G01 X-0.5811 Y0.6614  
G01 X-0.5811 Y0.6528  
G01 X-0.5799 Y0.6442  
G01 X-0.5777 Y0.6359  
G01 X-0.5744 Y0.6280  
G01 X-0.5701 Y0.6205  
G01 X-0.5649 Y0.6137  
G01 X-0.5588 Y0.6076  
G00 Z0.0500  
G00 X-0.2281 Y0.6548  
G01 Z-0.0035 F10    
G01 X-0.2212 Y0.6496  F20    
G01 X-0.2138 Y0.6453  
G01 X-0.2058 Y0.6420  
G01 X-0.1975 Y0.6398  
G01 X-0.1890 Y0.6386  
G01 X-0.1803 Y0.6386  
G01 X-0.1718 Y0.6398  
G01 X-0.1635 Y0.6420  
G01 X-0.1555 Y0.6453  
G01 X-0.1481 Y0.6496  
G01 X-0.1412 Y0.6548  
G01 X-0.1351 Y0.6609  
G01 X-0.1299 Y0.6678  
G01 X-0.1256 Y0.6752  
G01 X-0.1223 Y0.6832  
G01 X-0.1201 Y0.6915  
G01 X-0.1189 Y0.7000  
G01 X-0.1189 Y0.7086  
G01 X-0.1201 Y0.7172  
G01 X-0.1223 Y0.7255  
G01 X-0.1256 Y0.7334  
G01 X-0.1299 Y0.7409  
G01 X-0.1351 Y0.7477  
G01 X-0.1412 Y0.7538  
G01 X-0.1481 Y0.7591  
G01 X-0.1555 Y0.7634  
G01 X-0.1635 Y0.7667  
G01 X-0.1718 Y0.7689  
G01 X-0.1803 Y0.7700  
G01 X-0.1890 Y0.7700  
G01 X-0.1975 Y0.7689  
G01 X-0.2058 Y0.7667  
G01 X-0.2138 Y0.7634  
G01 X-0.2212 Y0.7591  
G01 X-0.2281 Y0.7538  
G01 X-0.2341 Y0.7477  
G01 X-0.2394 Y0.7409  
G01 X-0.2437 Y0.7334  
G01 X-0.2470 Y0.7255  
G01 X-0.2492 Y0.7172  
G01 X-0.2503 Y0.7086  
G01 X-0.2503 Y0.7000  
G01 X-0.2492 Y0.6915  
G01 X-0.2470 Y0.6832  
G01 X-0.2437 Y0.6752  
G01 X-0.2394 Y0.6678  
G01 X-0.2341 Y0.6609  
G01 X-0.2281 Y0.6548  
G00 Z0.0500  
G00 X-0.2281 Y2.5462  
G01 Z-0.0035 F10    
G01 X-0.2212 Y2.5409  F20    
G01 X-0.2138 Y2.5366  
G01 X-0.2058 Y2.5333  
G01 X-0.1975 Y2.5311  
G01 X-0.1890 Y2.5300  
G01 X-0.1803 Y2.5300  
G01 X-0.1718 Y2.5311  
G01 X-0.1635 Y2.5333  
G01 X-0.1555 Y2.5366  
G01 X-0.1481 Y2.5409  
G01 X-0.1412 Y2.5462  
G01 X-0.1351 Y2.5523  
G01 X-0.1299 Y2.5591  
G01 X-0.1256 Y2.5665  
G01 X-0.1223 Y2.5745  
G01 X-0.1201 Y2.5828  
G01 X-0.1189 Y2.5914  
G01 X-0.1189 Y2.6000  
G01 X-0.1201 Y2.6085  
G01 X-0.1223 Y2.6168  
G01 X-0.1256 Y2.6248  
G01 X-0.1299 Y2.6322  
G01 X-0.1351 Y2.6391  
G01 X-0.1412 Y2.6452  
G01 X-0.1481 Y2.6504  
G01 X-0.1555 Y2.6547  
G01 X-0.1635 Y2.6580  
G01 X-0.1718 Y2.6602  
G01 X-0.1803 Y2.6614  
G01 X-0.1890 Y2.6614  
G01 X-0.1975 Y2.6602  
G01 X-0.2058 Y2.6580  
G01 X-0.2138 Y2.6547  
G01 X-0.2212 Y2.6504  
G01 X-0.2281 Y2.6452  
G01 X-0.2341 Y2.6391  
G01 X-0.2394 Y2.6322  
G01 X-0.2437 Y2.6248  
G01 X-0.2470 Y2.6168  
G01 X-0.2492 Y2.6085  
G01 X-0.2503 Y2.6000  
G01 X-0.2503 Y2.5914  
G01 X-0.2492 Y2.5828  
G01 X-0.2470 Y2.5745  
G01 X-0.2437 Y2.5665  
G01 X-0.2394 Y2.5591  
G01 X-0.2341 Y2.5523  
G01 X-0.2281 Y2.5462  
G00 Z0.0500  
G00 X-0.4659 Y2.5995  
G01 Z-0.0035 F10    
G01 X-0.4606 Y2.6063  F20    
G01 X-0.4563 Y2.6138  
G01 X-0.4530 Y2.6218  
G01 X-0.4508 Y2.6301  
G01 X-0.4497 Y2.6386  
G01 X-0.4497 Y2.6472  
G01 X-0.4508 Y2.6558  
G01 X-0.4530 Y2.6641  
G01 X-0.4563 Y2.6720  
G01 X-0.4606 Y2.6795  
G01 X-0.4659 Y2.6863  
G01 X-0.4719 Y2.6924  
G01 X-0.4788 Y2.6977  
G01 X-0.4862 Y2.7020  
G01 X-0.4942 Y2.7053  
G01 X-0.5025 Y2.7075  
G01 X-0.5110 Y2.7086  
G01 X-0.5197 Y2.7086  
G01 X-0.5282 Y2.7075  
G01 X-0.5365 Y2.7053  
G01 X-0.5445 Y2.7020  
G01 X-0.5519 Y2.6977  
G01 X-0.5588 Y2.6924  
G01 X-0.5649 Y2.6863  
G01 X-0.5701 Y2.6795  
G01 X-0.5744 Y2.6720  
G01 X-0.5777 Y2.6641  
G01 X-0.5799 Y2.6558  
G01 X-0.5811 Y2.6472  
G01 X-0.5811 Y2.6386  
G01 X-0.5799 Y2.6301  
G01 X-0.5777 Y2.6218  
G01 X-0.5744 Y2.6138  
G01 X-0.5701 Y2.6063  
G01 X-0.5649 Y2.5995  
G01 X-0.5588 Y2.5934  
G01 X-0.5519 Y2.5882  
G01 X-0.5445 Y2.5839  
G01 X-0.5365 Y2.5806  
G01 X-0.5282 Y2.5783  
G01 X-0.5197 Y2.5772  
G01 X-0.5110 Y2.5772  
G01 X-0.5025 Y2.5783  
G01 X-0.4942 Y2.5806  
G01 X-0.4862 Y2.5839  
G01 X-0.4788 Y2.5882  
G01 X-0.4719 Y2.5934  
G01 X-0.4659 Y2.5995  
G00 Z0.0500  
G00 X-0.1468 Y0.2103  
G01 Z-0.0035 F10    
G01 X-0.1411 Y0.2180  F20    
G01 X-0.1368 Y0.2266  
G01 X-0.1338 Y0.2357  
G01 X-0.1323 Y0.2452  
G01 X-0.1323 Y0.2548  
G01 X-0.1338 Y0.2643  
G01 X-0.1368 Y0.2734  
G01 X-0.1411 Y0.2820  
G01 X-0.1468 Y0.2897  
G01 X-0.1536 Y0.2965  
G01 X-0.1613 Y0.3022  
G01 X-0.1699 Y0.3065  
G01 X-0.1790 Y0.3095  
G01 X-0.1885 Y0.3110  
G01 X-0.1981 Y0.3110  
G01 X-0.2076 Y0.3095  
G01 X-0.2167 Y0.3065  
G01 X-0.2253 Y0.3022  
G01 X-0.2330 Y0.2965  
G01 X-0.2398 Y0.2897  
G01 X-0.2455 Y0.2820  
G01 X-0.2498 Y0.2734  
G01 X-0.2528 Y0.2643  
G01 X-0.2543 Y0.2548  
G01 X-0.2543 Y0.2452  
G01 X-0.2528 Y0.2357  
G01 X-0.2498 Y0.2266  
G01 X-0.2455 Y0.2180  
G01 X-0.2398 Y0.2103  
G01 X-0.2330 Y0.2035  
G01 X-0.2253 Y0.1978  
G01 X-0.2167 Y0.1935  
G01 X-0.2076 Y0.1905  
G01 X-0.1981 Y0.1890  
G01 X-0.1885 Y0.1890  
G01 X-0.1790 Y0.1905  
G01 X-0.1699 Y0.1935  
G01 X-0.1613 Y0.1978  
G01 X-0.1536 Y0.2035  
G01 X-0.1468 Y0.2103  
G00 Z0.0500  
G00 X-0.2846 Y0.2103  
G01 Z-0.0035 F10    
G01 X-0.2789 Y0.2180  F20    
G01 X-0.2746 Y0.2266  
G01 X-0.2716 Y0.2357  
G01 X-0.2701 Y0.2452  
G01 X-0.2701 Y0.2548  
G01 X-0.2716 Y0.2643  
G01 X-0.2746 Y0.2734  
G01 X-0.2789 Y0.2820  
G01 X-0.2846 Y0.2897  
G01 X-0.2886 Y0.2938  
G01 X-0.2518 Y0.3637  
G01 X-0.2510 Y0.3650  
G01 X-0.2503 Y0.3667  
G01 X-0.2494 Y0.3682  
G01 X-0.2490 Y0.3697  
G01 X-0.2484 Y0.3712  
G01 X-0.2481 Y0.3729  
G01 X-0.2475 Y0.3747  
G01 X-0.2474 Y0.3762  
G01 X-0.2471 Y0.3778  
G01 X-0.2471 Y0.3796  
G01 X-0.2469 Y0.3813  
G01 X-0.2471 Y0.3829  
G01 X-0.2471 Y0.4430  
G01 X-0.2414 Y0.4472  
G01 X-0.2346 Y0.4540  
G01 X-0.2289 Y0.4617  
G01 X-0.2246 Y0.4703  
G01 X-0.2216 Y0.4794  
G01 X-0.2201 Y0.4889  
G01 X-0.2201 Y0.4985  
G01 X-0.2216 Y0.5080  
G01 X-0.2246 Y0.5171  
G01 X-0.2289 Y0.5257  
G01 X-0.2346 Y0.5334  
G01 X-0.2414 Y0.5402  
G01 X-0.2491 Y0.5459  
G01 X-0.2577 Y0.5502  
G01 X-0.2668 Y0.5532  
G01 X-0.2763 Y0.5547  
G01 X-0.2859 Y0.5547  
G01 X-0.2954 Y0.5532  
G01 X-0.3045 Y0.5502  
G01 X-0.3131 Y0.5459  
G01 X-0.3208 Y0.5402  
G01 X-0.3276 Y0.5334  
G01 X-0.3333 Y0.5257  
G01 X-0.3376 Y0.5171  
G01 X-0.3406 Y0.5080  
G01 X-0.3421 Y0.4985  
G01 X-0.3421 Y0.4889  
G01 X-0.3406 Y0.4794  
G01 X-0.3376 Y0.4703  
G01 X-0.3333 Y0.4617  
G01 X-0.3276 Y0.4540  
G01 X-0.3208 Y0.4472  
G01 X-0.3151 Y0.4430  
G01 X-0.3151 Y0.3895  
G01 X-0.3602 Y0.3036  
G01 X-0.3631 Y0.3022  
G01 X-0.3708 Y0.2965  
G01 X-0.3776 Y0.2897  
G01 X-0.3833 Y0.2820  
G01 X-0.3876 Y0.2734  
G01 X-0.3906 Y0.2643  
G01 X-0.3921 Y0.2548  
G01 X-0.3921 Y0.2452  
G01 X-0.3906 Y0.2357  
G01 X-0.3876 Y0.2266  
G01 X-0.3833 Y0.2180  
G01 X-0.3776 Y0.2103  
G01 X-0.3708 Y0.2035  
G01 X-0.3631 Y0.1978  
G01 X-0.3545 Y0.1935  
G01 X-0.3454 Y0.1905  
G01 X-0.3359 Y0.1890  
G01 X-0.3263 Y0.1890  
G01 X-0.3168 Y0.1905  
G01 X-0.3077 Y0.1935  
G01 X-0.2991 Y0.1978  
G01 X-0.2914 Y0.2035  
G01 X-0.2846 Y0.2103  
G00 Z0.0500  
G00 X-0.4224 Y0.2103  
G01 Z-0.0035 F10    
G01 X-0.4167 Y0.2180  F20    
G01 X-0.4124 Y0.2266  
G01 X-0.4094 Y0.2357  
G01 X-0.4079 Y0.2452  
G01 X-0.4079 Y0.2548  
G01 X-0.4094 Y0.2643  
G01 X-0.4124 Y0.2734  
G01 X-0.4167 Y0.2820  
G01 X-0.4224 Y0.2897  
G01 X-0.4279 Y0.2952  
G01 X-0.4175 Y0.3396  
G01 X-0.4173 Y0.3401  
G01 X-0.4168 Y0.3428  
G01 X-0.4161 Y0.3455  
G01 X-0.4161 Y0.3461  
G01 X-0.4160 Y0.3467  
G01 X-0.4160 Y0.3494  
G01 X-0.4159 Y0.3522  
G01 X-0.4160 Y0.3528  
G01 X-0.4160 Y0.4327  
G01 X-0.4141 Y0.4327  
G01 X-0.4046 Y0.4342  
G01 X-0.3955 Y0.4372  
G01 X-0.3869 Y0.4415  
G01 X-0.3792 Y0.4472  
G01 X-0.3724 Y0.4540  
G01 X-0.3667 Y0.4617  
G01 X-0.3624 Y0.4703  
G01 X-0.3594 Y0.4794  
G01 X-0.3579 Y0.4889  
G01 X-0.3579 Y0.4985  
G01 X-0.3594 Y0.5080  
G01 X-0.3624 Y0.5171  
G01 X-0.3667 Y0.5257  
G01 X-0.3724 Y0.5334  
G01 X-0.3792 Y0.5402  
G01 X-0.3869 Y0.5459  
G01 X-0.3955 Y0.5502  
G01 X-0.4046 Y0.5532  
G01 X-0.4141 Y0.5547  
G01 X-0.4237 Y0.5547  
G01 X-0.4332 Y0.5532  
G01 X-0.4423 Y0.5502  
G01 X-0.4509 Y0.5459  
G01 X-0.4586 Y0.5402  
G01 X-0.4654 Y0.5334  
G01 X-0.4711 Y0.5257  
G01 X-0.4754 Y0.5171  
G01 X-0.4784 Y0.5080  
G01 X-0.4799 Y0.4985  
G01 X-0.4799 Y0.4889  
G01 X-0.4786 Y0.4809  
G01 X-0.4801 Y0.4787  
G01 X-0.4827 Y0.4725  
G01 X-0.4840 Y0.4659  
G01 X-0.4840 Y0.3539  
G01 X-0.4954 Y0.3050  
G01 X-0.5009 Y0.3022  
G01 X-0.5086 Y0.2965  
G01 X-0.5154 Y0.2897  
G01 X-0.5211 Y0.2820  
G01 X-0.5254 Y0.2734  
G01 X-0.5284 Y0.2643  
G01 X-0.5299 Y0.2548  
G01 X-0.5299 Y0.2452  
G01 X-0.5284 Y0.2357  
G01 X-0.5254 Y0.2266  
G01 X-0.5211 Y0.2180  
G01 X-0.5154 Y0.2103  
G01 X-0.5086 Y0.2035  
G01 X-0.5009 Y0.1978  
G01 X-0.4923 Y0.1935  
G01 X-0.4832 Y0.1905  
G01 X-0.4737 Y0.1890  
G01 X-0.4641 Y0.1890  
G01 X-0.4546 Y0.1905  
G01 X-0.4455 Y0.1935  
G01 X-0.4369 Y0.1978  
G01 X-0.4292 Y0.2035  
G01 X-0.4224 Y0.2103  
G00 Z0.0500  
G00 X-0.5602 Y0.2103  
G01 Z-0.0035 F10    
G01 X-0.5545 Y0.2180  F20    
G01 X-0.5502 Y0.2266  
G01 X-0.5472 Y0.2357  
G01 X-0.5457 Y0.2452  
G01 X-0.5457 Y0.2548  
G01 X-0.5472 Y0.2643  
G01 X-0.5502 Y0.2734  
G01 X-0.5545 Y0.2820  
G01 X-0.5602 Y0.2897  
G01 X-0.5670 Y0.2965  
G01 X-0.5747 Y0.3022  
G01 X-0.5831 Y0.3065  
G01 X-0.5910 Y0.3466  
G01 X-0.5910 Y0.6882  
G01 X-0.3245 Y1.0274  
G01 X-0.3236 Y1.0283  
G01 X-0.3225 Y1.0300  
G01 X-0.3212 Y1.0316  
G01 X-0.3206 Y1.0328  
G01 X-0.3199 Y1.0339  
G01 X-0.3191 Y1.0358  
G01 X-0.3182 Y1.0376  
G01 X-0.3178 Y1.0389  
G01 X-0.3173 Y1.0401  
G01 X-0.3169 Y1.0421  
G01 X-0.3164 Y1.0440  
G01 X-0.3163 Y1.0454  
G01 X-0.3160 Y1.0467  
G01 X-0.3160 Y1.0487  
G01 X-0.3158 Y1.0507  
G01 X-0.3160 Y1.0520  
G01 X-0.3160 Y2.6909  
G01 X-0.2845 Y2.7453  
G01 X-0.2763 Y2.7453  
G01 X-0.2668 Y2.7468  
G01 X-0.2577 Y2.7498  
G01 X-0.2491 Y2.7541  
G01 X-0.2414 Y2.7598  
G01 X-0.2346 Y2.7666  
G01 X-0.2289 Y2.7743  
G01 X-0.2246 Y2.7829  
G01 X-0.2216 Y2.7920  
G01 X-0.2201 Y2.8015  
G01 X-0.2201 Y2.8111  
G01 X-0.2216 Y2.8206  
G01 X-0.2246 Y2.8297  
G01 X-0.2289 Y2.8383  
G01 X-0.2346 Y2.8460  
G01 X-0.2414 Y2.8528  
G01 X-0.2491 Y2.8585  
G01 X-0.2577 Y2.8628  
G01 X-0.2668 Y2.8658  
G01 X-0.2763 Y2.8673  
G01 X-0.2859 Y2.8673  
G01 X-0.2954 Y2.8658  
G01 X-0.3045 Y2.8628  
G01 X-0.3131 Y2.8585  
G01 X-0.3208 Y2.8528  
G01 X-0.3276 Y2.8460  
G01 X-0.3333 Y2.8383  
G01 X-0.3376 Y2.8297  
G01 X-0.3406 Y2.8206  
G01 X-0.3421 Y2.8111  
G01 X-0.3421 Y2.8015  
G01 X-0.3406 Y2.7920  
G01 X-0.3389 Y2.7869  
G01 X-0.3789 Y2.7180  
G01 X-0.3801 Y2.7161  
G01 X-0.3805 Y2.7151  
G01 X-0.3811 Y2.7141  
G01 X-0.3818 Y2.7120  
G01 X-0.3827 Y2.7099  
G01 X-0.3829 Y2.7088  
G01 X-0.3833 Y2.7078  
G01 X-0.3836 Y2.7056  
G01 X-0.3840 Y2.7033  
G01 X-0.3840 Y2.7023  
G01 X-0.3841 Y2.7012  
G01 X-0.3840 Y2.6989  
G01 X-0.3840 Y1.0618  
G01 X-0.6505 Y0.7226  
G01 X-0.6514 Y0.7217  
G01 X-0.6525 Y0.7200  
G01 X-0.6538 Y0.7184  
G01 X-0.6544 Y0.7172  
G01 X-0.6551 Y0.7161  
G01 X-0.6559 Y0.7142  
G01 X-0.6568 Y0.7124  
G01 X-0.6572 Y0.7111  
G01 X-0.6577 Y0.7099  
G01 X-0.6581 Y0.7079  
G01 X-0.6586 Y0.7060  
G01 X-0.6587 Y0.7046  
G01 X-0.6590 Y0.7033  
G01 X-0.6590 Y0.7013  
G01 X-0.6592 Y0.6993  
G01 X-0.6590 Y0.6980  
G01 X-0.6590 Y0.3433  
G01 X-0.6590 Y0.3400  
G01 X-0.6584 Y0.3367  
G01 X-0.6498 Y0.2932  
G01 X-0.6532 Y0.2897  
G01 X-0.6589 Y0.2820  
G01 X-0.6632 Y0.2734  
G01 X-0.6662 Y0.2643  
G01 X-0.6677 Y0.2548  
G01 X-0.6677 Y0.2452  
G01 X-0.6662 Y0.2357  
G01 X-0.6632 Y0.2266  
G01 X-0.6589 Y0.2180  
G01 X-0.6532 Y0.2103  
G01 X-0.6464 Y0.2035  
G01 X-0.6387 Y0.1978  
G01 X-0.6301 Y0.1935  
G01 X-0.6210 Y0.1905  
G01 X-0.6115 Y0.1890  
G01 X-0.6019 Y0.1890  
G01 X-0.5924 Y0.1905  
G01 X-0.5833 Y0.1935  
G01 X-0.5747 Y0.1978  
G01 X-0.5670 Y0.2035  
G01 X-0.5602 Y0.2103  
G00 Z0.0500  
G00 X-0.5604 Y0.6057  
G01 Z-0.0035 F10    
G01 X-0.5533 Y0.6003  F20    
G01 X-0.5456 Y0.5958  
G01 X-0.5373 Y0.5924  
G01 X-0.5287 Y0.5901  
G01 X-0.5198 Y0.5889  
G01 X-0.5109 Y0.5889  
G01 X-0.5020 Y0.5901  
G01 X-0.4934 Y0.5924  
G01 X-0.4851 Y0.5958  
G01 X-0.4774 Y0.6003  
G01 X-0.4703 Y0.6057  
G01 X-0.4640 Y0.6120  
G01 X-0.4585 Y0.6191  
G01 X-0.4541 Y0.6269  
G01 X-0.4506 Y0.6351  
G01 X-0.4483 Y0.6438  
G01 X-0.4472 Y0.6526  
G01 X-0.4472 Y0.6616  
G01 X-0.4483 Y0.6704  
G01 X-0.4506 Y0.6791  
G01 X-0.4541 Y0.6873  
G01 X-0.4585 Y0.6951  
G01 X-0.4640 Y0.7021  
G01 X-0.4703 Y0.7085  
G01 X-0.4774 Y0.7139  
G01 X-0.4851 Y0.7184  
G01 X-0.4934 Y0.7218  
G01 X-0.5020 Y0.7241  
G01 X-0.5109 Y0.7253  
G01 X-0.5198 Y0.7253  
G01 X-0.5287 Y0.7241  
G01 X-0.5373 Y0.7218  
G01 X-0.5456 Y0.7184  
G01 X-0.5533 Y0.7139  
G01 X-0.5604 Y0.7085  
G01 X-0.5667 Y0.7021  
G01 X-0.5722 Y0.6951  
G01 X-0.5766 Y0.6873  
G01 X-0.5801 Y0.6791  
G01 X-0.5824 Y0.6704  
G01 X-0.5836 Y0.6616  
G01 X-0.5836 Y0.6526  
G01 X-0.5824 Y0.6438  
G01 X-0.5801 Y0.6351  
G01 X-0.5766 Y0.6269  
G01 X-0.5722 Y0.6191  
G01 X-0.5667 Y0.6120  
G01 X-0.5604 Y0.6057  
G00 Z0.0500  
G00 X-0.2297 Y0.6529  
G01 Z-0.0035 F10    
G01 X-0.2226 Y0.6475  F20    
G01 X-0.2149 Y0.6430  
G01 X-0.2066 Y0.6396  
G01 X-0.1980 Y0.6373  
G01 X-0.1891 Y0.6361  
G01 X-0.1802 Y0.6361  
G01 X-0.1713 Y0.6373  
G01 X-0.1627 Y0.6396  
G01 X-0.1544 Y0.6430  
G01 X-0.1467 Y0.6475  
G01 X-0.1396 Y0.6529  
G01 X-0.1333 Y0.6593  
G01 X-0.1278 Y0.6664  
G01 X-0.1234 Y0.6741  
G01 X-0.1199 Y0.6824  
G01 X-0.1176 Y0.6910  
G01 X-0.1164 Y0.6999  
G01 X-0.1164 Y0.7088  
G01 X-0.1176 Y0.7177  
G01 X-0.1199 Y0.7263  
G01 X-0.1234 Y0.7346  
G01 X-0.1278 Y0.7423  
G01 X-0.1333 Y0.7494  
G01 X-0.1396 Y0.7557  
G01 X-0.1467 Y0.7612  
G01 X-0.1544 Y0.7656  
G01 X-0.1627 Y0.7690  
G01 X-0.1713 Y0.7714  
G01 X-0.1802 Y0.7725  
G01 X-0.1891 Y0.7725  
G01 X-0.1980 Y0.7714  
G01 X-0.2066 Y0.7690  
G01 X-0.2149 Y0.7656  
G01 X-0.2226 Y0.7612  
G01 X-0.2297 Y0.7557  
G01 X-0.2360 Y0.7494  
G01 X-0.2415 Y0.7423  
G01 X-0.2459 Y0.7346  
G01 X-0.2494 Y0.7263  
G01 X-0.2517 Y0.7177  
G01 X-0.2528 Y0.7088  
G01 X-0.2528 Y0.6999  
G01 X-0.2517 Y0.6910  
G01 X-0.2494 Y0.6824  
G01 X-0.2459 Y0.6741  
G01 X-0.2415 Y0.6664  
G01 X-0.2360 Y0.6593  
G01 X-0.2297 Y0.6529  
G00 Z0.0500  
G00 X-0.2297 Y2.5443  
G01 Z-0.0035 F10    
G01 X-0.2226 Y2.5388  F20    
G01 X-0.2149 Y2.5344  
G01 X-0.2066 Y2.5310  
G01 X-0.1980 Y2.5286  
G01 X-0.1891 Y2.5275  
G01 X-0.1802 Y2.5275  
G01 X-0.1713 Y2.5286  
G01 X-0.1627 Y2.5310  
G01 X-0.1544 Y2.5344  
G01 X-0.1467 Y2.5388  
G01 X-0.1396 Y2.5443  
G01 X-0.1333 Y2.5506  
G01 X-0.1278 Y2.5577  
G01 X-0.1234 Y2.5654  
G01 X-0.1199 Y2.5737  
G01 X-0.1176 Y2.5823  
G01 X-0.1164 Y2.5912  
G01 X-0.1164 Y2.6001  
G01 X-0.1176 Y2.6090  
G01 X-0.1199 Y2.6176  
G01 X-0.1234 Y2.6259  
G01 X-0.1278 Y2.6336  
G01 X-0.1333 Y2.6407  
G01 X-0.1396 Y2.6471  
G01 X-0.1467 Y2.6525  
G01 X-0.1544 Y2.6570  
G01 X-0.1627 Y2.6604  
G01 X-0.1713 Y2.6627  
G01 X-0.1802 Y2.6639  
G01 X-0.1891 Y2.6639  
G01 X-0.1980 Y2.6627  
G01 X-0.2066 Y2.6604  
G01 X-0.2149 Y2.6570  
G01 X-0.2226 Y2.6525  
G01 X-0.2297 Y2.6471  
G01 X-0.2360 Y2.6407  
G01 X-0.2415 Y2.6336  
G01 X-0.2459 Y2.6259  
G01 X-0.2494 Y2.6176  
G01 X-0.2517 Y2.6090  
G01 X-0.2528 Y2.6001  
G01 X-0.2528 Y2.5912  
G01 X-0.2517 Y2.5823  
G01 X-0.2494 Y2.5737  
G01 X-0.2459 Y2.5654  
G01 X-0.2415 Y2.5577  
G01 X-0.2360 Y2.5506  
G01 X-0.2297 Y2.5443  
G00 Z0.0500  
G00 X-0.4640 Y2.5979  
G01 Z-0.0035 F10    
G01 X-0.4585 Y2.6049  F20    
G01 X-0.4541 Y2.6127  
G01 X-0.4506 Y2.6209  
G01 X-0.4483 Y2.6296  
G01 X-0.4472 Y2.6384  
G01 X-0.4472 Y2.6474  
G01 X-0.4483 Y2.6562  
G01 X-0.4506 Y2.6649  
G01 X-0.4541 Y2.6731  
G01 X-0.4585 Y2.6809  
G01 X-0.4640 Y2.6880  
G01 X-0.4703 Y2.6943  
G01 X-0.4774 Y2.6997  
G01 X-0.4851 Y2.7042  
G01 X-0.4934 Y2.7076  
G01 X-0.5020 Y2.7099  
G01 X-0.5109 Y2.7111  
G01 X-0.5198 Y2.7111  
G01 X-0.5287 Y2.7099  
G01 X-0.5373 Y2.7076  
G01 X-0.5456 Y2.7042  
G01 X-0.5533 Y2.6997  
G01 X-0.5604 Y2.6943  
G01 X-0.5667 Y2.6880  
G01 X-0.5722 Y2.6809  
G01 X-0.5766 Y2.6731  
G01 X-0.5801 Y2.6649  
G01 X-0.5824 Y2.6562  
G01 X-0.5836 Y2.6474  
G01 X-0.5836 Y2.6384  
G01 X-0.5824 Y2.6296  
G01 X-0.5801 Y2.6209  
G01 X-0.5766 Y2.6127  
G01 X-0.5722 Y2.6049  
G01 X-0.5667 Y2.5979  
G01 X-0.5604 Y2.5915  
G01 X-0.5533 Y2.5861  
G01 X-0.5456 Y2.5816  
G01 X-0.5373 Y2.5782  
G01 X-0.5287 Y2.5759  
G01 X-0.5198 Y2.5747  
G01 X-0.5109 Y2.5747  
G01 X-0.5020 Y2.5759  
G01 X-0.4934 Y2.5782  
G01 X-0.4851 Y2.5816  
G01 X-0.4774 Y2.5861  
G01 X-0.4703 Y2.5915  
G01 X-0.4640 Y2.5979  
G00 Z0.0500  
G00 X-0.1449 Y0.2086  
G01 Z-0.0035 F10    
G01 X-0.1390 Y0.2167  F20    
G01 X-0.1345 Y0.2256  
G01 X-0.1314 Y0.2351  
G01 X-0.1298 Y0.2450  
G01 X-0.1298 Y0.2550  
G01 X-0.1314 Y0.2649  
G01 X-0.1345 Y0.2744  
G01 X-0.1390 Y0.2833  
G01 X-0.1449 Y0.2914  
G01 X-0.1519 Y0.2984  
G01 X-0.1600 Y0.3043  
G01 X-0.1689 Y0.3088  
G01 X-0.1784 Y0.3119  
G01 X-0.1883 Y0.3135  
G01 X-0.1983 Y0.3135  
G01 X-0.2082 Y0.3119  
G01 X-0.2177 Y0.3088  
G01 X-0.2266 Y0.3043  
G01 X-0.2347 Y0.2984  
G01 X-0.2417 Y0.2914  
G01 X-0.2476 Y0.2833  
G01 X-0.2522 Y0.2744  
G01 X-0.2552 Y0.2649  
G01 X-0.2568 Y0.2550  
G01 X-0.2568 Y0.2450  
G01 X-0.2552 Y0.2351  
G01 X-0.2522 Y0.2256  
G01 X-0.2476 Y0.2167  
G01 X-0.2417 Y0.2086  
G01 X-0.2347 Y0.2016  
G01 X-0.2266 Y0.1957  
G01 X-0.2177 Y0.1912  
G01 X-0.2082 Y0.1881  
G01 X-0.1983 Y0.1865  
G01 X-0.1883 Y0.1865  
G01 X-0.1784 Y0.1881  
G01 X-0.1689 Y0.1912  
G01 X-0.1600 Y0.1957  
G01 X-0.1519 Y0.2016  
G01 X-0.1449 Y0.2086  
G00 Z0.0500  
G00 X-0.2827 Y0.2086  
G01 Z-0.0035 F10    
G01 X-0.2768 Y0.2167  F20    
G01 X-0.2723 Y0.2256  
G01 X-0.2692 Y0.2351  
G01 X-0.2676 Y0.2450  
G01 X-0.2676 Y0.2550  
G01 X-0.2692 Y0.2649  
G01 X-0.2723 Y0.2744  
G01 X-0.2768 Y0.2833  
G01 X-0.2827 Y0.2914  
G01 X-0.2855 Y0.2942  
G01 X-0.2497 Y0.3624  
G01 X-0.2488 Y0.3638  
G01 X-0.2480 Y0.3656  
G01 X-0.2471 Y0.3673  
G01 X-0.2466 Y0.3689  
G01 X-0.2460 Y0.3705  
G01 X-0.2456 Y0.3723  
G01 X-0.2451 Y0.3742  
G01 X-0.2449 Y0.3759  
G01 X-0.2446 Y0.3775  
G01 X-0.2446 Y0.3794  
G01 X-0.2444 Y0.3814  
G01 X-0.2446 Y0.3830  
G01 X-0.2446 Y0.4417  
G01 X-0.2397 Y0.4453  
G01 X-0.2327 Y0.4523  
G01 X-0.2268 Y0.4604  
G01 X-0.2223 Y0.4693  
G01 X-0.2192 Y0.4788  
G01 X-0.2176 Y0.4887  
G01 X-0.2176 Y0.4987  
G01 X-0.2192 Y0.5086  
G01 X-0.2223 Y0.5181  
G01 X-0.2268 Y0.5270  
G01 X-0.2327 Y0.5351  
G01 X-0.2397 Y0.5421  
G01 X-0.2478 Y0.5480  
G01 X-0.2567 Y0.5525  
G01 X-0.2662 Y0.5556  
G01 X-0.2761 Y0.5572  
G01 X-0.2861 Y0.5572  
G01 X-0.2960 Y0.5556  
G01 X-0.3055 Y0.5525  
G01 X-0.3144 Y0.5480  
G01 X-0.3225 Y0.5421  
G01 X-0.3295 Y0.5351  
G01 X-0.3354 Y0.5270  
G01 X-0.3400 Y0.5181  
G01 X-0.3430 Y0.5086  
G01 X-0.3446 Y0.4987  
G01 X-0.3446 Y0.4887  
G01 X-0.3430 Y0.4788  
G01 X-0.3400 Y0.4693  
G01 X-0.3354 Y0.4604  
G01 X-0.3295 Y0.4523  
G01 X-0.3225 Y0.4453  
G01 X-0.3176 Y0.4417  
G01 X-0.3176 Y0.3901  
G01 X-0.3621 Y0.3055  
G01 X-0.3644 Y0.3043  
G01 X-0.3725 Y0.2984  
G01 X-0.3795 Y0.2914  
G01 X-0.3854 Y0.2833  
G01 X-0.3900 Y0.2744  
G01 X-0.3930 Y0.2649  
G01 X-0.3946 Y0.2550  
G01 X-0.3946 Y0.2450  
G01 X-0.3930 Y0.2351  
G01 X-0.3900 Y0.2256  
G01 X-0.3854 Y0.2167  
G01 X-0.3795 Y0.2086  
G01 X-0.3725 Y0.2016  
G01 X-0.3644 Y0.1957  
G01 X-0.3555 Y0.1912  
G01 X-0.3460 Y0.1881  
G01 X-0.3361 Y0.1865  
G01 X-0.3261 Y0.1865  
G01 X-0.3162 Y0.1881  
G01 X-0.3067 Y0.1912  
G01 X-0.2978 Y0.1957  
G01 X-0.2897 Y0.2016  
G01 X-0.2827 Y0.2086  
G00 Z0.0500  
G00 X-0.4205 Y0.2086  
G01 Z-0.0035 F10    
G01 X-0.4146 Y0.2167  F20    
G01 X-0.4100 Y0.2256  
G01 X-0.4070 Y0.2351  
G01 X-0.4054 Y0.2450  
G01 X-0.4054 Y0.2550  
G01 X-0.4070 Y0.2649  
G01 X-0.4100 Y0.2744  
G01 X-0.4146 Y0.2833  
G01 X-0.4205 Y0.2914  
G01 X-0.4251 Y0.2960  
G01 X-0.4151 Y0.3388  
G01 X-0.4149 Y0.3394  
G01 X-0.4143 Y0.3423  
G01 X-0.4136 Y0.3452  
G01 X-0.4136 Y0.3458  
G01 X-0.4135 Y0.3464  
G01 X-0.4135 Y0.3494  
G01 X-0.4134 Y0.3524  
G01 X-0.4135 Y0.3530  
G01 X-0.4135 Y0.4303  
G01 X-0.4040 Y0.4318  
G01 X-0.3945 Y0.4349  
G01 X-0.3856 Y0.4394  
G01 X-0.3775 Y0.4453  
G01 X-0.3705 Y0.4523  
G01 X-0.3646 Y0.4604  
G01 X-0.3600 Y0.4693  
G01 X-0.3570 Y0.4788  
G01 X-0.3554 Y0.4887  
G01 X-0.3554 Y0.4987  
G01 X-0.3570 Y0.5086  
G01 X-0.3600 Y0.5181  
G01 X-0.3646 Y0.5270  
G01 X-0.3705 Y0.5351  
G01 X-0.3775 Y0.5421  
G01 X-0.3856 Y0.5480  
G01 X-0.3945 Y0.5525  
G01 X-0.4040 Y0.5556  
G01 X-0.4139 Y0.5572  
G01 X-0.4239 Y0.5572  
G01 X-0.4338 Y0.5556  
G01 X-0.4433 Y0.5525  
G01 X-0.4522 Y0.5480  
G01 X-0.4603 Y0.5421  
G01 X-0.4673 Y0.5351  
G01 X-0.4732 Y0.5270  
G01 X-0.4777 Y0.5181  
G01 X-0.4808 Y0.5086  
G01 X-0.4824 Y0.4987  
G01 X-0.4824 Y0.4887  
G01 X-0.4813 Y0.4815  
G01 X-0.4823 Y0.4799  
G01 X-0.4851 Y0.4732  
G01 X-0.4865 Y0.4662  
G01 X-0.4865 Y0.3542  
G01 X-0.4976 Y0.3067  
G01 X-0.5022 Y0.3043  
G01 X-0.5103 Y0.2984  
G01 X-0.5173 Y0.2914  
G01 X-0.5232 Y0.2833  
G01 X-0.5277 Y0.2744  
G01 X-0.5308 Y0.2649  
G01 X-0.5324 Y0.2550  
G01 X-0.5324 Y0.2450  
G01 X-0.5308 Y0.2351  
G01 X-0.5277 Y0.2256  
G01 X-0.5232 Y0.2167  
G01 X-0.5173 Y0.2086  
G01 X-0.5103 Y0.2016  
G01 X-0.5022 Y0.1957  
G01 X-0.4933 Y0.1912  
G01 X-0.4838 Y0.1881  
G01 X-0.4739 Y0.1865  
G01 X-0.4639 Y0.1865  
G01 X-0.4540 Y0.1881  
G01 X-0.4445 Y0.1912  
G01 X-0.4356 Y0.1957  
G01 X-0.4275 Y0.2016  
G01 X-0.4205 Y0.2086  
G00 Z0.0500  
G00 X-0.5583 Y0.2086  
G01 Z-0.0035 F10    
G01 X-0.5524 Y0.2167  F20    
G01 X-0.5478 Y0.2256  
G01 X-0.5448 Y0.2351  
G01 X-0.5432 Y0.2450  
G01 X-0.5432 Y0.2550  
G01 X-0.5448 Y0.2649  
G01 X-0.5478 Y0.2744  
G01 X-0.5524 Y0.2833  
G01 X-0.5583 Y0.2914  
G01 X-0.5653 Y0.2984  
G01 X-0.5734 Y0.3043  
G01 X-0.5809 Y0.3081  
G01 X-0.5885 Y0.3469  
G01 X-0.5885 Y0.6874  
G01 X-0.3226 Y1.0257  
G01 X-0.3216 Y1.0267  
G01 X-0.3204 Y1.0286  
G01 X-0.3191 Y1.0303  
G01 X-0.3184 Y1.0315  
G01 X-0.3177 Y1.0327  
G01 X-0.3168 Y1.0347  
G01 X-0.3158 Y1.0367  
G01 X-0.3154 Y1.0380  
G01 X-0.3149 Y1.0394  
G01 X-0.3145 Y1.0415  
G01 X-0.3139 Y1.0436  
G01 X-0.3138 Y1.0450  
G01 X-0.3135 Y1.0464  
G01 X-0.3135 Y1.0486  
G01 X-0.3133 Y1.0508  
G01 X-0.3135 Y1.0522  
G01 X-0.3135 Y2.6902  
G01 X-0.2830 Y2.7428  
G01 X-0.2761 Y2.7428  
G01 X-0.2662 Y2.7444  
G01 X-0.2567 Y2.7475  
G01 X-0.2478 Y2.7520  
G01 X-0.2397 Y2.7579  
G01 X-0.2327 Y2.7649  
G01 X-0.2268 Y2.7730  
G01 X-0.2223 Y2.7819  
G01 X-0.2192 Y2.7914  
G01 X-0.2176 Y2.8013  
G01 X-0.2176 Y2.8113  
G01 X-0.2192 Y2.8212  
G01 X-0.2223 Y2.8307  
G01 X-0.2268 Y2.8396  
G01 X-0.2327 Y2.8477  
G01 X-0.2397 Y2.8547  
G01 X-0.2478 Y2.8606  
G01 X-0.2567 Y2.8651  
G01 X-0.2662 Y2.8682  
G01 X-0.2761 Y2.8698  
G01 X-0.2861 Y2.8698  
G01 X-0.2960 Y2.8682  
G01 X-0.3055 Y2.8651  
G01 X-0.3144 Y2.8606  
G01 X-0.3225 Y2.8547  
G01 X-0.3295 Y2.8477  
G01 X-0.3354 Y2.8396  
G01 X-0.3400 Y2.8307  
G01 X-0.3430 Y2.8212  
G01 X-0.3446 Y2.8113  
G01 X-0.3446 Y2.8013  
G01 X-0.3430 Y2.7914  
G01 X-0.3417 Y2.7872  
G01 X-0.3810 Y2.7193  
G01 X-0.3823 Y2.7173  
G01 X-0.3828 Y2.7162  
G01 X-0.3834 Y2.7152  
G01 X-0.3842 Y2.7129  
G01 X-0.3851 Y2.7106  
G01 X-0.3853 Y2.7095  
G01 X-0.3857 Y2.7084  
G01 X-0.3860 Y2.7060  
G01 X-0.3865 Y2.7036  
G01 X-0.3865 Y2.7024  
G01 X-0.3867 Y2.7013  
G01 X-0.3865 Y2.6988  
G01 X-0.3865 Y1.0626  
G01 X-0.6524 Y0.7243  
G01 X-0.6534 Y0.7233  
G01 X-0.6546 Y0.7214  
G01 X-0.6559 Y0.7197  
G01 X-0.6566 Y0.7185  
G01 X-0.6573 Y0.7173  
G01 X-0.6582 Y0.7153  
G01 X-0.6592 Y0.7133  
G01 X-0.6596 Y0.7120  
G01 X-0.6601 Y0.7106  
G01 X-0.6605 Y0.7085  
G01 X-0.6611 Y0.7064  
G01 X-0.6612 Y0.7050  
G01 X-0.6615 Y0.7036  
G01 X-0.6615 Y0.7014  
G01 X-0.6617 Y0.6992  
G01 X-0.6615 Y0.6978  
G01 X-0.6615 Y0.3434  
G01 X-0.6615 Y0.3398  
G01 X-0.6608 Y0.3362  
G01 X-0.6525 Y0.2940  
G01 X-0.6551 Y0.2914  
G01 X-0.6610 Y0.2833  
G01 X-0.6655 Y0.2744  
G01 X-0.6686 Y0.2649  
G01 X-0.6702 Y0.2550  
G01 X-0.6702 Y0.2450  
G01 X-0.6686 Y0.2351  
G01 X-0.6655 Y0.2256  
G01 X-0.6610 Y0.2167  
G01 X-0.6551 Y0.2086  
G01 X-0.6481 Y0.2016  
G01 X-0.6400 Y0.1957  
G01 X-0.6311 Y0.1912  
G01 X-0.6216 Y0.1881  
G01 X-0.6117 Y0.1865  
G01 X-0.6017 Y0.1865  
G01 X-0.5918 Y0.1881  
G01 X-0.5823 Y0.1912  
G01 X-0.5734 Y0.1957  
G01 X-0.5653 Y0.2016  
G01 X-0.5583 Y0.2086  
G00 Z0.0500  
G00 X-0.5547 Y0.5982  
G01 Z-0.0035 F10    
G01 X-0.5467 Y0.5935  F20    
G01 X-0.5381 Y0.5900  
G01 X-0.5292 Y0.5876  
G01 X-0.5200 Y0.5864  
G01 X-0.5107 Y0.5864  
G01 X-0.5015 Y0.5876  
G01 X-0.4926 Y0.5900  
G01 X-0.4840 Y0.5935  
G01 X-0.4760 Y0.5982  
G01 X-0.4686 Y0.6038  
G01 X-0.4621 Y0.6104  
G01 X-0.4564 Y0.6177  
G01 X-0.4518 Y0.6258  
G01 X-0.4483 Y0.6343  
G01 X-0.4459 Y0.6433  
G01 X-0.4447 Y0.6525  
G01 X-0.4447 Y0.6617  
G01 X-0.4459 Y0.6709  
G01 X-0.4483 Y0.6799  
G01 X-0.4518 Y0.6884  
G01 X-0.4564 Y0.6964  
G01 X-0.4621 Y0.7038  
G01 X-0.4686 Y0.7104  
G01 X-0.4760 Y0.7160  
G01 X-0.4840 Y0.7206  
G01 X-0.4926 Y0.7242  
G01 X-0.5015 Y0.7266  
G01 X-0.5107 Y0.7278  
G01 X-0.5200 Y0.7278  
G01 X-0.5292 Y0.7266  
G01 X-0.5381 Y0.7242  
G01 X-0.5467 Y0.7206  
G01 X-0.5547 Y0.7160  
G01 X-0.5621 Y0.7104  
G01 X-0.5686 Y0.7038  
G01 X-0.5743 Y0.6964  
G01 X-0.5789 Y0.6884  
G01 X-0.5824 Y0.6799  
G01 X-0.5848 Y0.6709  
G01 X-0.5861 Y0.6617  
G01 X-0.5861 Y0.6525  
G01 X-0.5848 Y0.6433  
G01 X-0.5824 Y0.6343  
G01 X-0.5789 Y0.6258  
G01 X-0.5743 Y0.6177  
G01 X-0.5686 Y0.6104  
G01 X-0.5621 Y0.6038  
G01 X-0.5547 Y0.5982  
G00 Z0.0500  
G00 X-0.2314 Y0.6511  
G01 Z-0.0035 F10    
G01 X-0.2240 Y0.6454  F20    
G01 X-0.2160 Y0.6408  
G01 X-0.2074 Y0.6372  
G01 X-0.1985 Y0.6348  
G01 X-0.1893 Y0.6336  
G01 X-0.1800 Y0.6336  
G01 X-0.1708 Y0.6348  
G01 X-0.1619 Y0.6372  
G01 X-0.1533 Y0.6408  
G01 X-0.1453 Y0.6454  
G01 X-0.1379 Y0.6511  
G01 X-0.1314 Y0.6576  
G01 X-0.1257 Y0.6650  
G01 X-0.1211 Y0.6730  
G01 X-0.1176 Y0.6816  
G01 X-0.1152 Y0.6905  
G01 X-0.1139 Y0.6997  
G01 X-0.1139 Y0.7090  
G01 X-0.1152 Y0.7182  
G01 X-0.1176 Y0.7271  
G01 X-0.1211 Y0.7357  
G01 X-0.1257 Y0.7437  
G01 X-0.1314 Y0.7510  
G01 X-0.1379 Y0.7576  
G01 X-0.1453 Y0.7632  
G01 X-0.1533 Y0.7679  
G01 X-0.1619 Y0.7714  
G01 X-0.1708 Y0.7738  
G01 X-0.1800 Y0.7750  
G01 X-0.1893 Y0.7750  
G01 X-0.1985 Y0.7738  
G01 X-0.2074 Y0.7714  
G01 X-0.2160 Y0.7679  
G01 X-0.2240 Y0.7632  
G01 X-0.2314 Y0.7576  
G01 X-0.2379 Y0.7510  
G01 X-0.2436 Y0.7437  
G01 X-0.2482 Y0.7357  
G01 X-0.2517 Y0.7271  
G01 X-0.2541 Y0.7182  
G01 X-0.2553 Y0.7090  
G01 X-0.2553 Y0.6997  
G01 X-0.2541 Y0.6905  
G01 X-0.2517 Y0.6816  
G01 X-0.2482 Y0.6730  
G01 X-0.2436 Y0.6650  
G01 X-0.2379 Y0.6576  
G01 X-0.2314 Y0.6511  
G00 Z0.0500  
G00 X-0.2314 Y2.5424  
G01 Z-0.0035 F10    
G01 X-0.2240 Y2.5368  F20    
G01 X-0.2160 Y2.5321  
G01 X-0.2074 Y2.5286  
G01 X-0.1985 Y2.5262  
G01 X-0.1893 Y2.5250  
G01 X-0.1800 Y2.5250  
G01 X-0.1708 Y2.5262  
G01 X-0.1619 Y2.5286  
G01 X-0.1533 Y2.5321  
G01 X-0.1453 Y2.5368  
G01 X-0.1379 Y2.5424  
G01 X-0.1314 Y2.5490  
G01 X-0.1257 Y2.5563  
G01 X-0.1211 Y2.5643  
G01 X-0.1176 Y2.5729  
G01 X-0.1152 Y2.5818  
G01 X-0.1139 Y2.5910  
G01 X-0.1139 Y2.6003  
G01 X-0.1152 Y2.6095  
G01 X-0.1176 Y2.6184  
G01 X-0.1211 Y2.6270  
G01 X-0.1257 Y2.6350  
G01 X-0.1314 Y2.6424  
G01 X-0.1379 Y2.6489  
G01 X-0.1453 Y2.6546  
G01 X-0.1533 Y2.6592  
G01 X-0.1619 Y2.6628  
G01 X-0.1708 Y2.6652  
G01 X-0.1800 Y2.6664  
G01 X-0.1893 Y2.6664  
G01 X-0.1985 Y2.6652  
G01 X-0.2074 Y2.6628  
G01 X-0.2160 Y2.6592  
G01 X-0.2240 Y2.6546  
G01 X-0.2314 Y2.6489  
G01 X-0.2379 Y2.6424  
G01 X-0.2436 Y2.6350  
G01 X-0.2482 Y2.6270  
G01 X-0.2517 Y2.6184  
G01 X-0.2541 Y2.6095  
G01 X-0.2553 Y2.6003  
G01 X-0.2553 Y2.5910  
G01 X-0.2541 Y2.5818  
G01 X-0.2517 Y2.5729  
G01 X-0.2482 Y2.5643  
G01 X-0.2436 Y2.5563  
G01 X-0.2379 Y2.5490  
G01 X-0.2314 Y2.5424  
G00 Z0.0500  
G00 X-0.4621 Y2.5962  
G01 Z-0.0035 F10    
G01 X-0.4564 Y2.6036  F20    
G01 X-0.4518 Y2.6116  
G01 X-0.4483 Y2.6201  
G01 X-0.4459 Y2.6291  
G01 X-0.4447 Y2.6383  
G01 X-0.4447 Y2.6475  
G01 X-0.4459 Y2.6567  
G01 X-0.4483 Y2.6657  
G01 X-0.4518 Y2.6742  
G01 X-0.4564 Y2.6823  
G01 X-0.4621 Y2.6896  
G01 X-0.4686 Y2.6962  
G01 X-0.4760 Y2.7018  
G01 X-0.4840 Y2.7065  
G01 X-0.4926 Y2.7100  
G01 X-0.5015 Y2.7124  
G01 X-0.5107 Y2.7136  
G01 X-0.5200 Y2.7136  
G01 X-0.5292 Y2.7124  
G01 X-0.5381 Y2.7100  
G01 X-0.5467 Y2.7065  
G01 X-0.5547 Y2.7018  
G01 X-0.5621 Y2.6962  
G01 X-0.5686 Y2.6896  
G01 X-0.5743 Y2.6823  
G01 X-0.5789 Y2.6742  
G01 X-0.5824 Y2.6657  
G01 X-0.5848 Y2.6567  
G01 X-0.5861 Y2.6475  
G01 X-0.5861 Y2.6383  
G01 X-0.5848 Y2.6291  
G01 X-0.5824 Y2.6201  
G01 X-0.5789 Y2.6116  
G01 X-0.5743 Y2.6036  
G01 X-0.5686 Y2.5962  
G01 X-0.5621 Y2.5896  
G01 X-0.5547 Y2.5840  
G01 X-0.5467 Y2.5794  
G01 X-0.5381 Y2.5758  
G01 X-0.5292 Y2.5734  
G01 X-0.5200 Y2.5722  
G01 X-0.5107 Y2.5722  
G01 X-0.5015 Y2.5734  
G01 X-0.4926 Y2.5758  
G01 X-0.4840 Y2.5794  
G01 X-0.4760 Y2.5840  
G01 X-0.4686 Y2.5896  
G01 X-0.4621 Y2.5962  
G00 Z0.0500  
G00 X-0.1436 Y0.2064  
G01 Z-0.0035 F10    
G01 X-0.1383 Y0.2133  F20    
G01 X-0.1340 Y0.2207  
G01 X-0.1307 Y0.2287  
G01 X-0.1284 Y0.2371  
G01 X-0.1273 Y0.2457  
G01 X-0.1273 Y0.2543  
G01 X-0.1284 Y0.2629  
G01 X-0.1307 Y0.2713  
G01 X-0.1340 Y0.2793  
G01 X-0.1383 Y0.2867  
G01 X-0.1436 Y0.2936  
G01 X-0.1497 Y0.2997  
G01 X-0.1566 Y0.3050  
G01 X-0.1641 Y0.3093  
G01 X-0.1720 Y0.3126  
G01 X-0.1804 Y0.3149  
G01 X-0.1890 Y0.3160  
G01 X-0.1976 Y0.3160  
G01 X-0.2062 Y0.3149  
G01 X-0.2146 Y0.3126  
G01 X-0.2226 Y0.3093  
G01 X-0.2301 Y0.3050  
G01 X-0.2369 Y0.2997  
G01 X-0.2430 Y0.2936  
G01 X-0.2483 Y0.2867  
G01 X-0.2526 Y0.2793  
G01 X-0.2559 Y0.2713  
G01 X-0.2582 Y0.2629  
G01 X-0.2593 Y0.2543  
G01 X-0.2593 Y0.2457  
G01 X-0.2582 Y0.2371  
G01 X-0.2559 Y0.2287  
G01 X-0.2526 Y0.2207  
G01 X-0.2483 Y0.2133  
G01 X-0.2430 Y0.2064  
G01 X-0.2369 Y0.2003  
G01 X-0.2301 Y0.1950  
G01 X-0.2226 Y0.1907  
G01 X-0.2146 Y0.1874  
G01 X-0.2062 Y0.1851  
G01 X-0.1976 Y0.1840  
G01 X-0.1890 Y0.1840  
G01 X-0.1804 Y0.1851  
G01 X-0.1720 Y0.1874  
G01 X-0.1641 Y0.1907  
G01 X-0.1566 Y0.1950  
G01 X-0.1497 Y0.2003  
G01 X-0.1436 Y0.2064  
G00 Z0.0500  
G00 X-0.2814 Y0.2064  
G01 Z-0.0035 F10    
G01 X-0.2761 Y0.2133  F20    
G01 X-0.2718 Y0.2207  
G01 X-0.2685 Y0.2287  
G01 X-0.2662 Y0.2371  
G01 X-0.2651 Y0.2457  
G01 X-0.2651 Y0.2543  
G01 X-0.2662 Y0.2629  
G01 X-0.2685 Y0.2713  
G01 X-0.2718 Y0.2793  
G01 X-0.2761 Y0.2867  
G01 X-0.2814 Y0.2936  
G01 X-0.2825 Y0.2947  
G01 X-0.2475 Y0.3611  
G01 X-0.2465 Y0.3626  
G01 X-0.2458 Y0.3645  
G01 X-0.2448 Y0.3664  
G01 X-0.2443 Y0.3681  
G01 X-0.2436 Y0.3697  
G01 X-0.2432 Y0.3717  
G01 X-0.2426 Y0.3737  
G01 X-0.2425 Y0.3755  
G01 X-0.2421 Y0.3773  
G01 X-0.2421 Y0.3793  
G01 X-0.2419 Y0.3814  
G01 X-0.2421 Y0.3832  
G01 X-0.2421 Y0.4404  
G01 X-0.2375 Y0.4440  
G01 X-0.2314 Y0.4501  
G01 X-0.2261 Y0.4570  
G01 X-0.2218 Y0.4644  
G01 X-0.2185 Y0.4724  
G01 X-0.2162 Y0.4808  
G01 X-0.2151 Y0.4894  
G01 X-0.2151 Y0.4980  
G01 X-0.2162 Y0.5066  
G01 X-0.2185 Y0.5150  
G01 X-0.2218 Y0.5230  
G01 X-0.2261 Y0.5304  
G01 X-0.2314 Y0.5373  
G01 X-0.2375 Y0.5434  
G01 X-0.2444 Y0.5487  
G01 X-0.2518 Y0.5530  
G01 X-0.2598 Y0.5563  
G01 X-0.2682 Y0.5586  
G01 X-0.2768 Y0.5597  
G01 X-0.2854 Y0.5597  
G01 X-0.2940 Y0.5586  
G01 X-0.3024 Y0.5563  
G01 X-0.3104 Y0.5530  
G01 X-0.3178 Y0.5487  
G01 X-0.3247 Y0.5434  
G01 X-0.3308 Y0.5373  
G01 X-0.3361 Y0.5304  
G01 X-0.3404 Y0.5230  
G01 X-0.3437 Y0.5150  
G01 X-0.3460 Y0.5066  
G01 X-0.3471 Y0.4980  
G01 X-0.3471 Y0.4894  
G01 X-0.3460 Y0.4808  
G01 X-0.3437 Y0.4724  
G01 X-0.3404 Y0.4644  
G01 X-0.3361 Y0.4570  
G01 X-0.3308 Y0.4501  
G01 X-0.3247 Y0.4440  
G01 X-0.3201 Y0.4404  
G01 X-0.3201 Y0.3907  
G01 X-0.3640 Y0.3072  
G01 X-0.3678 Y0.3050  
G01 X-0.3747 Y0.2997  
G01 X-0.3808 Y0.2936  
G01 X-0.3861 Y0.2867  
G01 X-0.3904 Y0.2793  
G01 X-0.3937 Y0.2713  
G01 X-0.3960 Y0.2629  
G01 X-0.3971 Y0.2543  
G01 X-0.3971 Y0.2457  
G01 X-0.3960 Y0.2371  
G01 X-0.3937 Y0.2287  
G01 X-0.3904 Y0.2207  
G01 X-0.3861 Y0.2133  
G01 X-0.3808 Y0.2064  
G01 X-0.3747 Y0.2003  
G01 X-0.3678 Y0.1950  
G01 X-0.3604 Y0.1907  
G01 X-0.3524 Y0.1874  
G01 X-0.3440 Y0.1851  
G01 X-0.3354 Y0.1840  
G01 X-0.3268 Y0.1840  
G01 X-0.3182 Y0.1851  
G01 X-0.3098 Y0.1874  
G01 X-0.3018 Y0.1907  
G01 X-0.2944 Y0.1950  
G01 X-0.2875 Y0.2003  
G01 X-0.2814 Y0.2064  
G00 Z0.0500  
G00 X-0.4192 Y0.2064  
G01 Z-0.0035 F10    
G01 X-0.4139 Y0.2133  F20    
G01 X-0.4096 Y0.2207  
G01 X-0.4063 Y0.2287  
G01 X-0.4040 Y0.2371  
G01 X-0.4029 Y0.2457  
G01 X-0.4029 Y0.2543  
G01 X-0.4040 Y0.2629  
G01 X-0.4063 Y0.2713  
G01 X-0.4096 Y0.2793  
G01 X-0.4139 Y0.2867  
G01 X-0.4192 Y0.2936  
G01 X-0.4224 Y0.2968  
G01 X-0.4127 Y0.3380  
G01 X-0.4125 Y0.3386  
G01 X-0.4119 Y0.3418  
G01 X-0.4111 Y0.3449  
G01 X-0.4111 Y0.3455  
G01 X-0.4110 Y0.3462  
G01 X-0.4110 Y0.3494  
G01 X-0.4109 Y0.3526  
G01 X-0.4110 Y0.3532  
G01 X-0.4110 Y0.4282  
G01 X-0.4060 Y0.4288  
G01 X-0.3976 Y0.4311  
G01 X-0.3896 Y0.4344  
G01 X-0.3822 Y0.4387  
G01 X-0.3753 Y0.4440  
G01 X-0.3692 Y0.4501  
G01 X-0.3639 Y0.4570  
G01 X-0.3596 Y0.4644  
G01 X-0.3563 Y0.4724  
G01 X-0.3540 Y0.4808  
G01 X-0.3529 Y0.4894  
G01 X-0.3529 Y0.4980  
G01 X-0.3540 Y0.5066  
G01 X-0.3563 Y0.5150  
G01 X-0.3596 Y0.5230  
G01 X-0.3639 Y0.5304  
G01 X-0.3692 Y0.5373  
G01 X-0.3753 Y0.5434  
G01 X-0.3822 Y0.5487  
G01 X-0.3896 Y0.5530  
G01 X-0.3976 Y0.5563  
G01 X-0.4060 Y0.5586  
G01 X-0.4146 Y0.5597  
G01 X-0.4232 Y0.5597  
G01 X-0.4318 Y0.5586  
G01 X-0.4402 Y0.5563  
G01 X-0.4482 Y0.5530  
G01 X-0.4556 Y0.5487  
G01 X-0.4625 Y0.5434  
G01 X-0.4686 Y0.5373  
G01 X-0.4739 Y0.5304  
G01 X-0.4782 Y0.5230  
G01 X-0.4815 Y0.5150  
G01 X-0.4838 Y0.5066  
G01 X-0.4849 Y0.4980  
G01 X-0.4849 Y0.4894  
G01 X-0.4839 Y0.4820  
G01 X-0.4846 Y0.4811  
G01 X-0.4875 Y0.4740  
G01 X-0.4890 Y0.4664  
G01 X-0.4890 Y0.3545  
G01 X-0.4997 Y0.3084  
G01 X-0.5056 Y0.3050  
G01 X-0.5125 Y0.2997  
G01 X-0.5186 Y0.2936  
G01 X-0.5239 Y0.2867  
G01 X-0.5282 Y0.2793  
G01 X-0.5315 Y0.2713  
G01 X-0.5338 Y0.2629  
G01 X-0.5349 Y0.2543  
G01 X-0.5349 Y0.2457  
G01 X-0.5338 Y0.2371  
G01 X-0.5315 Y0.2287  
G01 X-0.5282 Y0.2207  
G01 X-0.5239 Y0.2133  
G01 X-0.5186 Y0.2064  
G01 X-0.5125 Y0.2003  
G01 X-0.5056 Y0.1950  
G01 X-0.4982 Y0.1907  
G01 X-0.4902 Y0.1874  
G01 X-0.4818 Y0.1851  
G01 X-0.4732 Y0.1840  
G01 X-0.4646 Y0.1840  
G01 X-0.4560 Y0.1851  
G01 X-0.4476 Y0.1874  
G01 X-0.4396 Y0.1907  
G01 X-0.4322 Y0.1950  
G01 X-0.4253 Y0.2003  
G01 X-0.4192 Y0.2064  
G00 Z0.0500  
G00 X-0.5570 Y0.2064  
G01 Z-0.0035 F10    
G01 X-0.5517 Y0.2133  F20    
G01 X-0.5474 Y0.2207  
G01 X-0.5441 Y0.2287  
G01 X-0.5418 Y0.2371  
G01 X-0.5407 Y0.2457  
G01 X-0.5407 Y0.2543  
G01 X-0.5418 Y0.2629  
G01 X-0.5441 Y0.2713  
G01 X-0.5474 Y0.2793  
G01 X-0.5517 Y0.2867  
G01 X-0.5570 Y0.2936  
G01 X-0.5631 Y0.2997  
G01 X-0.5699 Y0.3050  
G01 X-0.5774 Y0.3093  
G01 X-0.5787 Y0.3098  
G01 X-0.5860 Y0.3471  
G01 X-0.5860 Y0.6379  
G01 X-0.5848 Y0.6335  
G01 X-0.5811 Y0.6246  
G01 X-0.5763 Y0.6163  
G01 X-0.5705 Y0.6087  
G01 X-0.5637 Y0.6019  
G01 X-0.5561 Y0.5961  
G01 X-0.5478 Y0.5913  
G01 X-0.5389 Y0.5876  
G01 X-0.5297 Y0.5851  
G01 X-0.5202 Y0.5839  
G01 X-0.5106 Y0.5839  
G01 X-0.5010 Y0.5851  
G01 X-0.4918 Y0.5876  
G01 X-0.4829 Y0.5913  
G01 X-0.4746 Y0.5961  
G01 X-0.4670 Y0.6019  
G01 X-0.4602 Y0.6087  
G01 X-0.4544 Y0.6163  
G01 X-0.4496 Y0.6246  
G01 X-0.4459 Y0.6335  
G01 X-0.4434 Y0.6428  
G01 X-0.4422 Y0.6523  
G01 X-0.4422 Y0.6619  
G01 X-0.4434 Y0.6714  
G01 X-0.4459 Y0.6807  
G01 X-0.4496 Y0.6895  
G01 X-0.4544 Y0.6978  
G01 X-0.4602 Y0.7055  
G01 X-0.4670 Y0.7122  
G01 X-0.4746 Y0.7181  
G01 X-0.4829 Y0.7229  
G01 X-0.4918 Y0.7265  
G01 X-0.5010 Y0.7290  
G01 X-0.5106 Y0.7303  
G01 X-0.5202 Y0.7303  
G01 X-0.5297 Y0.7290  
G01 X-0.5389 Y0.7265  
G01 X-0.5478 Y0.7229  
G01 X-0.5561 Y0.7181  
G01 X-0.5637 Y0.7122  
G01 X-0.5705 Y0.7055  
G01 X-0.5763 Y0.6978  
G01 X-0.5811 Y0.6895  
G01 X-0.5848 Y0.6807  
G01 X-0.5860 Y0.6762  
G01 X-0.5860 Y0.6865  
G01 X-0.3208 Y1.0241  
G01 X-0.3197 Y1.0251  
G01 X-0.3184 Y1.0271  
G01 X-0.3170 Y1.0289  
G01 X-0.3163 Y1.0303  
G01 X-0.3154 Y1.0315  
G01 X-0.3145 Y1.0337  
G01 X-0.3135 Y1.0358  
G01 X-0.3131 Y1.0372  
G01 X-0.3125 Y1.0386  
G01 X-0.3120 Y1.0409  
G01 X-0.3114 Y1.0432  
G01 X-0.3113 Y1.0447  
G01 X-0.3110 Y1.0462  
G01 X-0.3110 Y1.0485  
G01 X-0.3108 Y1.0508  
G01 X-0.3110 Y1.0523  
G01 X-0.3110 Y2.6895  
G01 X-0.2816 Y2.7403  
G01 X-0.2768 Y2.7403  
G01 X-0.2682 Y2.7414  
G01 X-0.2598 Y2.7437  
G01 X-0.2518 Y2.7470  
G01 X-0.2444 Y2.7513  
G01 X-0.2375 Y2.7566  
G01 X-0.2314 Y2.7627  
G01 X-0.2261 Y2.7696  
G01 X-0.2218 Y2.7770  
G01 X-0.2185 Y2.7850  
G01 X-0.2162 Y2.7934  
G01 X-0.2151 Y2.8020  
G01 X-0.2151 Y2.8106  
G01 X-0.2162 Y2.8192  
G01 X-0.2185 Y2.8276  
G01 X-0.2218 Y2.8356  
G01 X-0.2261 Y2.8430  
G01 X-0.2314 Y2.8499  
G01 X-0.2375 Y2.8560  
G01 X-0.2444 Y2.8613  
G01 X-0.2518 Y2.8656  
G01 X-0.2598 Y2.8689  
G01 X-0.2682 Y2.8712  
G01 X-0.2768 Y2.8723  
G01 X-0.2854 Y2.8723  
G01 X-0.2940 Y2.8712  
G01 X-0.3024 Y2.8689  
G01 X-0.3104 Y2.8656  
G01 X-0.3178 Y2.8613  
G01 X-0.3247 Y2.8560  
G01 X-0.3308 Y2.8499  
G01 X-0.3361 Y2.8430  
G01 X-0.3404 Y2.8356  
G01 X-0.3437 Y2.8276  
G01 X-0.3460 Y2.8192  
G01 X-0.3471 Y2.8106  
G01 X-0.3471 Y2.8020  
G01 X-0.3460 Y2.7934  
G01 X-0.3444 Y2.7875  
G01 X-0.3831 Y2.7206  
G01 X-0.3846 Y2.7185  
G01 X-0.3850 Y2.7173  
G01 X-0.3857 Y2.7162  
G01 X-0.3865 Y2.7138  
G01 X-0.3875 Y2.7114  
G01 X-0.3877 Y2.7101  
G01 X-0.3882 Y2.7090  
G01 X-0.3885 Y2.7064  
G01 X-0.3890 Y2.7038  
G01 X-0.3890 Y2.7026  
G01 X-0.3892 Y2.7013  
G01 X-0.3890 Y2.6988  
G01 X-0.3890 Y1.0635  
G01 X-0.6542 Y0.7259  
G01 X-0.6553 Y0.7249  
G01 X-0.6566 Y0.7229  
G01 X-0.6580 Y0.7211  
G01 X-0.6587 Y0.7197  
G01 X-0.6596 Y0.7185  
G01 X-0.6605 Y0.7163  
G01 X-0.6615 Y0.7142  
G01 X-0.6619 Y0.7128  
G01 X-0.6625 Y0.7114  
G01 X-0.6630 Y0.7091  
G01 X-0.6636 Y0.7068  
G01 X-0.6637 Y0.7053  
G01 X-0.6640 Y0.7038  
G01 X-0.6640 Y0.7015  
G01 X-0.6642 Y0.6992  
G01 X-0.6640 Y0.6977  
G01 X-0.6640 Y0.3433  
G01 X-0.6640 Y0.3396  
G01 X-0.6640 Y0.3395  
G01 X-0.6633 Y0.3357  
G01 X-0.6552 Y0.2948  
G01 X-0.6564 Y0.2936  
G01 X-0.6617 Y0.2867  
G01 X-0.6660 Y0.2793  
G01 X-0.6693 Y0.2713  
G01 X-0.6716 Y0.2629  
G01 X-0.6727 Y0.2543  
G01 X-0.6727 Y0.2457  
G01 X-0.6716 Y0.2371  
G01 X-0.6693 Y0.2287  
G01 X-0.6660 Y0.2207  
G01 X-0.6617 Y0.2133  
G01 X-0.6564 Y0.2064  
G01 X-0.6503 Y0.2003  
G01 X-0.6434 Y0.1950  
G01 X-0.6359 Y0.1907  
G01 X-0.6280 Y0.1874  
G01 X-0.6196 Y0.1851  
G01 X-0.6110 Y0.1840  
G01 X-0.6024 Y0.1840  
G01 X-0.5938 Y0.1851  
G01 X-0.5854 Y0.1874  
G01 X-0.5774 Y0.1907  
G01 X-0.5699 Y0.1950  
G01 X-0.5631 Y0.2003  
G01 X-0.5570 Y0.2064  
G00 Z0.0500  
G00 X-0.2330 Y0.6492  
G01 Z-0.0035 F10    
G01 X-0.2254 Y0.6433  F20    
G01 X-0.2171 Y0.6385  
G01 X-0.2082 Y0.6349  
G01 X-0.1990 Y0.6324  
G01 X-0.1894 Y0.6311  
G01 X-0.1798 Y0.6311  
G01 X-0.1703 Y0.6324  
G01 X-0.1611 Y0.6349  
G01 X-0.1522 Y0.6385  
G01 X-0.1439 Y0.6433  
G01 X-0.1363 Y0.6492  
G01 X-0.1295 Y0.6560  
G01 X-0.1237 Y0.6636  
G01 X-0.1189 Y0.6719  
G01 X-0.1152 Y0.6808  
G01 X-0.1127 Y0.6900  
G01 X-0.1114 Y0.6995  
G01 X-0.1114 Y0.7091  
G01 X-0.1127 Y0.7186  
G01 X-0.1152 Y0.7279  
G01 X-0.1189 Y0.7368  
G01 X-0.1237 Y0.7451  
G01 X-0.1295 Y0.7527  
G01 X-0.1363 Y0.7595  
G01 X-0.1439 Y0.7653  
G01 X-0.1522 Y0.7701  
G01 X-0.1611 Y0.7738  
G01 X-0.1703 Y0.7763  
G01 X-0.1798 Y0.7775  
G01 X-0.1894 Y0.7775  
G01 X-0.1990 Y0.7763  
G01 X-0.2082 Y0.7738  
G01 X-0.2171 Y0.7701  
G01 X-0.2254 Y0.7653  
G01 X-0.2330 Y0.7595  
G01 X-0.2398 Y0.7527  
G01 X-0.2456 Y0.7451  
G01 X-0.2504 Y0.7368  
G01 X-0.2541 Y0.7279  
G01 X-0.2566 Y0.7186  
G01 X-0.2578 Y0.7091  
G01 X-0.2578 Y0.6995  
G01 X-0.2566 Y0.6900  
G01 X-0.2541 Y0.6808  
G01 X-0.2504 Y0.6719  
G01 X-0.2456 Y0.6636  
G01 X-0.2398 Y0.6560  
G01 X-0.2330 Y0.6492  
G00 Z0.0500  
G00 X-0.2330 Y2.5405  
G01 Z-0.0035 F10    
G01 X-0.2254 Y2.5347  F20    
G01 X-0.2171 Y2.5299  
G01 X-0.2082 Y2.5262  
G01 X-0.1990 Y2.5237  
G01 X-0.1894 Y2.5225  
G01 X-0.1798 Y2.5225  
G01 X-0.1703 Y2.5237  
G01 X-0.1611 Y2.5262  
G01 X-0.1522 Y2.5299  
G01 X-0.1439 Y2.5347  
G01 X-0.1363 Y2.5405  
G01 X-0.1295 Y2.5473  
G01 X-0.1237 Y2.5549  
G01 X-0.1189 Y2.5632  
G01 X-0.1152 Y2.5721  
G01 X-0.1127 Y2.5814  
G01 X-0.1114 Y2.5909  
G01 X-0.1114 Y2.6005  
G01 X-0.1127 Y2.6100  
G01 X-0.1152 Y2.6192  
G01 X-0.1189 Y2.6281  
G01 X-0.1237 Y2.6364  
G01 X-0.1295 Y2.6440  
G01 X-0.1363 Y2.6508  
G01 X-0.1439 Y2.6567  
G01 X-0.1522 Y2.6615  
G01 X-0.1611 Y2.6651  
G01 X-0.1703 Y2.6676  
G01 X-0.1798 Y2.6689  
G01 X-0.1894 Y2.6689  
G01 X-0.1990 Y2.6676  
G01 X-0.2082 Y2.6651  
G01 X-0.2171 Y2.6615  
G01 X-0.2254 Y2.6567  
G01 X-0.2330 Y2.6508  
G01 X-0.2398 Y2.6440  
G01 X-0.2456 Y2.6364  
G01 X-0.2504 Y2.6281  
G01 X-0.2541 Y2.6192  
G01 X-0.2566 Y2.6100  
G01 X-0.2578 Y2.6005  
G01 X-0.2578 Y2.5909  
G01 X-0.2566 Y2.5814  
G01 X-0.2541 Y2.5721  
G01 X-0.2504 Y2.5632  
G01 X-0.2456 Y2.5549  
G01 X-0.2398 Y2.5473  
G01 X-0.2330 Y2.5405  
G00 Z0.0500  
G00 X-0.4602 Y2.5945  
G01 Z-0.0035 F10    
G01 X-0.4544 Y2.6022  F20    
G01 X-0.4496 Y2.6105  
G01 X-0.4459 Y2.6193  
G01 X-0.4434 Y2.6286  
G01 X-0.4422 Y2.6381  
G01 X-0.4422 Y2.6477  
G01 X-0.4434 Y2.6572  
G01 X-0.4459 Y2.6665  
G01 X-0.4496 Y2.6754  
G01 X-0.4544 Y2.6837  
G01 X-0.4602 Y2.6913  
G01 X-0.4670 Y2.6981  
G01 X-0.4746 Y2.7039  
G01 X-0.4829 Y2.7087  
G01 X-0.4918 Y2.7124  
G01 X-0.5010 Y2.7149  
G01 X-0.5106 Y2.7161  
G01 X-0.5202 Y2.7161  
G01 X-0.5297 Y2.7149  
G01 X-0.5389 Y2.7124  
G01 X-0.5478 Y2.7087  
G01 X-0.5561 Y2.7039  
G01 X-0.5637 Y2.6981  
G01 X-0.5705 Y2.6913  
G01 X-0.5763 Y2.6837  
G01 X-0.5811 Y2.6754  
G01 X-0.5848 Y2.6665  
G01 X-0.5873 Y2.6572  
G01 X-0.5886 Y2.6477  
G01 X-0.5886 Y2.6381  
G01 X-0.5873 Y2.6286  
G01 X-0.5848 Y2.6193  
G01 X-0.5811 Y2.6105  
G01 X-0.5763 Y2.6022  
G01 X-0.5705 Y2.5945  
G01 X-0.5637 Y2.5878  
G01 X-0.5561 Y2.5819  
G01 X-0.5478 Y2.5771  
G01 X-0.5389 Y2.5735  
G01 X-0.5297 Y2.5710  
G01 X-0.5202 Y2.5697  
G01 X-0.5106 Y2.5697  
G01 X-0.5010 Y2.5710  
G01 X-0.4918 Y2.5735  
G01 X-0.4829 Y2.5771  
G01 X-0.4746 Y2.5819  
G01 X-0.4670 Y2.5878  
G01 X-0.4602 Y2.5945  
G00 Z0.0500  
G82 X-0.6067 Y0.2500  Z-0.0110 F20    R0.0500  P0.250000
G82 X-0.4689 Y0.2500  
G82 X-0.3311 Y0.2500  
G82 X-0.1933 Y0.2500  
G82 X-0.2811 Y0.4937  
G82 X-0.2811 Y2.8063  
G82 X-0.1846 Y0.7043  
G82 X-0.1846 Y2.5957  
G82 X-0.5154 Y0.6571  
G82 X-0.5154 Y2.6429  
G82 X-0.4189 Y0.4937  
G00 Z0.2500  
M05
M02
