(.../pcb-gcode-3.6.2.4/pcb-gcode.ulp)
(Copyright 2005 - 2012 by John Johnson)
(See readme.txt for licensing terms.)
(This file generated from the board:)
(.../atmega_midi_pg800/eagle/vca_chorus_pots.brd)
(Current profile is .../pcb-gcode-3.6.2.4/profiles/mach.pp  )
(This file generated 3/4/17 7:57 PM)
(Settings from pcb-machine.h)
(spindle on time = 0.0000)
(  Tool Size)
(0.0030  )
(spindle speed = 30000.0000)
(tool change at 0.0000  0.0000  1.5000  )
(feed rate xy = F20    )
(feed rate z  = F10    )
(Z Axis Settings)
(  High     Up        Down     Drill)
(0.2500  	0.0500  	-0.0030 	-0.0710 )
(Settings from pcb-defaults.h)
(isolate min = 0.0030)
(isolate max = 0.0200)
(isolate step = 0.0025)
(Generated bottom outlines, bottom drill, )
(Unit of measure: inch)
(Inch Mode)
G20
(Absolute Coordinates)
G90
S30000
G00 Z0.2500  
G00 X0.0000  Y0.0000  
M03
G04 P0.000000
G00 Z0.0500  
G00 X-0.2836 Y0.5374  
G01 Z-0.0030 F10    
G01 X-0.2809 Y0.5421  F20    
G01 X-0.2795 Y0.5473  
G01 X-0.2795 Y0.9243  
G01 X-0.2640 Y0.9398  
G01 X-0.2640 Y0.9696  
G01 X-0.2851 Y0.9907  
G01 X-0.3149 Y0.9907  
G01 X-0.3360 Y0.9696  
G01 X-0.3360 Y0.9398  
G01 X-0.3205 Y0.9243  
G01 X-0.3205 Y0.5585  
G01 X-0.6085 Y0.2705  
G01 X-0.7658 Y0.2705  
G01 X-0.7658 Y0.2831  
G01 X-0.7671 Y0.2897  
G01 X-0.7697 Y0.2959  
G01 X-0.7734 Y0.3015  
G01 X-0.7782 Y0.3062  
G01 X-0.7838 Y0.3100  
G01 X-0.7900 Y0.3126  
G01 X-0.7966 Y0.3139  
G01 X-0.8034 Y0.3139  
G01 X-0.8100 Y0.3126  
G01 X-0.8162 Y0.3100  
G01 X-0.8218 Y0.3062  
G01 X-0.8266 Y0.3015  
G01 X-0.8303 Y0.2959  
G01 X-0.8329 Y0.2897  
G01 X-0.8342 Y0.2831  
G01 X-0.8342 Y0.2169  
G01 X-0.8329 Y0.2103  
G01 X-0.8303 Y0.2041  
G01 X-0.8266 Y0.1985  
G01 X-0.8218 Y0.1938  
G01 X-0.8162 Y0.1900  
G01 X-0.8100 Y0.1874  
G01 X-0.8034 Y0.1861  
G01 X-0.7966 Y0.1861  
G01 X-0.7900 Y0.1874  
G01 X-0.7838 Y0.1900  
G01 X-0.7782 Y0.1938  
G01 X-0.7734 Y0.1985  
G01 X-0.7697 Y0.2041  
G01 X-0.7671 Y0.2103  
G01 X-0.7658 Y0.2169  
G01 X-0.7658 Y0.2295  
G01 X-0.5973 Y0.2295  
G01 X-0.5921 Y0.2309  
G01 X-0.5874 Y0.2336  
G01 X-0.2874 Y0.5336  
G01 X-0.2836 Y0.5374  
G00 Z0.0500  
G00 X-0.3336 Y0.6874  
G01 Z-0.0030 F10    
G01 X-0.3309 Y0.6921  F20    
G01 X-0.3295 Y0.6973  
G01 X-0.3295 Y0.9027  
G01 X-0.3309 Y0.9079  
G01 X-0.3336 Y0.9126  
G01 X-0.3374 Y0.9164  
G01 X-0.3385 Y0.9170  
G01 X-0.3385 Y0.9830  
G01 X-0.3374 Y0.9836  
G01 X-0.3336 Y0.9874  
G01 X-0.3309 Y0.9921  
G01 X-0.3295 Y0.9973  
G01 X-0.3295 Y1.0415  
G01 X-0.2836 Y1.0874  
G01 X-0.2809 Y1.0921  
G01 X-0.2795 Y1.0973  
G01 X-0.2795 Y1.6743  
G01 X-0.2640 Y1.6898  
G01 X-0.2640 Y1.7196  
G01 X-0.2851 Y1.7407  
G01 X-0.3149 Y1.7407  
G01 X-0.3360 Y1.7196  
G01 X-0.3360 Y1.6898  
G01 X-0.3205 Y1.6743  
G01 X-0.3205 Y1.1085  
G01 X-0.3626 Y1.0664  
G01 X-0.3664 Y1.0626  
G01 X-0.3691 Y1.0579  
G01 X-0.3705 Y1.0527  
G01 X-0.3705 Y0.9973  
G01 X-0.3691 Y0.9921  
G01 X-0.3664 Y0.9874  
G01 X-0.3626 Y0.9836  
G01 X-0.3615 Y0.9830  
G01 X-0.3615 Y0.9170  
G01 X-0.3626 Y0.9164  
G01 X-0.3664 Y0.9126  
G01 X-0.3691 Y0.9079  
G01 X-0.3705 Y0.9027  
G01 X-0.3705 Y0.7085  
G01 X-0.7085 Y0.3705  
G01 X-0.8527 Y0.3705  
G01 X-0.8579 Y0.3691  
G01 X-0.8626 Y0.3664  
G01 X-0.9126 Y0.3164  
G01 X-0.9164 Y0.3126  
G01 X-0.9190 Y0.3081  
G01 X-0.9218 Y0.3062  
G01 X-0.9266 Y0.3015  
G01 X-0.9303 Y0.2959  
G01 X-0.9329 Y0.2897  
G01 X-0.9342 Y0.2831  
G01 X-0.9342 Y0.2169  
G01 X-0.9329 Y0.2103  
G01 X-0.9303 Y0.2041  
G01 X-0.9266 Y0.1985  
G01 X-0.9218 Y0.1938  
G01 X-0.9162 Y0.1900  
G01 X-0.9100 Y0.1874  
G01 X-0.9034 Y0.1861  
G01 X-0.8966 Y0.1861  
G01 X-0.8900 Y0.1874  
G01 X-0.8838 Y0.1900  
G01 X-0.8782 Y0.1938  
G01 X-0.8734 Y0.1985  
G01 X-0.8697 Y0.2041  
G01 X-0.8671 Y0.2103  
G01 X-0.8658 Y0.2169  
G01 X-0.8658 Y0.2831  
G01 X-0.8671 Y0.2897  
G01 X-0.8697 Y0.2959  
G01 X-0.8719 Y0.2991  
G01 X-0.8415 Y0.3295  
G01 X-0.6973 Y0.3295  
G01 X-0.6921 Y0.3309  
G01 X-0.6874 Y0.3336  
G01 X-0.6836 Y0.3374  
G01 X-0.3374 Y0.6836  
G01 X-0.3336 Y0.6874  
G00 Z0.0500  
G00 X-0.3624 Y0.9398  
G01 Z-0.0030 F10    
G01 X-0.3624 Y0.9696  F20    
G01 X-0.3835 Y0.9907  
G01 X-0.4133 Y0.9907  
G01 X-0.4248 Y0.9792  
G01 X-0.5446 Y0.9792  
G01 X-0.6255 Y1.0601  
G01 X-0.6255 Y1.6802  
G01 X-0.4248 Y1.6802  
G01 X-0.4133 Y1.6687  
G01 X-0.3835 Y1.6687  
G01 X-0.3624 Y1.6898  
G01 X-0.3624 Y1.7196  
G01 X-0.3835 Y1.7407  
G01 X-0.4133 Y1.7407  
G01 X-0.4248 Y1.7292  
G01 X-0.6255 Y1.7292  
G01 X-0.6255 Y2.2399  
G01 X-0.4899 Y2.3755  
G01 X-0.4342 Y2.3755  
G01 X-0.4342 Y2.3669  
G01 X-0.4329 Y2.3603  
G01 X-0.4303 Y2.3541  
G01 X-0.4266 Y2.3485  
G01 X-0.4218 Y2.3438  
G01 X-0.4162 Y2.3400  
G01 X-0.4100 Y2.3374  
G01 X-0.4034 Y2.3361  
G01 X-0.3966 Y2.3361  
G01 X-0.3900 Y2.3374  
G01 X-0.3838 Y2.3400  
G01 X-0.3782 Y2.3438  
G01 X-0.3734 Y2.3485  
G01 X-0.3697 Y2.3541  
G01 X-0.3671 Y2.3603  
G01 X-0.3658 Y2.3669  
G01 X-0.3658 Y2.4331  
G01 X-0.3671 Y2.4397  
G01 X-0.3697 Y2.4459  
G01 X-0.3734 Y2.4515  
G01 X-0.3755 Y2.4535  
G01 X-0.3755 Y2.5965  
G01 X-0.3734 Y2.5985  
G01 X-0.3697 Y2.6041  
G01 X-0.3671 Y2.6103  
G01 X-0.3658 Y2.6169  
G01 X-0.3658 Y2.6831  
G01 X-0.3671 Y2.6897  
G01 X-0.3697 Y2.6959  
G01 X-0.3734 Y2.7015  
G01 X-0.3782 Y2.7062  
G01 X-0.3838 Y2.7100  
G01 X-0.3900 Y2.7126  
G01 X-0.3966 Y2.7139  
G01 X-0.4034 Y2.7139  
G01 X-0.4100 Y2.7126  
G01 X-0.4162 Y2.7100  
G01 X-0.4218 Y2.7062  
G01 X-0.4266 Y2.7015  
G01 X-0.4303 Y2.6959  
G01 X-0.4329 Y2.6897  
G01 X-0.4342 Y2.6831  
G01 X-0.4342 Y2.6745  
G01 X-0.4399 Y2.6745  
G01 X-0.5907 Y2.8253  
G01 X-0.5947 Y2.8280  
G01 X-0.5992 Y2.8299  
G01 X-0.6039 Y2.8308  
G01 X-0.7403 Y2.8308  
G01 X-0.7405 Y2.8312  
G01 X-0.7449 Y2.8372  
G01 X-0.7502 Y2.8425  
G01 X-0.7562 Y2.8469  
G01 X-0.7629 Y2.8503  
G01 X-0.7700 Y2.8526  
G01 X-0.7774 Y2.8538  
G01 X-0.7848 Y2.8538  
G01 X-0.7922 Y2.8526  
G01 X-0.7993 Y2.8503  
G01 X-0.8060 Y2.8469  
G01 X-0.8120 Y2.8425  
G01 X-0.8173 Y2.8372  
G01 X-0.8217 Y2.8312  
G01 X-0.8219 Y2.8308  
G01 X-1.0461 Y2.8308  
G01 X-1.0508 Y2.8299  
G01 X-1.0553 Y2.8280  
G01 X-1.0593 Y2.8253  
G01 X-1.2064 Y2.6782  
G01 X-1.2246 Y2.6782  
G01 X-1.2263 Y2.6776  
G01 X-1.2276 Y2.6763  
G01 X-1.2282 Y2.6746  
G01 X-1.2282 Y2.6254  
G01 X-1.2276 Y2.6237  
G01 X-1.2263 Y2.6224  
G01 X-1.2246 Y2.6218  
G01 X-1.1754 Y2.6218  
G01 X-1.1737 Y2.6224  
G01 X-1.1724 Y2.6237  
G01 X-1.1718 Y2.6254  
G01 X-1.1718 Y2.6436  
G01 X-1.0336 Y2.7818  
G01 X-0.8219 Y2.7818  
G01 X-0.8217 Y2.7814  
G01 X-0.8173 Y2.7754  
G01 X-0.8120 Y2.7701  
G01 X-0.8060 Y2.7657  
G01 X-0.7993 Y2.7623  
G01 X-0.7922 Y2.7600  
G01 X-0.7848 Y2.7588  
G01 X-0.7774 Y2.7588  
G01 X-0.7700 Y2.7600  
G01 X-0.7629 Y2.7623  
G01 X-0.7562 Y2.7657  
G01 X-0.7502 Y2.7701  
G01 X-0.7449 Y2.7754  
G01 X-0.7405 Y2.7814  
G01 X-0.7403 Y2.7818  
G01 X-0.6164 Y2.7818  
G01 X-0.4690 Y2.6344  
G01 X-0.4656 Y2.6310  
G01 X-0.4616 Y2.6283  
G01 X-0.4571 Y2.6264  
G01 X-0.4524 Y2.6255  
G01 X-0.4342 Y2.6255  
G01 X-0.4342 Y2.6169  
G01 X-0.4329 Y2.6103  
G01 X-0.4303 Y2.6041  
G01 X-0.4266 Y2.5985  
G01 X-0.4245 Y2.5965  
G01 X-0.4245 Y2.4535  
G01 X-0.4266 Y2.4515  
G01 X-0.4303 Y2.4459  
G01 X-0.4329 Y2.4397  
G01 X-0.4342 Y2.4331  
G01 X-0.4342 Y2.4245  
G01 X-0.5024 Y2.4245  
G01 X-0.5071 Y2.4236  
G01 X-0.5116 Y2.4217  
G01 X-0.5156 Y2.4190  
G01 X-0.5190 Y2.4156  
G01 X-0.6690 Y2.2656  
G01 X-0.6717 Y2.2616  
G01 X-0.6736 Y2.2571  
G01 X-0.6745 Y2.2524  
G01 X-0.6745 Y1.0476  
G01 X-0.6736 Y1.0429  
G01 X-0.6717 Y1.0384  
G01 X-0.6690 Y1.0344  
G01 X-0.6656 Y1.0310  
G01 X-0.5703 Y0.9357  
G01 X-0.5663 Y0.9330  
G01 X-0.5619 Y0.9312  
G01 X-0.5571 Y0.9302  
G01 X-0.4248 Y0.9302  
G01 X-0.4133 Y0.9187  
G01 X-0.3835 Y0.9187  
G01 X-0.3624 Y0.9398  
G00 Z0.0500  
G00 X-0.2376 Y0.9398  
G01 Z-0.0030 F10    
G01 X-0.2165 Y0.9187  F20    
G01 X-0.1867 Y0.9187  
G01 X-0.1656 Y0.9398  
G01 X-0.1656 Y0.9696  
G01 X-0.1771 Y0.9811  
G01 X-0.1771 Y1.6783  
G01 X-0.1656 Y1.6898  
G01 X-0.1656 Y1.7196  
G01 X-0.1771 Y1.7311  
G01 X-0.1771 Y1.8540  
G01 X-0.1780 Y1.8587  
G01 X-0.1799 Y1.8632  
G01 X-0.1825 Y1.8672  
G01 X-0.2755 Y1.9601  
G01 X-0.2755 Y2.3465  
G01 X-0.2734 Y2.3485  
G01 X-0.2697 Y2.3541  
G01 X-0.2671 Y2.3603  
G01 X-0.2658 Y2.3669  
G01 X-0.2658 Y2.4331  
G01 X-0.2671 Y2.4397  
G01 X-0.2697 Y2.4459  
G01 X-0.2734 Y2.4515  
G01 X-0.2755 Y2.4535  
G01 X-0.2755 Y2.5965  
G01 X-0.2734 Y2.5985  
G01 X-0.2697 Y2.6041  
G01 X-0.2671 Y2.6103  
G01 X-0.2658 Y2.6169  
G01 X-0.2658 Y2.6831  
G01 X-0.2671 Y2.6897  
G01 X-0.2697 Y2.6959  
G01 X-0.2734 Y2.7015  
G01 X-0.2755 Y2.7035  
G01 X-0.2755 Y2.7524  
G01 X-0.2764 Y2.7571  
G01 X-0.2783 Y2.7616  
G01 X-0.2810 Y2.7656  
G01 X-0.2844 Y2.7690  
G01 X-0.4344 Y2.9190  
G01 X-0.4384 Y2.9217  
G01 X-0.4429 Y2.9236  
G01 X-0.4476 Y2.9245  
G01 X-1.1024 Y2.9245  
G01 X-1.1071 Y2.9236  
G01 X-1.1116 Y2.9217  
G01 X-1.1156 Y2.9190  
G01 X-1.3206 Y2.7140  
G01 X-1.3233 Y2.7100  
G01 X-1.3251 Y2.7056  
G01 X-1.3261 Y2.7008  
G01 X-1.3261 Y2.0811  
G01 X-1.3376 Y2.0696  
G01 X-1.3376 Y2.0398  
G01 X-1.3165 Y2.0187  
G01 X-1.2867 Y2.0187  
G01 X-1.2752 Y2.0302  
G01 X-1.1149 Y2.0302  
G01 X-1.0245 Y1.9399  
G01 X-1.0245 Y1.3792  
G01 X-1.2752 Y1.3792  
G01 X-1.2867 Y1.3907  
G01 X-1.3165 Y1.3907  
G01 X-1.3376 Y1.3696  
G01 X-1.3376 Y1.3398  
G01 X-1.3165 Y1.3187  
G01 X-1.2867 Y1.3187  
G01 X-1.2752 Y1.3302  
G01 X-1.0245 Y1.3302  
G01 X-1.0245 Y0.9101  
G01 X-1.0406 Y0.8940  
G01 X-1.0440 Y0.8906  
G01 X-1.2601 Y0.6745  
G01 X-1.2704 Y0.6745  
G01 X-1.2867 Y0.6907  
G01 X-1.3165 Y0.6907  
G01 X-1.3376 Y0.6696  
G01 X-1.3376 Y0.6398  
G01 X-1.3165 Y0.6187  
G01 X-1.2867 Y0.6187  
G01 X-1.2799 Y0.6255  
G01 X-1.2476 Y0.6255  
G01 X-1.2429 Y0.6264  
G01 X-1.2384 Y0.6283  
G01 X-1.2344 Y0.6310  
G01 X-1.2310 Y0.6344  
G01 X-1.0250 Y0.8404  
G01 X-0.8056 Y0.6210  
G01 X-0.8056 Y0.5345  
G01 X-0.8060 Y0.5343  
G01 X-0.8120 Y0.5299  
G01 X-0.8173 Y0.5246  
G01 X-0.8217 Y0.5186  
G01 X-0.8251 Y0.5119  
G01 X-0.8274 Y0.5048  
G01 X-0.8286 Y0.4974  
G01 X-0.8286 Y0.4900  
G01 X-0.8274 Y0.4826  
G01 X-0.8251 Y0.4755  
G01 X-0.8217 Y0.4688  
G01 X-0.8173 Y0.4628  
G01 X-0.8120 Y0.4575  
G01 X-0.8060 Y0.4531  
G01 X-0.7993 Y0.4497  
G01 X-0.7922 Y0.4474  
G01 X-0.7848 Y0.4462  
G01 X-0.7774 Y0.4462  
G01 X-0.7700 Y0.4474  
G01 X-0.7629 Y0.4497  
G01 X-0.7562 Y0.4531  
G01 X-0.7502 Y0.4575  
G01 X-0.7449 Y0.4628  
G01 X-0.7405 Y0.4688  
G01 X-0.7371 Y0.4755  
G01 X-0.7348 Y0.4826  
G01 X-0.7336 Y0.4900  
G01 X-0.7336 Y0.4974  
G01 X-0.7348 Y0.5048  
G01 X-0.7371 Y0.5119  
G01 X-0.7405 Y0.5186  
G01 X-0.7449 Y0.5246  
G01 X-0.7502 Y0.5299  
G01 X-0.7562 Y0.5343  
G01 X-0.7566 Y0.5345  
G01 X-0.7566 Y0.6335  
G01 X-0.7575 Y0.6382  
G01 X-0.7594 Y0.6427  
G01 X-0.7621 Y0.6467  
G01 X-0.9904 Y0.8750  
G01 X-0.9810 Y0.8844  
G01 X-0.9783 Y0.8884  
G01 X-0.9764 Y0.8929  
G01 X-0.9755 Y0.8976  
G01 X-0.9755 Y1.9524  
G01 X-0.9764 Y1.9571  
G01 X-0.9783 Y1.9616  
G01 X-0.9810 Y1.9656  
G01 X-0.9844 Y1.9690  
G01 X-1.0891 Y2.0738  
G01 X-1.0931 Y2.0764  
G01 X-1.0976 Y2.0783  
G01 X-1.1023 Y2.0792  
G01 X-1.2752 Y2.0792  
G01 X-1.2771 Y2.0811  
G01 X-1.2771 Y2.6883  
G01 X-1.0899 Y2.8755  
G01 X-0.4601 Y2.8755  
G01 X-0.3245 Y2.7399  
G01 X-0.3245 Y2.7035  
G01 X-0.3266 Y2.7015  
G01 X-0.3303 Y2.6959  
G01 X-0.3329 Y2.6897  
G01 X-0.3342 Y2.6831  
G01 X-0.3342 Y2.6169  
G01 X-0.3329 Y2.6103  
G01 X-0.3303 Y2.6041  
G01 X-0.3266 Y2.5985  
G01 X-0.3245 Y2.5965  
G01 X-0.3245 Y2.4535  
G01 X-0.3266 Y2.4515  
G01 X-0.3303 Y2.4459  
G01 X-0.3329 Y2.4397  
G01 X-0.3342 Y2.4331  
G01 X-0.3342 Y2.3669  
G01 X-0.3329 Y2.3603  
G01 X-0.3303 Y2.3541  
G01 X-0.3266 Y2.3485  
G01 X-0.3245 Y2.3465  
G01 X-0.3245 Y1.9476  
G01 X-0.3236 Y1.9429  
G01 X-0.3217 Y1.9384  
G01 X-0.3190 Y1.9344  
G01 X-0.3156 Y1.9310  
G01 X-0.2261 Y1.8414  
G01 X-0.2261 Y1.7311  
G01 X-0.2376 Y1.7196  
G01 X-0.2376 Y1.6898  
G01 X-0.2261 Y1.6783  
G01 X-0.2261 Y0.9811  
G01 X-0.2376 Y0.9696  
G01 X-0.2376 Y0.9398  
G00 Z0.0500  
G00 X-0.1569 Y1.2237  
G01 Z-0.0030 F10    
G01 X-0.1196 Y1.1864  F20    
G01 X-0.0670 Y1.1864  
G01 X-0.0298 Y1.2237  
G01 X-0.0298 Y1.2763  
G01 X-0.0670 Y1.3136  
G01 X-0.1196 Y1.3136  
G01 X-0.1569 Y1.2763  
G01 X-0.1569 Y1.2237  
G00 Z0.0500  
G00 X-0.4431 Y1.2237  
G01 Z-0.0030 F10    
G01 X-0.4431 Y1.2763  F20    
G01 X-0.4804 Y1.3136  
G01 X-0.5330 Y1.3136  
G01 X-0.5702 Y1.2763  
G01 X-0.5702 Y1.2237  
G01 X-0.5330 Y1.1864  
G01 X-0.4804 Y1.1864  
G01 X-0.4431 Y1.2237  
G00 Z0.0500  
G00 X-0.6490 Y0.7461  
G01 Z-0.0030 F10    
G01 X-0.6560 Y0.7511  F20    
G01 X-0.6636 Y0.7550  
G01 X-0.6718 Y0.7577  
G01 X-0.6803 Y0.7590  
G01 X-0.6890 Y0.7590  
G01 X-0.6975 Y0.7577  
G01 X-0.7056 Y0.7550  
G01 X-0.7133 Y0.7511  
G01 X-0.7203 Y0.7461  
G01 X-0.7264 Y0.7400  
G01 X-0.7314 Y0.7330  
G01 X-0.7353 Y0.7253  
G01 X-0.7380 Y0.7171  
G01 X-0.7393 Y0.7086  
G01 X-0.7393 Y0.7000  
G01 X-0.7380 Y0.6915  
G01 X-0.7353 Y0.6833  
G01 X-0.7314 Y0.6757  
G01 X-0.7264 Y0.6687  
G01 X-0.7203 Y0.6626  
G01 X-0.7133 Y0.6575  
G01 X-0.7056 Y0.6536  
G01 X-0.6975 Y0.6510  
G01 X-0.6890 Y0.6496  
G01 X-0.6803 Y0.6496  
G01 X-0.6718 Y0.6510  
G01 X-0.6636 Y0.6536  
G01 X-0.6560 Y0.6575  
G01 X-0.6490 Y0.6626  
G01 X-0.6429 Y0.6687  
G01 X-0.6379 Y0.6757  
G01 X-0.6340 Y0.6833  
G01 X-0.6313 Y0.6915  
G01 X-0.6299 Y0.7000  
G01 X-0.6299 Y0.7086  
G01 X-0.6313 Y0.7171  
G01 X-0.6340 Y0.7253  
G01 X-0.6379 Y0.7330  
G01 X-0.6429 Y0.7400  
G01 X-0.6490 Y0.7461  
G00 Z0.0500  
G00 X-0.9797 Y0.6988  
G01 Z-0.0030 F10    
G01 X-0.9867 Y0.7039  F20    
G01 X-0.9944 Y0.7078  
G01 X-1.0025 Y0.7104  
G01 X-1.0110 Y0.7118  
G01 X-1.0197 Y0.7118  
G01 X-1.0282 Y0.7104  
G01 X-1.0364 Y0.7078  
G01 X-1.0440 Y0.7039  
G01 X-1.0510 Y0.6988  
G01 X-1.0571 Y0.6927  
G01 X-1.0621 Y0.6858  
G01 X-1.0660 Y0.6781  
G01 X-1.0687 Y0.6699  
G01 X-1.0701 Y0.6614  
G01 X-1.0701 Y0.6528  
G01 X-1.0687 Y0.6443  
G01 X-1.0660 Y0.6361  
G01 X-1.0621 Y0.6284  
G01 X-1.0571 Y0.6215  
G01 X-1.0510 Y0.6154  
G01 X-1.0440 Y0.6103  
G01 X-1.0364 Y0.6064  
G01 X-1.0282 Y0.6037  
G01 X-1.0197 Y0.6024  
G01 X-1.0110 Y0.6024  
G01 X-1.0025 Y0.6037  
G01 X-0.9944 Y0.6064  
G01 X-0.9867 Y0.6103  
G01 X-0.9797 Y0.6154  
G01 X-0.9736 Y0.6215  
G01 X-0.9686 Y0.6284  
G01 X-0.9647 Y0.6361  
G01 X-0.9620 Y0.6443  
G01 X-0.9607 Y0.6528  
G01 X-0.9607 Y0.6614  
G01 X-0.9620 Y0.6699  
G01 X-0.9647 Y0.6781  
G01 X-0.9686 Y0.6858  
G01 X-0.9736 Y0.6927  
G01 X-0.9797 Y0.6988  
G00 Z0.0500  
G00 X-0.9551 Y0.5246  
G01 Z-0.0030 F10    
G01 X-0.9595 Y0.5186  F20    
G01 X-0.9629 Y0.5119  
G01 X-0.9652 Y0.5048  
G01 X-0.9664 Y0.4974  
G01 X-0.9664 Y0.4900  
G01 X-0.9652 Y0.4826  
G01 X-0.9629 Y0.4755  
G01 X-0.9595 Y0.4688  
G01 X-0.9551 Y0.4628  
G01 X-0.9498 Y0.4575  
G01 X-0.9438 Y0.4531  
G01 X-0.9394 Y0.4508  
G01 X-0.9394 Y0.4396  
G01 X-1.0126 Y0.3664  
G01 X-1.0164 Y0.3626  
G01 X-1.0191 Y0.3579  
G01 X-1.0205 Y0.3527  
G01 X-1.0205 Y0.3071  
G01 X-1.0218 Y0.3062  
G01 X-1.0266 Y0.3015  
G01 X-1.0303 Y0.2959  
G01 X-1.0329 Y0.2897  
G01 X-1.0342 Y0.2831  
G01 X-1.0342 Y0.2169  
G01 X-1.0329 Y0.2103  
G01 X-1.0303 Y0.2041  
G01 X-1.0266 Y0.1985  
G01 X-1.0218 Y0.1938  
G01 X-1.0162 Y0.1900  
G01 X-1.0100 Y0.1874  
G01 X-1.0034 Y0.1861  
G01 X-0.9966 Y0.1861  
G01 X-0.9900 Y0.1874  
G01 X-0.9838 Y0.1900  
G01 X-0.9782 Y0.1938  
G01 X-0.9734 Y0.1985  
G01 X-0.9697 Y0.2041  
G01 X-0.9671 Y0.2103  
G01 X-0.9658 Y0.2169  
G01 X-0.9658 Y0.2831  
G01 X-0.9671 Y0.2897  
G01 X-0.9697 Y0.2959  
G01 X-0.9734 Y0.3015  
G01 X-0.9782 Y0.3062  
G01 X-0.9795 Y0.3071  
G01 X-0.9795 Y0.3415  
G01 X-0.9025 Y0.4185  
G01 X-0.8998 Y0.4232  
G01 X-0.8984 Y0.4284  
G01 X-0.8984 Y0.4508  
G01 X-0.8940 Y0.4531  
G01 X-0.8880 Y0.4575  
G01 X-0.8827 Y0.4628  
G01 X-0.8783 Y0.4688  
G01 X-0.8749 Y0.4755  
G01 X-0.8726 Y0.4826  
G01 X-0.8714 Y0.4900  
G01 X-0.8714 Y0.4974  
G01 X-0.8726 Y0.5048  
G01 X-0.8749 Y0.5119  
G01 X-0.8783 Y0.5186  
G01 X-0.8827 Y0.5246  
G01 X-0.8880 Y0.5299  
G01 X-0.8940 Y0.5343  
G01 X-0.9007 Y0.5377  
G01 X-0.9078 Y0.5400  
G01 X-0.9152 Y0.5412  
G01 X-0.9226 Y0.5412  
G01 X-0.9300 Y0.5400  
G01 X-0.9371 Y0.5377  
G01 X-0.9438 Y0.5343  
G01 X-0.9498 Y0.5299  
G01 X-0.9551 Y0.5246  
G00 Z0.0500  
G00 X-1.0836 Y0.3626  
G01 Z-0.0030 F10    
G01 X-1.3374 Y0.6164  F20    
G01 X-1.3385 Y0.6170  
G01 X-1.3385 Y0.6830  
G01 X-1.3374 Y0.6836  
G01 X-1.3336 Y0.6874  
G01 X-1.3309 Y0.6921  
G01 X-1.3295 Y0.6973  
G01 X-1.3295 Y1.3027  
G01 X-1.3309 Y1.3079  
G01 X-1.3336 Y1.3126  
G01 X-1.3374 Y1.3164  
G01 X-1.3385 Y1.3170  
G01 X-1.3385 Y1.3830  
G01 X-1.3374 Y1.3836  
G01 X-1.3336 Y1.3874  
G01 X-1.3309 Y1.3921  
G01 X-1.3295 Y1.3973  
G01 X-1.3295 Y1.9027  
G01 X-1.3309 Y1.9079  
G01 X-1.3336 Y1.9126  
G01 X-1.3374 Y1.9164  
G01 X-1.3795 Y1.9585  
G01 X-1.3795 Y2.0243  
G01 X-1.3640 Y2.0398  
G01 X-1.3640 Y2.0696  
G01 X-1.3851 Y2.0907  
G01 X-1.4149 Y2.0907  
G01 X-1.4360 Y2.0696  
G01 X-1.4360 Y2.0398  
G01 X-1.4205 Y2.0243  
G01 X-1.4205 Y1.9473  
G01 X-1.4191 Y1.9421  
G01 X-1.4164 Y1.9374  
G01 X-1.4126 Y1.9336  
G01 X-1.3705 Y1.8915  
G01 X-1.3705 Y1.3973  
G01 X-1.3691 Y1.3921  
G01 X-1.3664 Y1.3874  
G01 X-1.3626 Y1.3836  
G01 X-1.3615 Y1.3830  
G01 X-1.3615 Y1.3170  
G01 X-1.3626 Y1.3164  
G01 X-1.3664 Y1.3126  
G01 X-1.3691 Y1.3079  
G01 X-1.3705 Y1.3027  
G01 X-1.3705 Y0.6973  
G01 X-1.3691 Y0.6921  
G01 X-1.3664 Y0.6874  
G01 X-1.3626 Y0.6836  
G01 X-1.3615 Y0.6830  
G01 X-1.3615 Y0.6170  
G01 X-1.3626 Y0.6164  
G01 X-1.3664 Y0.6126  
G01 X-1.3691 Y0.6079  
G01 X-1.3705 Y0.6027  
G01 X-1.3705 Y0.5973  
G01 X-1.3691 Y0.5921  
G01 X-1.3664 Y0.5874  
G01 X-1.1205 Y0.3415  
G01 X-1.1205 Y0.3071  
G01 X-1.1218 Y0.3062  
G01 X-1.1266 Y0.3015  
G01 X-1.1303 Y0.2959  
G01 X-1.1329 Y0.2897  
G01 X-1.1342 Y0.2831  
G01 X-1.1342 Y0.2169  
G01 X-1.1329 Y0.2103  
G01 X-1.1303 Y0.2041  
G01 X-1.1266 Y0.1985  
G01 X-1.1218 Y0.1938  
G01 X-1.1162 Y0.1900  
G01 X-1.1100 Y0.1874  
G01 X-1.1034 Y0.1861  
G01 X-1.0966 Y0.1861  
G01 X-1.0900 Y0.1874  
G01 X-1.0838 Y0.1900  
G01 X-1.0782 Y0.1938  
G01 X-1.0734 Y0.1985  
G01 X-1.0697 Y0.2041  
G01 X-1.0671 Y0.2103  
G01 X-1.0658 Y0.2169  
G01 X-1.0658 Y0.2831  
G01 X-1.0671 Y0.2897  
G01 X-1.0697 Y0.2959  
G01 X-1.0734 Y0.3015  
G01 X-1.0782 Y0.3062  
G01 X-1.0795 Y0.3071  
G01 X-1.0795 Y0.3527  
G01 X-1.0809 Y0.3579  
G01 X-1.0836 Y0.3626  
G00 Z0.0500  
G00 X-1.1836 Y0.3126  
G01 Z-0.0030 F10    
G01 X-1.3795 Y0.5085  F20    
G01 X-1.3795 Y0.6243  
G01 X-1.3640 Y0.6398  
G01 X-1.3640 Y0.6696  
G01 X-1.3851 Y0.6907  
G01 X-1.4149 Y0.6907  
G01 X-1.4360 Y0.6696  
G01 X-1.4360 Y0.6398  
G01 X-1.4205 Y0.6243  
G01 X-1.4205 Y0.4973  
G01 X-1.4191 Y0.4921  
G01 X-1.4164 Y0.4874  
G01 X-1.2281 Y0.2991  
G01 X-1.2303 Y0.2959  
G01 X-1.2329 Y0.2897  
G01 X-1.2342 Y0.2831  
G01 X-1.2342 Y0.2169  
G01 X-1.2329 Y0.2103  
G01 X-1.2303 Y0.2041  
G01 X-1.2266 Y0.1985  
G01 X-1.2218 Y0.1938  
G01 X-1.2162 Y0.1900  
G01 X-1.2100 Y0.1874  
G01 X-1.2034 Y0.1861  
G01 X-1.1966 Y0.1861  
G01 X-1.1900 Y0.1874  
G01 X-1.1838 Y0.1900  
G01 X-1.1782 Y0.1938  
G01 X-1.1734 Y0.1985  
G01 X-1.1697 Y0.2041  
G01 X-1.1671 Y0.2103  
G01 X-1.1658 Y0.2169  
G01 X-1.1658 Y0.2831  
G01 X-1.1671 Y0.2897  
G01 X-1.1697 Y0.2959  
G01 X-1.1734 Y0.3015  
G01 X-1.1782 Y0.3062  
G01 X-1.1810 Y0.3081  
G01 X-1.1836 Y0.3126  
G00 Z0.0500  
G00 X-1.2782 Y0.3062  
G01 Z-0.0030 F10    
G01 X-1.2838 Y0.3100  F20    
G01 X-1.2900 Y0.3126  
G01 X-1.2966 Y0.3139  
G01 X-1.3034 Y0.3139  
G01 X-1.3100 Y0.3126  
G01 X-1.3162 Y0.3100  
G01 X-1.3218 Y0.3062  
G01 X-1.3266 Y0.3015  
G01 X-1.3303 Y0.2959  
G01 X-1.3329 Y0.2897  
G01 X-1.3342 Y0.2831  
G01 X-1.3342 Y0.2705  
G01 X-1.3415 Y0.2705  
G01 X-1.4295 Y0.3585  
G01 X-1.4295 Y0.6027  
G01 X-1.4309 Y0.6079  
G01 X-1.4336 Y0.6126  
G01 X-1.4374 Y0.6164  
G01 X-1.4385 Y0.6170  
G01 X-1.4385 Y0.6830  
G01 X-1.4374 Y0.6836  
G01 X-1.4336 Y0.6874  
G01 X-1.4309 Y0.6921  
G01 X-1.4295 Y0.6973  
G01 X-1.4295 Y1.2415  
G01 X-1.3874 Y1.2836  
G01 X-1.3836 Y1.2874  
G01 X-1.3809 Y1.2921  
G01 X-1.3795 Y1.2973  
G01 X-1.3795 Y1.3243  
G01 X-1.3640 Y1.3398  
G01 X-1.3640 Y1.3696  
G01 X-1.3851 Y1.3907  
G01 X-1.4149 Y1.3907  
G01 X-1.4360 Y1.3696  
G01 X-1.4360 Y1.3398  
G01 X-1.4205 Y1.3243  
G01 X-1.4205 Y1.3085  
G01 X-1.4626 Y1.2664  
G01 X-1.4664 Y1.2626  
G01 X-1.4691 Y1.2579  
G01 X-1.4705 Y1.2527  
G01 X-1.4705 Y0.6973  
G01 X-1.4691 Y0.6921  
G01 X-1.4664 Y0.6874  
G01 X-1.4626 Y0.6836  
G01 X-1.4615 Y0.6830  
G01 X-1.4615 Y0.6170  
G01 X-1.4626 Y0.6164  
G01 X-1.4664 Y0.6126  
G01 X-1.4691 Y0.6079  
G01 X-1.4705 Y0.6027  
G01 X-1.4705 Y0.3473  
G01 X-1.4691 Y0.3421  
G01 X-1.4664 Y0.3374  
G01 X-1.4626 Y0.3336  
G01 X-1.3626 Y0.2336  
G01 X-1.3579 Y0.2309  
G01 X-1.3527 Y0.2295  
G01 X-1.3342 Y0.2295  
G01 X-1.3342 Y0.2169  
G01 X-1.3329 Y0.2103  
G01 X-1.3303 Y0.2041  
G01 X-1.3266 Y0.1985  
G01 X-1.3218 Y0.1938  
G01 X-1.3162 Y0.1900  
G01 X-1.3100 Y0.1874  
G01 X-1.3034 Y0.1861  
G01 X-1.2966 Y0.1861  
G01 X-1.2900 Y0.1874  
G01 X-1.2838 Y0.1900  
G01 X-1.2782 Y0.1938  
G01 X-1.2734 Y0.1985  
G01 X-1.2697 Y0.2041  
G01 X-1.2671 Y0.2103  
G01 X-1.2658 Y0.2169  
G01 X-1.2658 Y0.2831  
G01 X-1.2671 Y0.2897  
G01 X-1.2697 Y0.2959  
G01 X-1.2734 Y0.3015  
G01 X-1.2782 Y0.3062  
G00 Z0.0500  
G00 X-1.4624 Y0.6398  
G01 Z-0.0030 F10    
G01 X-1.4624 Y0.6696  F20    
G01 X-1.4835 Y0.6907  
G01 X-1.5133 Y0.6907  
G01 X-1.5296 Y0.6745  
G01 X-1.5885 Y0.6745  
G01 X-1.7005 Y0.8089  
G01 X-1.7005 Y1.3302  
G01 X-1.5248 Y1.3302  
G01 X-1.5133 Y1.3187  
G01 X-1.4835 Y1.3187  
G01 X-1.4624 Y1.3398  
G01 X-1.4624 Y1.3696  
G01 X-1.4835 Y1.3907  
G01 X-1.5133 Y1.3907  
G01 X-1.5248 Y1.3792  
G01 X-1.7005 Y1.3792  
G01 X-1.7005 Y2.0308  
G01 X-1.6977 Y2.0302  
G01 X-1.5248 Y2.0302  
G01 X-1.5133 Y2.0187  
G01 X-1.4835 Y2.0187  
G01 X-1.4624 Y2.0398  
G01 X-1.4624 Y2.0696  
G01 X-1.4835 Y2.0907  
G01 X-1.5133 Y2.0907  
G01 X-1.5248 Y2.0792  
G01 X-1.6977 Y2.0792  
G01 X-1.7005 Y2.0787  
G01 X-1.7005 Y2.4408  
G01 X-1.5389 Y2.6255  
G01 X-1.4282 Y2.6255  
G01 X-1.4282 Y2.6254  
G01 X-1.4276 Y2.6237  
G01 X-1.4263 Y2.6224  
G01 X-1.4246 Y2.6218  
G01 X-1.3754 Y2.6218  
G01 X-1.3737 Y2.6224  
G01 X-1.3724 Y2.6237  
G01 X-1.3718 Y2.6254  
G01 X-1.3718 Y2.6746  
G01 X-1.3724 Y2.6763  
G01 X-1.3737 Y2.6776  
G01 X-1.3754 Y2.6782  
G01 X-1.4246 Y2.6782  
G01 X-1.4263 Y2.6776  
G01 X-1.4276 Y2.6763  
G01 X-1.4282 Y2.6746  
G01 X-1.4282 Y2.6745  
G01 X-1.5484 Y2.6745  
G01 X-1.5492 Y2.6746  
G01 X-1.5508 Y2.6745  
G01 X-1.5524 Y2.6745  
G01 X-1.5532 Y2.6743  
G01 X-1.5540 Y2.6743  
G01 X-1.5556 Y2.6739  
G01 X-1.5571 Y2.6736  
G01 X-1.5579 Y2.6732  
G01 X-1.5587 Y2.6730  
G01 X-1.5601 Y2.6723  
G01 X-1.5616 Y2.6717  
G01 X-1.5623 Y2.6713  
G01 X-1.5630 Y2.6709  
G01 X-1.5643 Y2.6699  
G01 X-1.5656 Y2.6690  
G01 X-1.5662 Y2.6685  
G01 X-1.5668 Y2.6679  
G01 X-1.5679 Y2.6667  
G01 X-1.5690 Y2.6656  
G01 X-1.5695 Y2.6649  
G01 X-1.7429 Y2.4667  
G01 X-1.7440 Y2.4656  
G01 X-1.7445 Y2.4649  
G01 X-1.7450 Y2.4643  
G01 X-1.7458 Y2.4629  
G01 X-1.7467 Y2.4616  
G01 X-1.7470 Y2.4608  
G01 X-1.7474 Y2.4601  
G01 X-1.7479 Y2.4586  
G01 X-1.7486 Y2.4571  
G01 X-1.7487 Y2.4563  
G01 X-1.7490 Y2.4556  
G01 X-1.7492 Y2.4540  
G01 X-1.7495 Y2.4524  
G01 X-1.7495 Y2.4516  
G01 X-1.7496 Y2.4508  
G01 X-1.7495 Y2.4492  
G01 X-1.7495 Y0.8011  
G01 X-1.7496 Y0.7998  
G01 X-1.7495 Y0.7987  
G01 X-1.7495 Y0.7976  
G01 X-1.7492 Y0.7963  
G01 X-1.7491 Y0.7950  
G01 X-1.7488 Y0.7939  
G01 X-1.7486 Y0.7929  
G01 X-1.7481 Y0.7917  
G01 X-1.7477 Y0.7904  
G01 X-1.7471 Y0.7894  
G01 X-1.7467 Y0.7884  
G01 X-1.7460 Y0.7873  
G01 X-1.7454 Y0.7862  
G01 X-1.7447 Y0.7853  
G01 X-1.7440 Y0.7844  
G01 X-1.7431 Y0.7835  
G01 X-1.6197 Y0.6353  
G01 X-1.6190 Y0.6344  
G01 X-1.6181 Y0.6335  
G01 X-1.6173 Y0.6325  
G01 X-1.6164 Y0.6318  
G01 X-1.6156 Y0.6310  
G01 X-1.6145 Y0.6302  
G01 X-1.6135 Y0.6294  
G01 X-1.6125 Y0.6289  
G01 X-1.6116 Y0.6283  
G01 X-1.6104 Y0.6278  
G01 X-1.6092 Y0.6272  
G01 X-1.6082 Y0.6269  
G01 X-1.6071 Y0.6264  
G01 X-1.6059 Y0.6262  
G01 X-1.6046 Y0.6258  
G01 X-1.6035 Y0.6257  
G01 X-1.6024 Y0.6255  
G01 X-1.6011 Y0.6255  
G01 X-1.5998 Y0.6254  
G01 X-1.5987 Y0.6255  
G01 X-1.5201 Y0.6255  
G01 X-1.5133 Y0.6187  
G01 X-1.4835 Y0.6187  
G01 X-1.4624 Y0.6398  
G00 Z0.0500  
G00 X-1.5431 Y0.9237  
G01 Z-0.0030 F10    
G01 X-1.5431 Y0.9763  F20    
G01 X-1.5804 Y1.0136  
G01 X-1.6330 Y1.0136  
G01 X-1.6702 Y0.9763  
G01 X-1.6702 Y0.9237  
G01 X-1.6330 Y0.8864  
G01 X-1.5804 Y0.8864  
G01 X-1.5431 Y0.9237  
G00 Z0.0500  
G00 X-1.2569 Y0.9237  
G01 Z-0.0030 F10    
G01 X-1.2196 Y0.8864  F20    
G01 X-1.1670 Y0.8864  
G01 X-1.1298 Y0.9237  
G01 X-1.1298 Y0.9763  
G01 X-1.1670 Y1.0136  
G01 X-1.2196 Y1.0136  
G01 X-1.2569 Y0.9763  
G01 X-1.2569 Y0.9237  
G00 Z0.0500  
G00 X-1.2569 Y1.6237  
G01 Z-0.0030 F10    
G01 X-1.2196 Y1.5864  F20    
G01 X-1.1670 Y1.5864  
G01 X-1.1298 Y1.6237  
G01 X-1.1298 Y1.6763  
G01 X-1.1670 Y1.7136  
G01 X-1.2196 Y1.7136  
G01 X-1.2569 Y1.6763  
G01 X-1.2569 Y1.6237  
G00 Z0.0500  
G00 X-1.5431 Y1.6237  
G01 Z-0.0030 F10    
G01 X-1.5431 Y1.6763  F20    
G01 X-1.5804 Y1.7136  
G01 X-1.6330 Y1.7136  
G01 X-1.6702 Y1.6763  
G01 X-1.6702 Y1.6237  
G01 X-1.6330 Y1.5864  
G01 X-1.5804 Y1.5864  
G01 X-1.5431 Y1.6237  
G00 Z0.0500  
G00 X-1.5431 Y2.3237  
G01 Z-0.0030 F10    
G01 X-1.5431 Y2.3763  F20    
G01 X-1.5804 Y2.4136  
G01 X-1.6330 Y2.4136  
G01 X-1.6702 Y2.3763  
G01 X-1.6702 Y2.3237  
G01 X-1.6330 Y2.2864  
G01 X-1.5804 Y2.2864  
G01 X-1.5431 Y2.3237  
G00 Z0.0500  
G00 X-1.2569 Y2.3237  
G01 Z-0.0030 F10    
G01 X-1.2196 Y2.2864  F20    
G01 X-1.1670 Y2.2864  
G01 X-1.1298 Y2.3237  
G01 X-1.1298 Y2.3763  
G01 X-1.1670 Y2.4136  
G01 X-1.2196 Y2.4136  
G01 X-1.2569 Y2.3763  
G01 X-1.2569 Y2.3237  
G00 Z0.0500  
G00 X-1.0510 Y2.6012  
G01 Z-0.0030 F10    
G01 X-1.0440 Y2.5961  F20    
G01 X-1.0364 Y2.5922  
G01 X-1.0282 Y2.5896  
G01 X-1.0197 Y2.5882  
G01 X-1.0110 Y2.5882  
G01 X-1.0025 Y2.5896  
G01 X-0.9944 Y2.5922  
G01 X-0.9867 Y2.5961  
G01 X-0.9797 Y2.6012  
G01 X-0.9736 Y2.6073  
G01 X-0.9686 Y2.6142  
G01 X-0.9647 Y2.6219  
G01 X-0.9620 Y2.6301  
G01 X-0.9607 Y2.6386  
G01 X-0.9607 Y2.6472  
G01 X-0.9620 Y2.6557  
G01 X-0.9647 Y2.6639  
G01 X-0.9686 Y2.6716  
G01 X-0.9736 Y2.6785  
G01 X-0.9797 Y2.6846  
G01 X-0.9867 Y2.6897  
G01 X-0.9944 Y2.6936  
G01 X-1.0025 Y2.6963  
G01 X-1.0110 Y2.6976  
G01 X-1.0197 Y2.6976  
G01 X-1.0282 Y2.6963  
G01 X-1.0364 Y2.6936  
G01 X-1.0440 Y2.6897  
G01 X-1.0510 Y2.6846  
G01 X-1.0571 Y2.6785  
G01 X-1.0621 Y2.6716  
G01 X-1.0660 Y2.6639  
G01 X-1.0687 Y2.6557  
G01 X-1.0701 Y2.6472  
G01 X-1.0701 Y2.6386  
G01 X-1.0687 Y2.6301  
G01 X-1.0660 Y2.6219  
G01 X-1.0621 Y2.6142  
G01 X-1.0571 Y2.6073  
G01 X-1.0510 Y2.6012  
G00 Z0.0500  
G00 X-0.7393 Y2.6000  
G01 Z-0.0030 F10    
G01 X-0.7393 Y2.5914  F20    
G01 X-0.7380 Y2.5829  
G01 X-0.7353 Y2.5747  
G01 X-0.7314 Y2.5670  
G01 X-0.7264 Y2.5600  
G01 X-0.7203 Y2.5539  
G01 X-0.7133 Y2.5489  
G01 X-0.7056 Y2.5450  
G01 X-0.6975 Y2.5423  
G01 X-0.6890 Y2.5410  
G01 X-0.6803 Y2.5410  
G01 X-0.6718 Y2.5423  
G01 X-0.6636 Y2.5450  
G01 X-0.6560 Y2.5489  
G01 X-0.6490 Y2.5539  
G01 X-0.6429 Y2.5600  
G01 X-0.6379 Y2.5670  
G01 X-0.6340 Y2.5747  
G01 X-0.6313 Y2.5829  
G01 X-0.6299 Y2.5914  
G01 X-0.6299 Y2.6000  
G01 X-0.6313 Y2.6085  
G01 X-0.6340 Y2.6167  
G01 X-0.6379 Y2.6243  
G01 X-0.6429 Y2.6313  
G01 X-0.6490 Y2.6374  
G01 X-0.6560 Y2.6425  
G01 X-0.6636 Y2.6464  
G01 X-0.6718 Y2.6490  
G01 X-0.6803 Y2.6504  
G01 X-0.6890 Y2.6504  
G01 X-0.6975 Y2.6490  
G01 X-0.7056 Y2.6464  
G01 X-0.7133 Y2.6425  
G01 X-0.7203 Y2.6374  
G01 X-0.7264 Y2.6313  
G01 X-0.7314 Y2.6243  
G01 X-0.7353 Y2.6167  
G01 X-0.7380 Y2.6085  
G01 X-0.7393 Y2.6000  
G00 Z0.0500  
G00 X-0.5702 Y2.0263  
G01 Z-0.0030 F10    
G01 X-0.5702 Y1.9737  F20    
G01 X-0.5330 Y1.9364  
G01 X-0.4804 Y1.9364  
G01 X-0.4431 Y1.9737  
G01 X-0.4431 Y2.0263  
G01 X-0.4804 Y2.0636  
G01 X-0.5330 Y2.0636  
G01 X-0.5702 Y2.0263  
G00 Z0.0500  
G00 X-0.1569 Y2.0263  
G01 Z-0.0030 F10    
G01 X-0.1569 Y1.9737  F20    
G01 X-0.1196 Y1.9364  
G01 X-0.0670 Y1.9364  
G01 X-0.0298 Y1.9737  
G01 X-0.0298 Y2.0263  
G01 X-0.0670 Y2.0636  
G01 X-0.1196 Y2.0636  
G01 X-0.1569 Y2.0263  
G00 Z0.0500  
G00 X-0.2821 Y0.5353  
G01 Z-0.0030 F10    
G01 X-0.2796 Y0.5391  F20    
G01 X-0.2779 Y0.5433  
G01 X-0.2770 Y0.5477  
G01 X-0.2770 Y0.9233  
G01 X-0.2615 Y0.9388  
G01 X-0.2615 Y0.9707  
G01 X-0.2841 Y0.9932  
G01 X-0.3159 Y0.9932  
G01 X-0.3360 Y0.9732  
G01 X-0.3360 Y0.9817  
G01 X-0.3353 Y0.9821  
G01 X-0.3321 Y0.9853  
G01 X-0.3296 Y0.9891  
G01 X-0.3279 Y0.9933  
G01 X-0.3270 Y0.9977  
G01 X-0.3270 Y1.0405  
G01 X-0.2821 Y1.0853  
G01 X-0.2796 Y1.0891  
G01 X-0.2779 Y1.0933  
G01 X-0.2770 Y1.0977  
G01 X-0.2770 Y1.6733  
G01 X-0.2615 Y1.6888  
G01 X-0.2615 Y1.7207  
G01 X-0.2841 Y1.7432  
G01 X-0.3159 Y1.7432  
G01 X-0.3385 Y1.7207  
G01 X-0.3385 Y1.6888  
G01 X-0.3230 Y1.6733  
G01 X-0.3230 Y1.1095  
G01 X-0.3647 Y1.0679  
G01 X-0.3679 Y1.0647  
G01 X-0.3704 Y1.0609  
G01 X-0.3721 Y1.0567  
G01 X-0.3730 Y1.0523  
G01 X-0.3730 Y0.9977  
G01 X-0.3721 Y0.9933  
G01 X-0.3704 Y0.9891  
G01 X-0.3679 Y0.9853  
G01 X-0.3647 Y0.9821  
G01 X-0.3640 Y0.9817  
G01 X-0.3640 Y0.9747  
G01 X-0.3825 Y0.9932  
G01 X-0.4144 Y0.9932  
G01 X-0.4259 Y0.9817  
G01 X-0.5435 Y0.9817  
G01 X-0.6230 Y1.0612  
G01 X-0.6230 Y1.6777  
G01 X-0.4259 Y1.6777  
G01 X-0.4144 Y1.6662  
G01 X-0.3825 Y1.6662  
G01 X-0.3599 Y1.6888  
G01 X-0.3599 Y1.7207  
G01 X-0.3825 Y1.7432  
G01 X-0.4144 Y1.7432  
G01 X-0.4259 Y1.7317  
G01 X-0.6230 Y1.7317  
G01 X-0.6230 Y2.2388  
G01 X-0.4888 Y2.3730  
G01 X-0.4367 Y2.3730  
G01 X-0.4367 Y2.3667  
G01 X-0.4353 Y2.3596  
G01 X-0.4325 Y2.3529  
G01 X-0.4285 Y2.3469  
G01 X-0.4234 Y2.3418  
G01 X-0.4174 Y2.3378  
G01 X-0.4107 Y2.3350  
G01 X-0.4036 Y2.3336  
G01 X-0.3964 Y2.3336  
G01 X-0.3893 Y2.3350  
G01 X-0.3826 Y2.3378  
G01 X-0.3766 Y2.3418  
G01 X-0.3715 Y2.3469  
G01 X-0.3675 Y2.3529  
G01 X-0.3647 Y2.3596  
G01 X-0.3633 Y2.3667  
G01 X-0.3633 Y2.4333  
G01 X-0.3647 Y2.4404  
G01 X-0.3675 Y2.4471  
G01 X-0.3715 Y2.4531  
G01 X-0.3730 Y2.4546  
G01 X-0.3730 Y2.5954  
G01 X-0.3715 Y2.5969  
G01 X-0.3675 Y2.6029  
G01 X-0.3647 Y2.6096  
G01 X-0.3633 Y2.6167  
G01 X-0.3633 Y2.6833  
G01 X-0.3647 Y2.6904  
G01 X-0.3675 Y2.6971  
G01 X-0.3715 Y2.7031  
G01 X-0.3766 Y2.7082  
G01 X-0.3826 Y2.7122  
G01 X-0.3893 Y2.7150  
G01 X-0.3964 Y2.7164  
G01 X-0.4036 Y2.7164  
G01 X-0.4107 Y2.7150  
G01 X-0.4174 Y2.7122  
G01 X-0.4234 Y2.7082  
G01 X-0.4285 Y2.7031  
G01 X-0.4325 Y2.6971  
G01 X-0.4353 Y2.6904  
G01 X-0.4367 Y2.6833  
G01 X-0.4367 Y2.6770  
G01 X-0.4388 Y2.6770  
G01 X-0.5891 Y2.8273  
G01 X-0.5935 Y2.8302  
G01 X-0.5984 Y2.8323  
G01 X-0.6036 Y2.8333  
G01 X-0.7389 Y2.8333  
G01 X-0.7430 Y2.8389  
G01 X-0.7485 Y2.8444  
G01 X-0.7549 Y2.8491  
G01 X-0.7619 Y2.8526  
G01 X-0.7694 Y2.8551  
G01 X-0.7772 Y2.8563  
G01 X-0.7850 Y2.8563  
G01 X-0.7928 Y2.8551  
G01 X-0.8003 Y2.8526  
G01 X-0.8073 Y2.8491  
G01 X-0.8137 Y2.8444  
G01 X-0.8192 Y2.8389  
G01 X-0.8233 Y2.8333  
G01 X-1.0464 Y2.8333  
G01 X-1.0516 Y2.8323  
G01 X-1.0565 Y2.8302  
G01 X-1.0609 Y2.8273  
G01 X-1.2074 Y2.6807  
G01 X-1.2251 Y2.6807  
G01 X-1.2277 Y2.6797  
G01 X-1.2297 Y2.6777  
G01 X-1.2307 Y2.6751  
G01 X-1.2307 Y2.6249  
G01 X-1.2297 Y2.6223  
G01 X-1.2277 Y2.6203  
G01 X-1.2251 Y2.6193  
G01 X-1.1749 Y2.6193  
G01 X-1.1723 Y2.6203  
G01 X-1.1703 Y2.6223  
G01 X-1.1693 Y2.6249  
G01 X-1.1693 Y2.6426  
G01 X-1.0325 Y2.7793  
G01 X-0.8233 Y2.7793  
G01 X-0.8192 Y2.7737  
G01 X-0.8137 Y2.7682  
G01 X-0.8073 Y2.7635  
G01 X-0.8003 Y2.7600  
G01 X-0.7928 Y2.7575  
G01 X-0.7850 Y2.7563  
G01 X-0.7772 Y2.7563  
G01 X-0.7694 Y2.7575  
G01 X-0.7619 Y2.7600  
G01 X-0.7549 Y2.7635  
G01 X-0.7485 Y2.7682  
G01 X-0.7430 Y2.7737  
G01 X-0.7389 Y2.7793  
G01 X-0.6175 Y2.7793  
G01 X-0.4710 Y2.6328  
G01 X-0.4672 Y2.6290  
G01 X-0.4628 Y2.6261  
G01 X-0.4579 Y2.6240  
G01 X-0.4527 Y2.6230  
G01 X-0.4367 Y2.6230  
G01 X-0.4367 Y2.6167  
G01 X-0.4353 Y2.6096  
G01 X-0.4325 Y2.6029  
G01 X-0.4285 Y2.5969  
G01 X-0.4270 Y2.5954  
G01 X-0.4270 Y2.4546  
G01 X-0.4285 Y2.4531  
G01 X-0.4325 Y2.4471  
G01 X-0.4353 Y2.4404  
G01 X-0.4367 Y2.4333  
G01 X-0.4367 Y2.4270  
G01 X-0.5027 Y2.4270  
G01 X-0.5079 Y2.4260  
G01 X-0.5128 Y2.4239  
G01 X-0.5172 Y2.4210  
G01 X-0.5210 Y2.4172  
G01 X-0.6710 Y2.2672  
G01 X-0.6739 Y2.2628  
G01 X-0.6760 Y2.2579  
G01 X-0.6770 Y2.2527  
G01 X-0.6770 Y1.0473  
G01 X-0.6760 Y1.0421  
G01 X-0.6739 Y1.0372  
G01 X-0.6710 Y1.0328  
G01 X-0.6672 Y1.0290  
G01 X-0.5719 Y0.9338  
G01 X-0.5675 Y0.9308  
G01 X-0.5626 Y0.9288  
G01 X-0.5574 Y0.9277  
G01 X-0.4259 Y0.9277  
G01 X-0.4144 Y0.9162  
G01 X-0.3825 Y0.9162  
G01 X-0.3640 Y0.9347  
G01 X-0.3640 Y0.9183  
G01 X-0.3647 Y0.9179  
G01 X-0.3679 Y0.9147  
G01 X-0.3704 Y0.9109  
G01 X-0.3721 Y0.9067  
G01 X-0.3730 Y0.9023  
G01 X-0.3730 Y0.7095  
G01 X-0.7095 Y0.3730  
G01 X-0.8523 Y0.3730  
G01 X-0.8567 Y0.3721  
G01 X-0.8609 Y0.3704  
G01 X-0.8647 Y0.3679  
G01 X-0.9147 Y0.3179  
G01 X-0.9179 Y0.3147  
G01 X-0.9204 Y0.3109  
G01 X-0.9208 Y0.3099  
G01 X-0.9234 Y0.3082  
G01 X-0.9285 Y0.3031  
G01 X-0.9325 Y0.2971  
G01 X-0.9353 Y0.2904  
G01 X-0.9367 Y0.2833  
G01 X-0.9367 Y0.2167  
G01 X-0.9353 Y0.2096  
G01 X-0.9325 Y0.2029  
G01 X-0.9285 Y0.1969  
G01 X-0.9234 Y0.1918  
G01 X-0.9174 Y0.1878  
G01 X-0.9107 Y0.1850  
G01 X-0.9036 Y0.1836  
G01 X-0.8964 Y0.1836  
G01 X-0.8893 Y0.1850  
G01 X-0.8826 Y0.1878  
G01 X-0.8766 Y0.1918  
G01 X-0.8715 Y0.1969  
G01 X-0.8675 Y0.2029  
G01 X-0.8647 Y0.2096  
G01 X-0.8633 Y0.2167  
G01 X-0.8633 Y0.2833  
G01 X-0.8647 Y0.2904  
G01 X-0.8675 Y0.2971  
G01 X-0.8687 Y0.2988  
G01 X-0.8405 Y0.3270  
G01 X-0.6977 Y0.3270  
G01 X-0.6933 Y0.3279  
G01 X-0.6891 Y0.3296  
G01 X-0.6853 Y0.3321  
G01 X-0.6821 Y0.3353  
G01 X-0.3353 Y0.6821  
G01 X-0.3321 Y0.6853  
G01 X-0.3296 Y0.6891  
G01 X-0.3279 Y0.6933  
G01 X-0.3270 Y0.6977  
G01 X-0.3270 Y0.9023  
G01 X-0.3279 Y0.9067  
G01 X-0.3296 Y0.9109  
G01 X-0.3321 Y0.9147  
G01 X-0.3353 Y0.9179  
G01 X-0.3360 Y0.9183  
G01 X-0.3360 Y0.9363  
G01 X-0.3230 Y0.9233  
G01 X-0.3230 Y0.5595  
G01 X-0.6095 Y0.2730  
G01 X-0.7633 Y0.2730  
G01 X-0.7633 Y0.2833  
G01 X-0.7647 Y0.2904  
G01 X-0.7675 Y0.2971  
G01 X-0.7715 Y0.3031  
G01 X-0.7766 Y0.3082  
G01 X-0.7826 Y0.3122  
G01 X-0.7893 Y0.3150  
G01 X-0.7964 Y0.3164  
G01 X-0.8036 Y0.3164  
G01 X-0.8107 Y0.3150  
G01 X-0.8174 Y0.3122  
G01 X-0.8234 Y0.3082  
G01 X-0.8285 Y0.3031  
G01 X-0.8325 Y0.2971  
G01 X-0.8353 Y0.2904  
G01 X-0.8367 Y0.2833  
G01 X-0.8367 Y0.2167  
G01 X-0.8353 Y0.2096  
G01 X-0.8325 Y0.2029  
G01 X-0.8285 Y0.1969  
G01 X-0.8234 Y0.1918  
G01 X-0.8174 Y0.1878  
G01 X-0.8107 Y0.1850  
G01 X-0.8036 Y0.1836  
G01 X-0.7964 Y0.1836  
G01 X-0.7893 Y0.1850  
G01 X-0.7826 Y0.1878  
G01 X-0.7766 Y0.1918  
G01 X-0.7715 Y0.1969  
G01 X-0.7675 Y0.2029  
G01 X-0.7647 Y0.2096  
G01 X-0.7633 Y0.2167  
G01 X-0.7633 Y0.2270  
G01 X-0.5977 Y0.2270  
G01 X-0.5933 Y0.2279  
G01 X-0.5891 Y0.2296  
G01 X-0.5853 Y0.2321  
G01 X-0.2853 Y0.5321  
G01 X-0.2821 Y0.5353  
G00 Z0.0500  
G00 X-0.2175 Y0.9162  
G01 Z-0.0030 F10    
G01 X-0.1856 Y0.9162  F20    
G01 X-0.1631 Y0.9388  
G01 X-0.1631 Y0.9707  
G01 X-0.1746 Y0.9822  
G01 X-0.1746 Y1.6773  
G01 X-0.1631 Y1.6888  
G01 X-0.1631 Y1.7207  
G01 X-0.1746 Y1.7322  
G01 X-0.1746 Y1.8542  
G01 X-0.1756 Y1.8595  
G01 X-0.1776 Y1.8644  
G01 X-0.1806 Y1.8688  
G01 X-0.2730 Y1.9612  
G01 X-0.2730 Y2.3454  
G01 X-0.2715 Y2.3469  
G01 X-0.2675 Y2.3529  
G01 X-0.2647 Y2.3596  
G01 X-0.2633 Y2.3667  
G01 X-0.2633 Y2.4333  
G01 X-0.2647 Y2.4404  
G01 X-0.2675 Y2.4471  
G01 X-0.2715 Y2.4531  
G01 X-0.2730 Y2.4546  
G01 X-0.2730 Y2.5954  
G01 X-0.2715 Y2.5969  
G01 X-0.2675 Y2.6029  
G01 X-0.2647 Y2.6096  
G01 X-0.2633 Y2.6167  
G01 X-0.2633 Y2.6833  
G01 X-0.2647 Y2.6904  
G01 X-0.2675 Y2.6971  
G01 X-0.2715 Y2.7031  
G01 X-0.2730 Y2.7046  
G01 X-0.2730 Y2.7527  
G01 X-0.2740 Y2.7579  
G01 X-0.2761 Y2.7628  
G01 X-0.2790 Y2.7672  
G01 X-0.2828 Y2.7710  
G01 X-0.4328 Y2.9210  
G01 X-0.4372 Y2.9239  
G01 X-0.4421 Y2.9260  
G01 X-0.4473 Y2.9270  
G01 X-1.1027 Y2.9270  
G01 X-1.1079 Y2.9260  
G01 X-1.1128 Y2.9239  
G01 X-1.1172 Y2.9210  
G01 X-1.3225 Y2.7156  
G01 X-1.3255 Y2.7112  
G01 X-1.3275 Y2.7063  
G01 X-1.3286 Y2.7011  
G01 X-1.3286 Y2.0822  
G01 X-1.3401 Y2.0707  
G01 X-1.3401 Y2.0388  
G01 X-1.3175 Y2.0162  
G01 X-1.2856 Y2.0162  
G01 X-1.2741 Y2.0277  
G01 X-1.1159 Y2.0277  
G01 X-1.0270 Y1.9388  
G01 X-1.0270 Y1.3817  
G01 X-1.2741 Y1.3817  
G01 X-1.2856 Y1.3932  
G01 X-1.3175 Y1.3932  
G01 X-1.3360 Y1.3747  
G01 X-1.3360 Y1.3817  
G01 X-1.3353 Y1.3821  
G01 X-1.3321 Y1.3853  
G01 X-1.3296 Y1.3891  
G01 X-1.3279 Y1.3933  
G01 X-1.3270 Y1.3977  
G01 X-1.3270 Y1.9023  
G01 X-1.3279 Y1.9067  
G01 X-1.3296 Y1.9109  
G01 X-1.3321 Y1.9147  
G01 X-1.3353 Y1.9179  
G01 X-1.3770 Y1.9595  
G01 X-1.3770 Y2.0233  
G01 X-1.3615 Y2.0388  
G01 X-1.3615 Y2.0707  
G01 X-1.3841 Y2.0932  
G01 X-1.4159 Y2.0932  
G01 X-1.4385 Y2.0707  
G01 X-1.4385 Y2.0388  
G01 X-1.4230 Y2.0233  
G01 X-1.4230 Y1.9477  
G01 X-1.4221 Y1.9433  
G01 X-1.4204 Y1.9391  
G01 X-1.4179 Y1.9353  
G01 X-1.4147 Y1.9321  
G01 X-1.3730 Y1.8905  
G01 X-1.3730 Y1.3977  
G01 X-1.3721 Y1.3933  
G01 X-1.3704 Y1.3891  
G01 X-1.3679 Y1.3853  
G01 X-1.3647 Y1.3821  
G01 X-1.3640 Y1.3817  
G01 X-1.3640 Y1.3732  
G01 X-1.3841 Y1.3932  
G01 X-1.4159 Y1.3932  
G01 X-1.4385 Y1.3707  
G01 X-1.4385 Y1.3388  
G01 X-1.4230 Y1.3233  
G01 X-1.4230 Y1.3095  
G01 X-1.4647 Y1.2679  
G01 X-1.4679 Y1.2647  
G01 X-1.4704 Y1.2609  
G01 X-1.4721 Y1.2567  
G01 X-1.4730 Y1.2523  
G01 X-1.4730 Y0.6977  
G01 X-1.4721 Y0.6933  
G01 X-1.4704 Y0.6891  
G01 X-1.4679 Y0.6853  
G01 X-1.4647 Y0.6821  
G01 X-1.4640 Y0.6817  
G01 X-1.4640 Y0.6747  
G01 X-1.4825 Y0.6932  
G01 X-1.5144 Y0.6932  
G01 X-1.5306 Y0.6770  
G01 X-1.5874 Y0.6770  
G01 X-1.6980 Y0.8098  
G01 X-1.6980 Y1.3277  
G01 X-1.5259 Y1.3277  
G01 X-1.5144 Y1.3162  
G01 X-1.4825 Y1.3162  
G01 X-1.4599 Y1.3388  
G01 X-1.4599 Y1.3707  
G01 X-1.4825 Y1.3932  
G01 X-1.5144 Y1.3932  
G01 X-1.5259 Y1.3817  
G01 X-1.6980 Y1.3817  
G01 X-1.6980 Y2.0277  
G01 X-1.5259 Y2.0277  
G01 X-1.5144 Y2.0162  
G01 X-1.4825 Y2.0162  
G01 X-1.4599 Y2.0388  
G01 X-1.4599 Y2.0707  
G01 X-1.4825 Y2.0932  
G01 X-1.5144 Y2.0932  
G01 X-1.5259 Y2.0817  
G01 X-1.6979 Y2.0817  
G01 X-1.6980 Y2.4399  
G01 X-1.5377 Y2.6230  
G01 X-1.4300 Y2.6230  
G01 X-1.4297 Y2.6223  
G01 X-1.4277 Y2.6203  
G01 X-1.4251 Y2.6193  
G01 X-1.3749 Y2.6193  
G01 X-1.3723 Y2.6203  
G01 X-1.3703 Y2.6223  
G01 X-1.3693 Y2.6249  
G01 X-1.3693 Y2.6751  
G01 X-1.3703 Y2.6777  
G01 X-1.3723 Y2.6797  
G01 X-1.3749 Y2.6807  
G01 X-1.4251 Y2.6807  
G01 X-1.4277 Y2.6797  
G01 X-1.4297 Y2.6777  
G01 X-1.4300 Y2.6770  
G01 X-1.5482 Y2.6770  
G01 X-1.5491 Y2.6771  
G01 X-1.5509 Y2.6770  
G01 X-1.5527 Y2.6770  
G01 X-1.5535 Y2.6768  
G01 X-1.5544 Y2.6768  
G01 X-1.5561 Y2.6763  
G01 X-1.5579 Y2.6760  
G01 X-1.5587 Y2.6756  
G01 X-1.5596 Y2.6754  
G01 X-1.5612 Y2.6746  
G01 X-1.5628 Y2.6739  
G01 X-1.5635 Y2.6734  
G01 X-1.5644 Y2.6730  
G01 X-1.5657 Y2.6719  
G01 X-1.5672 Y2.6710  
G01 X-1.5679 Y2.6703  
G01 X-1.5686 Y2.6698  
G01 X-1.5697 Y2.6685  
G01 X-1.5710 Y2.6672  
G01 X-1.5715 Y2.6665  
G01 X-1.7447 Y2.4685  
G01 X-1.7460 Y2.4672  
G01 X-1.7465 Y2.4665  
G01 X-1.7471 Y2.4658  
G01 X-1.7479 Y2.4643  
G01 X-1.7489 Y2.4628  
G01 X-1.7493 Y2.4620  
G01 X-1.7497 Y2.4612  
G01 X-1.7503 Y2.4595  
G01 X-1.7510 Y2.4579  
G01 X-1.7511 Y2.4570  
G01 X-1.7514 Y2.4561  
G01 X-1.7517 Y2.4544  
G01 X-1.7520 Y2.4527  
G01 X-1.7520 Y2.4518  
G01 X-1.7521 Y2.4509  
G01 X-1.7520 Y2.4491  
G01 X-1.7520 Y0.8012  
G01 X-1.7521 Y0.7998  
G01 X-1.7520 Y0.7986  
G01 X-1.7520 Y0.7973  
G01 X-1.7517 Y0.7959  
G01 X-1.7516 Y0.7945  
G01 X-1.7512 Y0.7933  
G01 X-1.7510 Y0.7921  
G01 X-1.7504 Y0.7908  
G01 X-1.7500 Y0.7894  
G01 X-1.7494 Y0.7883  
G01 X-1.7489 Y0.7872  
G01 X-1.7481 Y0.7860  
G01 X-1.7474 Y0.7848  
G01 X-1.7467 Y0.7838  
G01 X-1.7460 Y0.7828  
G01 X-1.7450 Y0.7818  
G01 X-1.6217 Y0.6338  
G01 X-1.6210 Y0.6328  
G01 X-1.6200 Y0.6318  
G01 X-1.6190 Y0.6307  
G01 X-1.6181 Y0.6299  
G01 X-1.6172 Y0.6290  
G01 X-1.6160 Y0.6282  
G01 X-1.6149 Y0.6273  
G01 X-1.6138 Y0.6268  
G01 X-1.6128 Y0.6261  
G01 X-1.6115 Y0.6255  
G01 X-1.6102 Y0.6249  
G01 X-1.6090 Y0.6245  
G01 X-1.6079 Y0.6240  
G01 X-1.6065 Y0.6238  
G01 X-1.6051 Y0.6234  
G01 X-1.6039 Y0.6232  
G01 X-1.6027 Y0.6230  
G01 X-1.6012 Y0.6230  
G01 X-1.5998 Y0.6229  
G01 X-1.5986 Y0.6230  
G01 X-1.5211 Y0.6230  
G01 X-1.5144 Y0.6162  
G01 X-1.4825 Y0.6162  
G01 X-1.4640 Y0.6347  
G01 X-1.4640 Y0.6183  
G01 X-1.4647 Y0.6179  
G01 X-1.4679 Y0.6147  
G01 X-1.4704 Y0.6109  
G01 X-1.4721 Y0.6067  
G01 X-1.4730 Y0.6023  
G01 X-1.4730 Y0.3477  
G01 X-1.4721 Y0.3433  
G01 X-1.4704 Y0.3391  
G01 X-1.4679 Y0.3353  
G01 X-1.4647 Y0.3321  
G01 X-1.3647 Y0.2321  
G01 X-1.3609 Y0.2296  
G01 X-1.3567 Y0.2279  
G01 X-1.3523 Y0.2270  
G01 X-1.3367 Y0.2270  
G01 X-1.3367 Y0.2167  
G01 X-1.3353 Y0.2096  
G01 X-1.3325 Y0.2029  
G01 X-1.3285 Y0.1969  
G01 X-1.3234 Y0.1918  
G01 X-1.3174 Y0.1878  
G01 X-1.3107 Y0.1850  
G01 X-1.3036 Y0.1836  
G01 X-1.2964 Y0.1836  
G01 X-1.2893 Y0.1850  
G01 X-1.2826 Y0.1878  
G01 X-1.2766 Y0.1918  
G01 X-1.2715 Y0.1969  
G01 X-1.2675 Y0.2029  
G01 X-1.2647 Y0.2096  
G01 X-1.2633 Y0.2167  
G01 X-1.2633 Y0.2833  
G01 X-1.2647 Y0.2904  
G01 X-1.2675 Y0.2971  
G01 X-1.2715 Y0.3031  
G01 X-1.2766 Y0.3082  
G01 X-1.2826 Y0.3122  
G01 X-1.2893 Y0.3150  
G01 X-1.2964 Y0.3164  
G01 X-1.3036 Y0.3164  
G01 X-1.3107 Y0.3150  
G01 X-1.3174 Y0.3122  
G01 X-1.3234 Y0.3082  
G01 X-1.3285 Y0.3031  
G01 X-1.3325 Y0.2971  
G01 X-1.3353 Y0.2904  
G01 X-1.3367 Y0.2833  
G01 X-1.3367 Y0.2730  
G01 X-1.3405 Y0.2730  
G01 X-1.4270 Y0.3595  
G01 X-1.4270 Y0.6023  
G01 X-1.4279 Y0.6067  
G01 X-1.4296 Y0.6109  
G01 X-1.4321 Y0.6147  
G01 X-1.4353 Y0.6179  
G01 X-1.4360 Y0.6183  
G01 X-1.4360 Y0.6363  
G01 X-1.4230 Y0.6233  
G01 X-1.4230 Y0.4977  
G01 X-1.4221 Y0.4933  
G01 X-1.4204 Y0.4891  
G01 X-1.4179 Y0.4853  
G01 X-1.2313 Y0.2988  
G01 X-1.2325 Y0.2971  
G01 X-1.2353 Y0.2904  
G01 X-1.2367 Y0.2833  
G01 X-1.2367 Y0.2167  
G01 X-1.2353 Y0.2096  
G01 X-1.2325 Y0.2029  
G01 X-1.2285 Y0.1969  
G01 X-1.2234 Y0.1918  
G01 X-1.2174 Y0.1878  
G01 X-1.2107 Y0.1850  
G01 X-1.2036 Y0.1836  
G01 X-1.1964 Y0.1836  
G01 X-1.1893 Y0.1850  
G01 X-1.1826 Y0.1878  
G01 X-1.1766 Y0.1918  
G01 X-1.1715 Y0.1969  
G01 X-1.1675 Y0.2029  
G01 X-1.1647 Y0.2096  
G01 X-1.1633 Y0.2167  
G01 X-1.1633 Y0.2833  
G01 X-1.1647 Y0.2904  
G01 X-1.1675 Y0.2971  
G01 X-1.1715 Y0.3031  
G01 X-1.1766 Y0.3082  
G01 X-1.1792 Y0.3099  
G01 X-1.1796 Y0.3109  
G01 X-1.1821 Y0.3147  
G01 X-1.3770 Y0.5095  
G01 X-1.3770 Y0.6233  
G01 X-1.3640 Y0.6363  
G01 X-1.3640 Y0.6183  
G01 X-1.3647 Y0.6179  
G01 X-1.3679 Y0.6147  
G01 X-1.3704 Y0.6109  
G01 X-1.3721 Y0.6067  
G01 X-1.3730 Y0.6023  
G01 X-1.3730 Y0.5977  
G01 X-1.3721 Y0.5933  
G01 X-1.3704 Y0.5891  
G01 X-1.3679 Y0.5853  
G01 X-1.1230 Y0.3405  
G01 X-1.1230 Y0.3084  
G01 X-1.1234 Y0.3082  
G01 X-1.1285 Y0.3031  
G01 X-1.1325 Y0.2971  
G01 X-1.1353 Y0.2904  
G01 X-1.1367 Y0.2833  
G01 X-1.1367 Y0.2167  
G01 X-1.1353 Y0.2096  
G01 X-1.1325 Y0.2029  
G01 X-1.1285 Y0.1969  
G01 X-1.1234 Y0.1918  
G01 X-1.1174 Y0.1878  
G01 X-1.1107 Y0.1850  
G01 X-1.1036 Y0.1836  
G01 X-1.0964 Y0.1836  
G01 X-1.0893 Y0.1850  
G01 X-1.0826 Y0.1878  
G01 X-1.0766 Y0.1918  
G01 X-1.0715 Y0.1969  
G01 X-1.0675 Y0.2029  
G01 X-1.0647 Y0.2096  
G01 X-1.0633 Y0.2167  
G01 X-1.0633 Y0.2833  
G01 X-1.0647 Y0.2904  
G01 X-1.0675 Y0.2971  
G01 X-1.0715 Y0.3031  
G01 X-1.0766 Y0.3082  
G01 X-1.0770 Y0.3084  
G01 X-1.0770 Y0.3523  
G01 X-1.0779 Y0.3567  
G01 X-1.0796 Y0.3609  
G01 X-1.0821 Y0.3647  
G01 X-1.3353 Y0.6179  
G01 X-1.3360 Y0.6183  
G01 X-1.3360 Y0.6347  
G01 X-1.3175 Y0.6162  
G01 X-1.2856 Y0.6162  
G01 X-1.2789 Y0.6230  
G01 X-1.2473 Y0.6230  
G01 X-1.2421 Y0.6240  
G01 X-1.2372 Y0.6261  
G01 X-1.2328 Y0.6290  
G01 X-1.2290 Y0.6328  
G01 X-1.0250 Y0.8368  
G01 X-0.8081 Y0.6199  
G01 X-0.8081 Y0.5359  
G01 X-0.8137 Y0.5318  
G01 X-0.8192 Y0.5263  
G01 X-0.8239 Y0.5199  
G01 X-0.8274 Y0.5129  
G01 X-0.8299 Y0.5054  
G01 X-0.8311 Y0.4976  
G01 X-0.8311 Y0.4898  
G01 X-0.8299 Y0.4820  
G01 X-0.8274 Y0.4745  
G01 X-0.8239 Y0.4675  
G01 X-0.8192 Y0.4611  
G01 X-0.8137 Y0.4556  
G01 X-0.8073 Y0.4509  
G01 X-0.8003 Y0.4474  
G01 X-0.7928 Y0.4449  
G01 X-0.7850 Y0.4437  
G01 X-0.7772 Y0.4437  
G01 X-0.7694 Y0.4449  
G01 X-0.7619 Y0.4474  
G01 X-0.7549 Y0.4509  
G01 X-0.7485 Y0.4556  
G01 X-0.7430 Y0.4611  
G01 X-0.7383 Y0.4675  
G01 X-0.7348 Y0.4745  
G01 X-0.7323 Y0.4820  
G01 X-0.7311 Y0.4898  
G01 X-0.7311 Y0.4976  
G01 X-0.7323 Y0.5054  
G01 X-0.7348 Y0.5129  
G01 X-0.7383 Y0.5199  
G01 X-0.7430 Y0.5263  
G01 X-0.7485 Y0.5318  
G01 X-0.7541 Y0.5359  
G01 X-0.7541 Y0.6338  
G01 X-0.7551 Y0.6390  
G01 X-0.7572 Y0.6439  
G01 X-0.7601 Y0.6483  
G01 X-0.9868 Y0.8750  
G01 X-0.9790 Y0.8828  
G01 X-0.9761 Y0.8872  
G01 X-0.9740 Y0.8921  
G01 X-0.9730 Y0.8973  
G01 X-0.9730 Y1.9527  
G01 X-0.9740 Y1.9579  
G01 X-0.9761 Y1.9628  
G01 X-0.9790 Y1.9672  
G01 X-0.9828 Y1.9710  
G01 X-1.0875 Y2.0757  
G01 X-1.0919 Y2.0787  
G01 X-1.0968 Y2.0807  
G01 X-1.1021 Y2.0817  
G01 X-1.2741 Y2.0817  
G01 X-1.2746 Y2.0822  
G01 X-1.2746 Y2.6872  
G01 X-1.0888 Y2.8730  
G01 X-0.4612 Y2.8730  
G01 X-0.3270 Y2.7388  
G01 X-0.3270 Y2.7046  
G01 X-0.3285 Y2.7031  
G01 X-0.3325 Y2.6971  
G01 X-0.3353 Y2.6904  
G01 X-0.3367 Y2.6833  
G01 X-0.3367 Y2.6167  
G01 X-0.3353 Y2.6096  
G01 X-0.3325 Y2.6029  
G01 X-0.3285 Y2.5969  
G01 X-0.3270 Y2.5954  
G01 X-0.3270 Y2.4546  
G01 X-0.3285 Y2.4531  
G01 X-0.3325 Y2.4471  
G01 X-0.3353 Y2.4404  
G01 X-0.3367 Y2.4333  
G01 X-0.3367 Y2.3667  
G01 X-0.3353 Y2.3596  
G01 X-0.3325 Y2.3529  
G01 X-0.3285 Y2.3469  
G01 X-0.3270 Y2.3454  
G01 X-0.3270 Y1.9473  
G01 X-0.3260 Y1.9421  
G01 X-0.3239 Y1.9372  
G01 X-0.3210 Y1.9328  
G01 X-0.3172 Y1.9290  
G01 X-0.2286 Y1.8404  
G01 X-0.2286 Y1.7322  
G01 X-0.2401 Y1.7207  
G01 X-0.2401 Y1.6888  
G01 X-0.2286 Y1.6773  
G01 X-0.2286 Y0.9822  
G01 X-0.2401 Y0.9707  
G01 X-0.2401 Y0.9388  
G01 X-0.2175 Y0.9162  
G00 Z0.0500  
G00 X-0.1594 Y1.2226  
G01 Z-0.0030 F10    
G01 X-0.1207 Y1.1839  F20    
G01 X-0.0659 Y1.1839  
G01 X-0.0273 Y1.2226  
G01 X-0.0273 Y1.2774  
G01 X-0.0659 Y1.3161  
G01 X-0.1207 Y1.3161  
G01 X-0.1594 Y1.2774  
G01 X-0.1594 Y1.2226  
G00 Z0.0500  
G00 X-0.4406 Y1.2226  
G01 Z-0.0030 F10    
G01 X-0.4406 Y1.2774  F20    
G01 X-0.4793 Y1.3161  
G01 X-0.5341 Y1.3161  
G01 X-0.5727 Y1.2774  
G01 X-0.5727 Y1.2226  
G01 X-0.5341 Y1.1839  
G01 X-0.4793 Y1.1839  
G01 X-0.4406 Y1.2226  
G00 Z0.0500  
G00 X-0.6474 Y0.7480  
G01 Z-0.0030 F10    
G01 X-0.6547 Y0.7532  F20    
G01 X-0.6627 Y0.7573  
G01 X-0.6713 Y0.7601  
G01 X-0.6801 Y0.7615  
G01 X-0.6891 Y0.7615  
G01 X-0.6980 Y0.7601  
G01 X-0.7066 Y0.7573  
G01 X-0.7146 Y0.7532  
G01 X-0.7219 Y0.7480  
G01 X-0.7283 Y0.7416  
G01 X-0.7336 Y0.7343  
G01 X-0.7377 Y0.7263  
G01 X-0.7404 Y0.7177  
G01 X-0.7418 Y0.7088  
G01 X-0.7418 Y0.6998  
G01 X-0.7404 Y0.6909  
G01 X-0.7377 Y0.6824  
G01 X-0.7336 Y0.6744  
G01 X-0.7283 Y0.6671  
G01 X-0.7219 Y0.6607  
G01 X-0.7146 Y0.6554  
G01 X-0.7066 Y0.6513  
G01 X-0.6980 Y0.6485  
G01 X-0.6891 Y0.6471  
G01 X-0.6801 Y0.6471  
G01 X-0.6713 Y0.6485  
G01 X-0.6627 Y0.6513  
G01 X-0.6547 Y0.6554  
G01 X-0.6474 Y0.6607  
G01 X-0.6410 Y0.6671  
G01 X-0.6357 Y0.6744  
G01 X-0.6316 Y0.6824  
G01 X-0.6289 Y0.6909  
G01 X-0.6274 Y0.6998  
G01 X-0.6274 Y0.7088  
G01 X-0.6289 Y0.7177  
G01 X-0.6316 Y0.7263  
G01 X-0.6357 Y0.7343  
G01 X-0.6410 Y0.7416  
G01 X-0.6474 Y0.7480  
G00 Z0.0500  
G00 X-0.9781 Y0.7007  
G01 Z-0.0030 F10    
G01 X-0.9854 Y0.7060  F20    
G01 X-0.9934 Y0.7101  
G01 X-1.0020 Y0.7129  
G01 X-1.0109 Y0.7143  
G01 X-1.0199 Y0.7143  
G01 X-1.0287 Y0.7129  
G01 X-1.0373 Y0.7101  
G01 X-1.0453 Y0.7060  
G01 X-1.0526 Y0.7007  
G01 X-1.0590 Y0.6943  
G01 X-1.0643 Y0.6871  
G01 X-1.0684 Y0.6790  
G01 X-1.0711 Y0.6705  
G01 X-1.0726 Y0.6616  
G01 X-1.0726 Y0.6526  
G01 X-1.0711 Y0.6437  
G01 X-1.0684 Y0.6351  
G01 X-1.0643 Y0.6271  
G01 X-1.0590 Y0.6198  
G01 X-1.0526 Y0.6135  
G01 X-1.0453 Y0.6082  
G01 X-1.0373 Y0.6041  
G01 X-1.0287 Y0.6013  
G01 X-1.0199 Y0.5999  
G01 X-1.0109 Y0.5999  
G01 X-1.0020 Y0.6013  
G01 X-0.9934 Y0.6041  
G01 X-0.9854 Y0.6082  
G01 X-0.9781 Y0.6135  
G01 X-0.9717 Y0.6198  
G01 X-0.9664 Y0.6271  
G01 X-0.9623 Y0.6351  
G01 X-0.9596 Y0.6437  
G01 X-0.9582 Y0.6526  
G01 X-0.9582 Y0.6616  
G01 X-0.9596 Y0.6705  
G01 X-0.9623 Y0.6790  
G01 X-0.9664 Y0.6871  
G01 X-0.9717 Y0.6943  
G01 X-0.9781 Y0.7007  
G00 Z0.0500  
G00 X-0.9570 Y0.5263  
G01 Z-0.0030 F10    
G01 X-0.9617 Y0.5199  F20    
G01 X-0.9652 Y0.5129  
G01 X-0.9677 Y0.5054  
G01 X-0.9689 Y0.4976  
G01 X-0.9689 Y0.4898  
G01 X-0.9677 Y0.4820  
G01 X-0.9652 Y0.4745  
G01 X-0.9617 Y0.4675  
G01 X-0.9570 Y0.4611  
G01 X-0.9515 Y0.4556  
G01 X-0.9451 Y0.4509  
G01 X-0.9419 Y0.4493  
G01 X-0.9419 Y0.4406  
G01 X-1.0147 Y0.3679  
G01 X-1.0179 Y0.3647  
G01 X-1.0204 Y0.3609  
G01 X-1.0221 Y0.3567  
G01 X-1.0230 Y0.3523  
G01 X-1.0230 Y0.3084  
G01 X-1.0234 Y0.3082  
G01 X-1.0285 Y0.3031  
G01 X-1.0325 Y0.2971  
G01 X-1.0353 Y0.2904  
G01 X-1.0367 Y0.2833  
G01 X-1.0367 Y0.2167  
G01 X-1.0353 Y0.2096  
G01 X-1.0325 Y0.2029  
G01 X-1.0285 Y0.1969  
G01 X-1.0234 Y0.1918  
G01 X-1.0174 Y0.1878  
G01 X-1.0107 Y0.1850  
G01 X-1.0036 Y0.1836  
G01 X-0.9964 Y0.1836  
G01 X-0.9893 Y0.1850  
G01 X-0.9826 Y0.1878  
G01 X-0.9766 Y0.1918  
G01 X-0.9715 Y0.1969  
G01 X-0.9675 Y0.2029  
G01 X-0.9647 Y0.2096  
G01 X-0.9633 Y0.2167  
G01 X-0.9633 Y0.2833  
G01 X-0.9647 Y0.2904  
G01 X-0.9675 Y0.2971  
G01 X-0.9715 Y0.3031  
G01 X-0.9766 Y0.3082  
G01 X-0.9770 Y0.3084  
G01 X-0.9770 Y0.3405  
G01 X-0.9010 Y0.4164  
G01 X-0.8985 Y0.4202  
G01 X-0.8968 Y0.4244  
G01 X-0.8959 Y0.4288  
G01 X-0.8959 Y0.4493  
G01 X-0.8927 Y0.4509  
G01 X-0.8863 Y0.4556  
G01 X-0.8808 Y0.4611  
G01 X-0.8761 Y0.4675  
G01 X-0.8726 Y0.4745  
G01 X-0.8701 Y0.4820  
G01 X-0.8689 Y0.4898  
G01 X-0.8689 Y0.4976  
G01 X-0.8701 Y0.5054  
G01 X-0.8726 Y0.5129  
G01 X-0.8761 Y0.5199  
G01 X-0.8808 Y0.5263  
G01 X-0.8863 Y0.5318  
G01 X-0.8927 Y0.5365  
G01 X-0.8997 Y0.5400  
G01 X-0.9072 Y0.5425  
G01 X-0.9150 Y0.5437  
G01 X-0.9228 Y0.5437  
G01 X-0.9306 Y0.5425  
G01 X-0.9381 Y0.5400  
G01 X-0.9451 Y0.5365  
G01 X-0.9515 Y0.5318  
G01 X-0.9570 Y0.5263  
G00 Z0.0500  
G00 X-1.0460 Y0.8922  
G01 Z-0.0030 F10    
G01 X-1.2612 Y0.6770  F20    
G01 X-1.2694 Y0.6770  
G01 X-1.2856 Y0.6932  
G01 X-1.3175 Y0.6932  
G01 X-1.3360 Y0.6747  
G01 X-1.3360 Y0.6817  
G01 X-1.3353 Y0.6821  
G01 X-1.3321 Y0.6853  
G01 X-1.3296 Y0.6891  
G01 X-1.3279 Y0.6933  
G01 X-1.3270 Y0.6977  
G01 X-1.3270 Y1.3023  
G01 X-1.3279 Y1.3067  
G01 X-1.3296 Y1.3109  
G01 X-1.3321 Y1.3147  
G01 X-1.3353 Y1.3179  
G01 X-1.3360 Y1.3183  
G01 X-1.3360 Y1.3347  
G01 X-1.3175 Y1.3162  
G01 X-1.2856 Y1.3162  
G01 X-1.2741 Y1.3277  
G01 X-1.0270 Y1.3277  
G01 X-1.0270 Y0.9112  
G01 X-1.0422 Y0.8960  
G01 X-1.0460 Y0.8922  
G00 Z0.0500  
G00 X-1.1273 Y0.9226  
G01 Z-0.0030 F10    
G01 X-1.1273 Y0.9774  F20    
G01 X-1.1659 Y1.0161  
G01 X-1.2207 Y1.0161  
G01 X-1.2594 Y0.9774  
G01 X-1.2594 Y0.9226  
G01 X-1.2207 Y0.8839  
G01 X-1.1659 Y0.8839  
G01 X-1.1273 Y0.9226  
G00 Z0.0500  
G00 X-1.5406 Y0.9226  
G01 Z-0.0030 F10    
G01 X-1.5406 Y0.9774  F20    
G01 X-1.5793 Y1.0161  
G01 X-1.6341 Y1.0161  
G01 X-1.6727 Y0.9774  
G01 X-1.6727 Y0.9226  
G01 X-1.6341 Y0.8839  
G01 X-1.5793 Y0.8839  
G01 X-1.5406 Y0.9226  
G00 Z0.0500  
G00 X-1.4270 Y0.6977  
G01 Z-0.0030 F10    
G01 X-1.4270 Y1.2405  F20    
G01 X-1.3853 Y1.2821  
G01 X-1.3821 Y1.2853  
G01 X-1.3796 Y1.2891  
G01 X-1.3779 Y1.2933  
G01 X-1.3770 Y1.2977  
G01 X-1.3770 Y1.3233  
G01 X-1.3640 Y1.3363  
G01 X-1.3640 Y1.3183  
G01 X-1.3647 Y1.3179  
G01 X-1.3679 Y1.3147  
G01 X-1.3704 Y1.3109  
G01 X-1.3721 Y1.3067  
G01 X-1.3730 Y1.3023  
G01 X-1.3730 Y0.6977  
G01 X-1.3721 Y0.6933  
G01 X-1.3704 Y0.6891  
G01 X-1.3679 Y0.6853  
G01 X-1.3647 Y0.6821  
G01 X-1.3640 Y0.6817  
G01 X-1.3640 Y0.6732  
G01 X-1.3841 Y0.6932  
G01 X-1.4159 Y0.6932  
G01 X-1.4360 Y0.6732  
G01 X-1.4360 Y0.6817  
G01 X-1.4353 Y0.6821  
G01 X-1.4321 Y0.6853  
G01 X-1.4296 Y0.6891  
G01 X-1.4279 Y0.6933  
G01 X-1.4270 Y0.6977  
G00 Z0.0500  
G00 X-1.5406 Y1.6226  
G01 Z-0.0030 F10    
G01 X-1.5406 Y1.6774  F20    
G01 X-1.5793 Y1.7161  
G01 X-1.6341 Y1.7161  
G01 X-1.6727 Y1.6774  
G01 X-1.6727 Y1.6226  
G01 X-1.6341 Y1.5839  
G01 X-1.5793 Y1.5839  
G01 X-1.5406 Y1.6226  
G00 Z0.0500  
G00 X-1.2594 Y1.6226  
G01 Z-0.0030 F10    
G01 X-1.2207 Y1.5839  F20    
G01 X-1.1659 Y1.5839  
G01 X-1.1273 Y1.6226  
G01 X-1.1273 Y1.6774  
G01 X-1.1659 Y1.7161  
G01 X-1.2207 Y1.7161  
G01 X-1.2594 Y1.6774  
G01 X-1.2594 Y1.6226  
G00 Z0.0500  
G00 X-1.2594 Y2.3226  
G01 Z-0.0030 F10    
G01 X-1.2207 Y2.2839  F20    
G01 X-1.1659 Y2.2839  
G01 X-1.1273 Y2.3226  
G01 X-1.1273 Y2.3774  
G01 X-1.1659 Y2.4161  
G01 X-1.2207 Y2.4161  
G01 X-1.2594 Y2.3774  
G01 X-1.2594 Y2.3226  
G00 Z0.0500  
G00 X-1.5406 Y2.3226  
G01 Z-0.0030 F10    
G01 X-1.5406 Y2.3774  F20    
G01 X-1.5793 Y2.4161  
G01 X-1.6341 Y2.4161  
G01 X-1.6727 Y2.3774  
G01 X-1.6727 Y2.3226  
G01 X-1.6341 Y2.2839  
G01 X-1.5793 Y2.2839  
G01 X-1.5406 Y2.3226  
G00 Z0.0500  
G00 X-1.0526 Y2.5993  
G01 Z-0.0030 F10    
G01 X-1.0453 Y2.5940  F20    
G01 X-1.0373 Y2.5899  
G01 X-1.0287 Y2.5871  
G01 X-1.0199 Y2.5857  
G01 X-1.0109 Y2.5857  
G01 X-1.0020 Y2.5871  
G01 X-0.9934 Y2.5899  
G01 X-0.9854 Y2.5940  
G01 X-0.9781 Y2.5993  
G01 X-0.9717 Y2.6057  
G01 X-0.9664 Y2.6129  
G01 X-0.9623 Y2.6210  
G01 X-0.9596 Y2.6295  
G01 X-0.9582 Y2.6384  
G01 X-0.9582 Y2.6474  
G01 X-0.9596 Y2.6563  
G01 X-0.9623 Y2.6649  
G01 X-0.9664 Y2.6729  
G01 X-0.9717 Y2.6802  
G01 X-0.9781 Y2.6865  
G01 X-0.9854 Y2.6918  
G01 X-0.9934 Y2.6959  
G01 X-1.0020 Y2.6987  
G01 X-1.0109 Y2.7001  
G01 X-1.0199 Y2.7001  
G01 X-1.0287 Y2.6987  
G01 X-1.0373 Y2.6959  
G01 X-1.0453 Y2.6918  
G01 X-1.0526 Y2.6865  
G01 X-1.0590 Y2.6802  
G01 X-1.0643 Y2.6729  
G01 X-1.0684 Y2.6649  
G01 X-1.0711 Y2.6563  
G01 X-1.0726 Y2.6474  
G01 X-1.0726 Y2.6384  
G01 X-1.0711 Y2.6295  
G01 X-1.0684 Y2.6210  
G01 X-1.0643 Y2.6129  
G01 X-1.0590 Y2.6057  
G01 X-1.0526 Y2.5993  
G00 Z0.0500  
G00 X-0.7418 Y2.6002  
G01 Z-0.0030 F10    
G01 X-0.7418 Y2.5912  F20    
G01 X-0.7404 Y2.5823  
G01 X-0.7377 Y2.5737  
G01 X-0.7336 Y2.5657  
G01 X-0.7283 Y2.5584  
G01 X-0.7219 Y2.5520  
G01 X-0.7146 Y2.5468  
G01 X-0.7066 Y2.5427  
G01 X-0.6980 Y2.5399  
G01 X-0.6891 Y2.5385  
G01 X-0.6801 Y2.5385  
G01 X-0.6713 Y2.5399  
G01 X-0.6627 Y2.5427  
G01 X-0.6547 Y2.5468  
G01 X-0.6474 Y2.5520  
G01 X-0.6410 Y2.5584  
G01 X-0.6357 Y2.5657  
G01 X-0.6316 Y2.5737  
G01 X-0.6289 Y2.5823  
G01 X-0.6274 Y2.5912  
G01 X-0.6274 Y2.6002  
G01 X-0.6289 Y2.6091  
G01 X-0.6316 Y2.6176  
G01 X-0.6357 Y2.6256  
G01 X-0.6410 Y2.6329  
G01 X-0.6474 Y2.6393  
G01 X-0.6547 Y2.6446  
G01 X-0.6627 Y2.6487  
G01 X-0.6713 Y2.6515  
G01 X-0.6801 Y2.6529  
G01 X-0.6891 Y2.6529  
G01 X-0.6980 Y2.6515  
G01 X-0.7066 Y2.6487  
G01 X-0.7146 Y2.6446  
G01 X-0.7219 Y2.6393  
G01 X-0.7283 Y2.6329  
G01 X-0.7336 Y2.6256  
G01 X-0.7377 Y2.6176  
G01 X-0.7404 Y2.6091  
G01 X-0.7418 Y2.6002  
G00 Z0.0500  
G00 X-0.5727 Y2.0274  
G01 Z-0.0030 F10    
G01 X-0.5727 Y1.9726  F20    
G01 X-0.5341 Y1.9339  
G01 X-0.4793 Y1.9339  
G01 X-0.4406 Y1.9726  
G01 X-0.4406 Y2.0274  
G01 X-0.4793 Y2.0661  
G01 X-0.5341 Y2.0661  
G01 X-0.5727 Y2.0274  
G00 Z0.0500  
G00 X-0.1594 Y2.0274  
G01 Z-0.0030 F10    
G01 X-0.1594 Y1.9726  F20    
G01 X-0.1207 Y1.9339  
G01 X-0.0659 Y1.9339  
G01 X-0.0273 Y1.9726  
G01 X-0.0273 Y2.0274  
G01 X-0.0659 Y2.0661  
G01 X-0.1207 Y2.0661  
G01 X-0.1594 Y2.0274  
G00 Z0.0500  
G00 X-0.2802 Y0.5337  
G01 Z-0.0030 F10    
G01 X-0.2774 Y0.5379  F20    
G01 X-0.2755 Y0.5426  
G01 X-0.2745 Y0.5475  
G01 X-0.2745 Y0.9222  
G01 X-0.2590 Y0.9377  
G01 X-0.2590 Y0.9717  
G01 X-0.2830 Y0.9957  
G01 X-0.3170 Y0.9957  
G01 X-0.3335 Y0.9792  
G01 X-0.3335 Y0.9804  
G01 X-0.3302 Y0.9837  
G01 X-0.3274 Y0.9879  
G01 X-0.3255 Y0.9926  
G01 X-0.3245 Y0.9975  
G01 X-0.3245 Y1.0394  
G01 X-0.2802 Y1.0837  
G01 X-0.2774 Y1.0879  
G01 X-0.2755 Y1.0926  
G01 X-0.2745 Y1.0975  
G01 X-0.2745 Y1.6722  
G01 X-0.2590 Y1.6877  
G01 X-0.2590 Y1.7217  
G01 X-0.2830 Y1.7457  
G01 X-0.3170 Y1.7457  
G01 X-0.3410 Y1.7217  
G01 X-0.3410 Y1.6877  
G01 X-0.3255 Y1.6722  
G01 X-0.3255 Y1.1106  
G01 X-0.3663 Y1.0698  
G01 X-0.3698 Y1.0663  
G01 X-0.3726 Y1.0621  
G01 X-0.3745 Y1.0574  
G01 X-0.3755 Y1.0525  
G01 X-0.3755 Y0.9975  
G01 X-0.3745 Y0.9926  
G01 X-0.3726 Y0.9879  
G01 X-0.3705 Y0.9848  
G01 X-0.3814 Y0.9957  
G01 X-0.4154 Y0.9957  
G01 X-0.4269 Y0.9842  
G01 X-0.5425 Y0.9842  
G01 X-0.6205 Y1.0622  
G01 X-0.6205 Y1.6752  
G01 X-0.4269 Y1.6752  
G01 X-0.4154 Y1.6637  
G01 X-0.3814 Y1.6637  
G01 X-0.3574 Y1.6877  
G01 X-0.3574 Y1.7217  
G01 X-0.3814 Y1.7457  
G01 X-0.4154 Y1.7457  
G01 X-0.4269 Y1.7342  
G01 X-0.6205 Y1.7342  
G01 X-0.6205 Y2.2378  
G01 X-0.4878 Y2.3705  
G01 X-0.4392 Y2.3705  
G01 X-0.4392 Y2.3665  
G01 X-0.4377 Y2.3589  
G01 X-0.4347 Y2.3518  
G01 X-0.4304 Y2.3453  
G01 X-0.4250 Y2.3399  
G01 X-0.4186 Y2.3356  
G01 X-0.4114 Y2.3326  
G01 X-0.4039 Y2.3311  
G01 X-0.3961 Y2.3311  
G01 X-0.3886 Y2.3326  
G01 X-0.3814 Y2.3356  
G01 X-0.3750 Y2.3399  
G01 X-0.3696 Y2.3453  
G01 X-0.3653 Y2.3518  
G01 X-0.3623 Y2.3589  
G01 X-0.3608 Y2.3665  
G01 X-0.3608 Y2.4335  
G01 X-0.3623 Y2.4411  
G01 X-0.3653 Y2.4482  
G01 X-0.3696 Y2.4547  
G01 X-0.3705 Y2.4556  
G01 X-0.3705 Y2.5944  
G01 X-0.3696 Y2.5953  
G01 X-0.3653 Y2.6018  
G01 X-0.3623 Y2.6089  
G01 X-0.3608 Y2.6165  
G01 X-0.3608 Y2.6835  
G01 X-0.3623 Y2.6911  
G01 X-0.3653 Y2.6982  
G01 X-0.3696 Y2.7047  
G01 X-0.3750 Y2.7101  
G01 X-0.3814 Y2.7144  
G01 X-0.3886 Y2.7174  
G01 X-0.3961 Y2.7189  
G01 X-0.4039 Y2.7189  
G01 X-0.4114 Y2.7174  
G01 X-0.4186 Y2.7144  
G01 X-0.4250 Y2.7101  
G01 X-0.4304 Y2.7047  
G01 X-0.4347 Y2.6982  
G01 X-0.4377 Y2.6911  
G01 X-0.4392 Y2.6835  
G01 X-0.4392 Y2.6809  
G01 X-0.5875 Y2.8292  
G01 X-0.5923 Y2.8324  
G01 X-0.5977 Y2.8347  
G01 X-0.6034 Y2.8358  
G01 X-0.7376 Y2.8358  
G01 X-0.7411 Y2.8405  
G01 X-0.7469 Y2.8463  
G01 X-0.7536 Y2.8512  
G01 X-0.7609 Y2.8550  
G01 X-0.7688 Y2.8575  
G01 X-0.7770 Y2.8588  
G01 X-0.7852 Y2.8588  
G01 X-0.7934 Y2.8575  
G01 X-0.8013 Y2.8550  
G01 X-0.8086 Y2.8512  
G01 X-0.8153 Y2.8463  
G01 X-0.8211 Y2.8405  
G01 X-0.8246 Y2.8358  
G01 X-1.0466 Y2.8358  
G01 X-1.0523 Y2.8347  
G01 X-1.0577 Y2.8324  
G01 X-1.0625 Y2.8292  
G01 X-1.2085 Y2.6832  
G01 X-1.2256 Y2.6832  
G01 X-1.2291 Y2.6818  
G01 X-1.2318 Y2.6791  
G01 X-1.2332 Y2.6756  
G01 X-1.2332 Y2.6244  
G01 X-1.2318 Y2.6209  
G01 X-1.2291 Y2.6182  
G01 X-1.2256 Y2.6168  
G01 X-1.1744 Y2.6168  
G01 X-1.1709 Y2.6182  
G01 X-1.1682 Y2.6209  
G01 X-1.1668 Y2.6244  
G01 X-1.1668 Y2.6415  
G01 X-1.0315 Y2.7768  
G01 X-0.8246 Y2.7768  
G01 X-0.8211 Y2.7721  
G01 X-0.8153 Y2.7663  
G01 X-0.8086 Y2.7614  
G01 X-0.8013 Y2.7576  
G01 X-0.7934 Y2.7551  
G01 X-0.7852 Y2.7538  
G01 X-0.7770 Y2.7538  
G01 X-0.7688 Y2.7551  
G01 X-0.7609 Y2.7576  
G01 X-0.7536 Y2.7614  
G01 X-0.7469 Y2.7663  
G01 X-0.7411 Y2.7721  
G01 X-0.7376 Y2.7768  
G01 X-0.6185 Y2.7768  
G01 X-0.4729 Y2.6312  
G01 X-0.4688 Y2.6271  
G01 X-0.4640 Y2.6239  
G01 X-0.4586 Y2.6216  
G01 X-0.4529 Y2.6205  
G01 X-0.4392 Y2.6205  
G01 X-0.4392 Y2.6165  
G01 X-0.4377 Y2.6089  
G01 X-0.4347 Y2.6018  
G01 X-0.4304 Y2.5953  
G01 X-0.4295 Y2.5944  
G01 X-0.4295 Y2.4556  
G01 X-0.4304 Y2.4547  
G01 X-0.4347 Y2.4482  
G01 X-0.4377 Y2.4411  
G01 X-0.4392 Y2.4335  
G01 X-0.4392 Y2.4295  
G01 X-0.5029 Y2.4295  
G01 X-0.5086 Y2.4284  
G01 X-0.5140 Y2.4261  
G01 X-0.5188 Y2.4229  
G01 X-0.5229 Y2.4188  
G01 X-0.6729 Y2.2688  
G01 X-0.6761 Y2.2640  
G01 X-0.6784 Y2.2586  
G01 X-0.6795 Y2.2529  
G01 X-0.6795 Y1.0471  
G01 X-0.6784 Y1.0414  
G01 X-0.6761 Y1.0360  
G01 X-0.6729 Y1.0312  
G01 X-0.6688 Y1.0271  
G01 X-0.5735 Y0.9318  
G01 X-0.5687 Y0.9286  
G01 X-0.5633 Y0.9264  
G01 X-0.5576 Y0.9252  
G01 X-0.4269 Y0.9252  
G01 X-0.4154 Y0.9137  
G01 X-0.3814 Y0.9137  
G01 X-0.3665 Y0.9287  
G01 X-0.3665 Y0.9196  
G01 X-0.3698 Y0.9163  
G01 X-0.3726 Y0.9121  
G01 X-0.3745 Y0.9074  
G01 X-0.3755 Y0.9025  
G01 X-0.3755 Y0.7106  
G01 X-0.7106 Y0.3755  
G01 X-0.8525 Y0.3755  
G01 X-0.8574 Y0.3745  
G01 X-0.8621 Y0.3726  
G01 X-0.8663 Y0.3698  
G01 X-0.9163 Y0.3198  
G01 X-0.9198 Y0.3163  
G01 X-0.9226 Y0.3121  
G01 X-0.9228 Y0.3116  
G01 X-0.9250 Y0.3101  
G01 X-0.9304 Y0.3047  
G01 X-0.9347 Y0.2982  
G01 X-0.9377 Y0.2911  
G01 X-0.9392 Y0.2835  
G01 X-0.9392 Y0.2165  
G01 X-0.9377 Y0.2089  
G01 X-0.9347 Y0.2018  
G01 X-0.9304 Y0.1953  
G01 X-0.9250 Y0.1899  
G01 X-0.9186 Y0.1856  
G01 X-0.9114 Y0.1826  
G01 X-0.9039 Y0.1811  
G01 X-0.8961 Y0.1811  
G01 X-0.8886 Y0.1826  
G01 X-0.8814 Y0.1856  
G01 X-0.8750 Y0.1899  
G01 X-0.8696 Y0.1953  
G01 X-0.8653 Y0.2018  
G01 X-0.8623 Y0.2089  
G01 X-0.8608 Y0.2165  
G01 X-0.8608 Y0.2835  
G01 X-0.8623 Y0.2911  
G01 X-0.8653 Y0.2982  
G01 X-0.8654 Y0.2985  
G01 X-0.8394 Y0.3245  
G01 X-0.6975 Y0.3245  
G01 X-0.6926 Y0.3255  
G01 X-0.6879 Y0.3274  
G01 X-0.6837 Y0.3302  
G01 X-0.6802 Y0.3337  
G01 X-0.3337 Y0.6802  
G01 X-0.3302 Y0.6837  
G01 X-0.3274 Y0.6879  
G01 X-0.3255 Y0.6925  
G01 X-0.3255 Y0.5606  
G01 X-0.6106 Y0.2755  
G01 X-0.7608 Y0.2755  
G01 X-0.7608 Y0.2835  
G01 X-0.7623 Y0.2911  
G01 X-0.7653 Y0.2982  
G01 X-0.7696 Y0.3047  
G01 X-0.7750 Y0.3101  
G01 X-0.7814 Y0.3144  
G01 X-0.7886 Y0.3174  
G01 X-0.7961 Y0.3189  
G01 X-0.8039 Y0.3189  
G01 X-0.8114 Y0.3174  
G01 X-0.8186 Y0.3144  
G01 X-0.8250 Y0.3101  
G01 X-0.8304 Y0.3047  
G01 X-0.8347 Y0.2982  
G01 X-0.8377 Y0.2911  
G01 X-0.8392 Y0.2835  
G01 X-0.8392 Y0.2165  
G01 X-0.8377 Y0.2089  
G01 X-0.8347 Y0.2018  
G01 X-0.8304 Y0.1953  
G01 X-0.8250 Y0.1899  
G01 X-0.8186 Y0.1856  
G01 X-0.8114 Y0.1826  
G01 X-0.8039 Y0.1811  
G01 X-0.7961 Y0.1811  
G01 X-0.7886 Y0.1826  
G01 X-0.7814 Y0.1856  
G01 X-0.7750 Y0.1899  
G01 X-0.7696 Y0.1953  
G01 X-0.7653 Y0.2018  
G01 X-0.7623 Y0.2089  
G01 X-0.7608 Y0.2165  
G01 X-0.7608 Y0.2245  
G01 X-0.5975 Y0.2245  
G01 X-0.5926 Y0.2255  
G01 X-0.5879 Y0.2274  
G01 X-0.5837 Y0.2302  
G01 X-0.2837 Y0.5302  
G01 X-0.2802 Y0.5337  
G00 Z0.0500  
G00 X-0.3255 Y0.9075  
G01 Z-0.0030 F10    
G01 X-0.3274 Y0.9121  F20    
G01 X-0.3302 Y0.9163  
G01 X-0.3335 Y0.9196  
G01 X-0.3335 Y0.9302  
G01 X-0.3255 Y0.9222  
G01 X-0.3255 Y0.9075  
G00 Z0.0500  
G00 X-0.2186 Y0.9137  
G01 Z-0.0030 F10    
G01 X-0.1846 Y0.9137  F20    
G01 X-0.1606 Y0.9377  
G01 X-0.1606 Y0.9717  
G01 X-0.1721 Y0.9832  
G01 X-0.1721 Y1.6762  
G01 X-0.1606 Y1.6877  
G01 X-0.1606 Y1.7217  
G01 X-0.1721 Y1.7332  
G01 X-0.1721 Y1.8545  
G01 X-0.1732 Y1.8602  
G01 X-0.1754 Y1.8655  
G01 X-0.1787 Y1.8704  
G01 X-0.2705 Y1.9622  
G01 X-0.2705 Y2.3444  
G01 X-0.2696 Y2.3453  
G01 X-0.2653 Y2.3518  
G01 X-0.2623 Y2.3589  
G01 X-0.2608 Y2.3665  
G01 X-0.2608 Y2.4335  
G01 X-0.2623 Y2.4411  
G01 X-0.2653 Y2.4482  
G01 X-0.2696 Y2.4547  
G01 X-0.2705 Y2.4556  
G01 X-0.2705 Y2.5944  
G01 X-0.2696 Y2.5953  
G01 X-0.2653 Y2.6018  
G01 X-0.2623 Y2.6089  
G01 X-0.2608 Y2.6165  
G01 X-0.2608 Y2.6835  
G01 X-0.2623 Y2.6911  
G01 X-0.2653 Y2.6982  
G01 X-0.2696 Y2.7047  
G01 X-0.2705 Y2.7056  
G01 X-0.2705 Y2.7529  
G01 X-0.2716 Y2.7586  
G01 X-0.2739 Y2.7640  
G01 X-0.2771 Y2.7688  
G01 X-0.2812 Y2.7729  
G01 X-0.4312 Y2.9229  
G01 X-0.4360 Y2.9261  
G01 X-0.4414 Y2.9284  
G01 X-0.4471 Y2.9295  
G01 X-1.1029 Y2.9295  
G01 X-1.1086 Y2.9284  
G01 X-1.1140 Y2.9261  
G01 X-1.1188 Y2.9229  
G01 X-1.3245 Y2.7172  
G01 X-1.3277 Y2.7124  
G01 X-1.3299 Y2.7070  
G01 X-1.3311 Y2.7013  
G01 X-1.3311 Y2.0832  
G01 X-1.3426 Y2.0717  
G01 X-1.3426 Y2.0377  
G01 X-1.3186 Y2.0137  
G01 X-1.2846 Y2.0137  
G01 X-1.2731 Y2.0252  
G01 X-1.1169 Y2.0252  
G01 X-1.0295 Y1.9378  
G01 X-1.0295 Y1.3842  
G01 X-1.2731 Y1.3842  
G01 X-1.2846 Y1.3957  
G01 X-1.3186 Y1.3957  
G01 X-1.3295 Y1.3848  
G01 X-1.3274 Y1.3879  
G01 X-1.3255 Y1.3926  
G01 X-1.3245 Y1.3975  
G01 X-1.3245 Y1.9025  
G01 X-1.3255 Y1.9074  
G01 X-1.3274 Y1.9121  
G01 X-1.3302 Y1.9163  
G01 X-1.3337 Y1.9198  
G01 X-1.3745 Y1.9606  
G01 X-1.3745 Y2.0222  
G01 X-1.3590 Y2.0377  
G01 X-1.3590 Y2.0717  
G01 X-1.3830 Y2.0957  
G01 X-1.4170 Y2.0957  
G01 X-1.4410 Y2.0717  
G01 X-1.4410 Y2.0377  
G01 X-1.4255 Y2.0222  
G01 X-1.4255 Y1.9475  
G01 X-1.4245 Y1.9426  
G01 X-1.4226 Y1.9379  
G01 X-1.4198 Y1.9337  
G01 X-1.4163 Y1.9302  
G01 X-1.3755 Y1.8894  
G01 X-1.3755 Y1.3975  
G01 X-1.3745 Y1.3926  
G01 X-1.3726 Y1.3879  
G01 X-1.3698 Y1.3837  
G01 X-1.3665 Y1.3804  
G01 X-1.3665 Y1.3792  
G01 X-1.3830 Y1.3957  
G01 X-1.4170 Y1.3957  
G01 X-1.4410 Y1.3717  
G01 X-1.4410 Y1.3377  
G01 X-1.4255 Y1.3222  
G01 X-1.4255 Y1.3106  
G01 X-1.4663 Y1.2698  
G01 X-1.4698 Y1.2663  
G01 X-1.4726 Y1.2621  
G01 X-1.4745 Y1.2574  
G01 X-1.4755 Y1.2525  
G01 X-1.4755 Y0.6975  
G01 X-1.4745 Y0.6926  
G01 X-1.4726 Y0.6879  
G01 X-1.4705 Y0.6848  
G01 X-1.4814 Y0.6957  
G01 X-1.5154 Y0.6957  
G01 X-1.5316 Y0.6795  
G01 X-1.5862 Y0.6795  
G01 X-1.6955 Y0.8107  
G01 X-1.6955 Y1.3252  
G01 X-1.5269 Y1.3252  
G01 X-1.5154 Y1.3137  
G01 X-1.4814 Y1.3137  
G01 X-1.4574 Y1.3377  
G01 X-1.4574 Y1.3717  
G01 X-1.4814 Y1.3957  
G01 X-1.5154 Y1.3957  
G01 X-1.5269 Y1.3842  
G01 X-1.6955 Y1.3842  
G01 X-1.6955 Y2.0252  
G01 X-1.5269 Y2.0252  
G01 X-1.5154 Y2.0137  
G01 X-1.4814 Y2.0137  
G01 X-1.4574 Y2.0377  
G01 X-1.4574 Y2.0717  
G01 X-1.4814 Y2.0957  
G01 X-1.5154 Y2.0957  
G01 X-1.5269 Y2.0842  
G01 X-1.6955 Y2.0842  
G01 X-1.6955 Y2.4389  
G01 X-1.5366 Y2.6205  
G01 X-1.4314 Y2.6205  
G01 X-1.4291 Y2.6182  
G01 X-1.4256 Y2.6168  
G01 X-1.3744 Y2.6168  
G01 X-1.3709 Y2.6182  
G01 X-1.3682 Y2.6209  
G01 X-1.3668 Y2.6244  
G01 X-1.3668 Y2.6756  
G01 X-1.3682 Y2.6791  
G01 X-1.3709 Y2.6818  
G01 X-1.3744 Y2.6832  
G01 X-1.4256 Y2.6832  
G01 X-1.4291 Y2.6818  
G01 X-1.4314 Y2.6795  
G01 X-1.5481 Y2.6795  
G01 X-1.5491 Y2.6796  
G01 X-1.5510 Y2.6795  
G01 X-1.5529 Y2.6795  
G01 X-1.5539 Y2.6793  
G01 X-1.5549 Y2.6792  
G01 X-1.5567 Y2.6787  
G01 X-1.5586 Y2.6784  
G01 X-1.5595 Y2.6780  
G01 X-1.5605 Y2.6777  
G01 X-1.5622 Y2.6769  
G01 X-1.5640 Y2.6761  
G01 X-1.5648 Y2.6756  
G01 X-1.5657 Y2.6752  
G01 X-1.5672 Y2.6740  
G01 X-1.5688 Y2.6729  
G01 X-1.5695 Y2.6722  
G01 X-1.5703 Y2.6716  
G01 X-1.5716 Y2.6702  
G01 X-1.5729 Y2.6688  
G01 X-1.5735 Y2.6680  
G01 X-1.7466 Y2.4702  
G01 X-1.7479 Y2.4688  
G01 X-1.7485 Y2.4680  
G01 X-1.7491 Y2.4672  
G01 X-1.7501 Y2.4656  
G01 X-1.7511 Y2.4640  
G01 X-1.7515 Y2.4631  
G01 X-1.7520 Y2.4622  
G01 X-1.7526 Y2.4604  
G01 X-1.7534 Y2.4586  
G01 X-1.7536 Y2.4576  
G01 X-1.7539 Y2.4567  
G01 X-1.7541 Y2.4548  
G01 X-1.7545 Y2.4529  
G01 X-1.7545 Y2.4519  
G01 X-1.7546 Y2.4509  
G01 X-1.7545 Y2.4490  
G01 X-1.7545 Y0.8013  
G01 X-1.7546 Y0.7998  
G01 X-1.7545 Y0.7984  
G01 X-1.7545 Y0.7971  
G01 X-1.7542 Y0.7956  
G01 X-1.7540 Y0.7940  
G01 X-1.7536 Y0.7927  
G01 X-1.7534 Y0.7914  
G01 X-1.7528 Y0.7899  
G01 X-1.7523 Y0.7885  
G01 X-1.7517 Y0.7873  
G01 X-1.7511 Y0.7860  
G01 X-1.7503 Y0.7847  
G01 X-1.7495 Y0.7833  
G01 X-1.7487 Y0.7823  
G01 X-1.7479 Y0.7812  
G01 X-1.7468 Y0.7801  
G01 X-1.6237 Y0.6323  
G01 X-1.6229 Y0.6312  
G01 X-1.6218 Y0.6301  
G01 X-1.6208 Y0.6289  
G01 X-1.6198 Y0.6280  
G01 X-1.6188 Y0.6271  
G01 X-1.6175 Y0.6262  
G01 X-1.6163 Y0.6252  
G01 X-1.6151 Y0.6246  
G01 X-1.6140 Y0.6239  
G01 X-1.6125 Y0.6233  
G01 X-1.6111 Y0.6225  
G01 X-1.6098 Y0.6221  
G01 X-1.6086 Y0.6216  
G01 X-1.6071 Y0.6213  
G01 X-1.6056 Y0.6209  
G01 X-1.6042 Y0.6208  
G01 X-1.6029 Y0.6205  
G01 X-1.6013 Y0.6205  
G01 X-1.5998 Y0.6204  
G01 X-1.5984 Y0.6205  
G01 X-1.5222 Y0.6205  
G01 X-1.5154 Y0.6137  
G01 X-1.4814 Y0.6137  
G01 X-1.4665 Y0.6287  
G01 X-1.4665 Y0.6196  
G01 X-1.4698 Y0.6163  
G01 X-1.4726 Y0.6121  
G01 X-1.4745 Y0.6074  
G01 X-1.4755 Y0.6025  
G01 X-1.4755 Y0.3475  
G01 X-1.4745 Y0.3426  
G01 X-1.4726 Y0.3379  
G01 X-1.4698 Y0.3337  
G01 X-1.4663 Y0.3302  
G01 X-1.3663 Y0.2302  
G01 X-1.3621 Y0.2274  
G01 X-1.3574 Y0.2255  
G01 X-1.3525 Y0.2245  
G01 X-1.3392 Y0.2245  
G01 X-1.3392 Y0.2165  
G01 X-1.3377 Y0.2089  
G01 X-1.3347 Y0.2018  
G01 X-1.3304 Y0.1953  
G01 X-1.3250 Y0.1899  
G01 X-1.3186 Y0.1856  
G01 X-1.3114 Y0.1826  
G01 X-1.3039 Y0.1811  
G01 X-1.2961 Y0.1811  
G01 X-1.2886 Y0.1826  
G01 X-1.2814 Y0.1856  
G01 X-1.2750 Y0.1899  
G01 X-1.2696 Y0.1953  
G01 X-1.2653 Y0.2018  
G01 X-1.2623 Y0.2089  
G01 X-1.2608 Y0.2165  
G01 X-1.2608 Y0.2835  
G01 X-1.2623 Y0.2911  
G01 X-1.2653 Y0.2982  
G01 X-1.2696 Y0.3047  
G01 X-1.2750 Y0.3101  
G01 X-1.2814 Y0.3144  
G01 X-1.2886 Y0.3174  
G01 X-1.2961 Y0.3189  
G01 X-1.3039 Y0.3189  
G01 X-1.3114 Y0.3174  
G01 X-1.3186 Y0.3144  
G01 X-1.3250 Y0.3101  
G01 X-1.3304 Y0.3047  
G01 X-1.3347 Y0.2982  
G01 X-1.3377 Y0.2911  
G01 X-1.3392 Y0.2835  
G01 X-1.3392 Y0.2755  
G01 X-1.3394 Y0.2755  
G01 X-1.4245 Y0.3606  
G01 X-1.4245 Y0.4925  
G01 X-1.4226 Y0.4879  
G01 X-1.4198 Y0.4837  
G01 X-1.2346 Y0.2985  
G01 X-1.2347 Y0.2982  
G01 X-1.2377 Y0.2911  
G01 X-1.2392 Y0.2835  
G01 X-1.2392 Y0.2165  
G01 X-1.2377 Y0.2089  
G01 X-1.2347 Y0.2018  
G01 X-1.2304 Y0.1953  
G01 X-1.2250 Y0.1899  
G01 X-1.2186 Y0.1856  
G01 X-1.2114 Y0.1826  
G01 X-1.2039 Y0.1811  
G01 X-1.1961 Y0.1811  
G01 X-1.1886 Y0.1826  
G01 X-1.1814 Y0.1856  
G01 X-1.1750 Y0.1899  
G01 X-1.1696 Y0.1953  
G01 X-1.1653 Y0.2018  
G01 X-1.1623 Y0.2089  
G01 X-1.1608 Y0.2165  
G01 X-1.1608 Y0.2835  
G01 X-1.1623 Y0.2911  
G01 X-1.1653 Y0.2982  
G01 X-1.1696 Y0.3047  
G01 X-1.1750 Y0.3101  
G01 X-1.1772 Y0.3116  
G01 X-1.1774 Y0.3121  
G01 X-1.1802 Y0.3163  
G01 X-1.3745 Y0.5106  
G01 X-1.3745 Y0.5925  
G01 X-1.3726 Y0.5879  
G01 X-1.3698 Y0.5837  
G01 X-1.1255 Y0.3394  
G01 X-1.1255 Y0.3096  
G01 X-1.1304 Y0.3047  
G01 X-1.1347 Y0.2982  
G01 X-1.1377 Y0.2911  
G01 X-1.1392 Y0.2835  
G01 X-1.1392 Y0.2165  
G01 X-1.1377 Y0.2089  
G01 X-1.1347 Y0.2018  
G01 X-1.1304 Y0.1953  
G01 X-1.1250 Y0.1899  
G01 X-1.1186 Y0.1856  
G01 X-1.1114 Y0.1826  
G01 X-1.1039 Y0.1811  
G01 X-1.0961 Y0.1811  
G01 X-1.0886 Y0.1826  
G01 X-1.0814 Y0.1856  
G01 X-1.0750 Y0.1899  
G01 X-1.0696 Y0.1953  
G01 X-1.0653 Y0.2018  
G01 X-1.0623 Y0.2089  
G01 X-1.0608 Y0.2165  
G01 X-1.0608 Y0.2835  
G01 X-1.0623 Y0.2911  
G01 X-1.0653 Y0.2982  
G01 X-1.0696 Y0.3047  
G01 X-1.0745 Y0.3096  
G01 X-1.0745 Y0.3525  
G01 X-1.0755 Y0.3574  
G01 X-1.0774 Y0.3621  
G01 X-1.0802 Y0.3663  
G01 X-1.3335 Y0.6196  
G01 X-1.3335 Y0.6287  
G01 X-1.3186 Y0.6137  
G01 X-1.2846 Y0.6137  
G01 X-1.2778 Y0.6205  
G01 X-1.2471 Y0.6205  
G01 X-1.2414 Y0.6216  
G01 X-1.2360 Y0.6239  
G01 X-1.2312 Y0.6271  
G01 X-1.2271 Y0.6312  
G01 X-1.0250 Y0.8333  
G01 X-0.8106 Y0.6189  
G01 X-0.8106 Y0.5372  
G01 X-0.8153 Y0.5337  
G01 X-0.8211 Y0.5279  
G01 X-0.8260 Y0.5212  
G01 X-0.8298 Y0.5139  
G01 X-0.8323 Y0.5060  
G01 X-0.8336 Y0.4978  
G01 X-0.8336 Y0.4896  
G01 X-0.8323 Y0.4814  
G01 X-0.8298 Y0.4735  
G01 X-0.8260 Y0.4662  
G01 X-0.8211 Y0.4595  
G01 X-0.8153 Y0.4537  
G01 X-0.8086 Y0.4488  
G01 X-0.8013 Y0.4450  
G01 X-0.7934 Y0.4425  
G01 X-0.7852 Y0.4412  
G01 X-0.7770 Y0.4412  
G01 X-0.7688 Y0.4425  
G01 X-0.7609 Y0.4450  
G01 X-0.7536 Y0.4488  
G01 X-0.7469 Y0.4537  
G01 X-0.7411 Y0.4595  
G01 X-0.7362 Y0.4662  
G01 X-0.7324 Y0.4735  
G01 X-0.7299 Y0.4814  
G01 X-0.7286 Y0.4896  
G01 X-0.7286 Y0.4978  
G01 X-0.7299 Y0.5060  
G01 X-0.7324 Y0.5139  
G01 X-0.7362 Y0.5212  
G01 X-0.7411 Y0.5279  
G01 X-0.7469 Y0.5337  
G01 X-0.7516 Y0.5372  
G01 X-0.7516 Y0.6340  
G01 X-0.7527 Y0.6397  
G01 X-0.7550 Y0.6451  
G01 X-0.7582 Y0.6499  
G01 X-0.9833 Y0.8750  
G01 X-0.9771 Y0.8812  
G01 X-0.9739 Y0.8860  
G01 X-0.9716 Y0.8914  
G01 X-0.9705 Y0.8971  
G01 X-0.9705 Y1.9529  
G01 X-0.9716 Y1.9586  
G01 X-0.9739 Y1.9640  
G01 X-0.9771 Y1.9688  
G01 X-0.9812 Y1.9729  
G01 X-1.0859 Y2.0776  
G01 X-1.0908 Y2.0809  
G01 X-1.0961 Y2.0831  
G01 X-1.1018 Y2.0842  
G01 X-1.2721 Y2.0842  
G01 X-1.2721 Y2.6862  
G01 X-1.0878 Y2.8705  
G01 X-0.4622 Y2.8705  
G01 X-0.3295 Y2.7378  
G01 X-0.3295 Y2.7056  
G01 X-0.3304 Y2.7047  
G01 X-0.3347 Y2.6982  
G01 X-0.3377 Y2.6911  
G01 X-0.3392 Y2.6835  
G01 X-0.3392 Y2.6165  
G01 X-0.3377 Y2.6089  
G01 X-0.3347 Y2.6018  
G01 X-0.3304 Y2.5953  
G01 X-0.3295 Y2.5944  
G01 X-0.3295 Y2.4556  
G01 X-0.3304 Y2.4547  
G01 X-0.3347 Y2.4482  
G01 X-0.3377 Y2.4411  
G01 X-0.3392 Y2.4335  
G01 X-0.3392 Y2.3665  
G01 X-0.3377 Y2.3589  
G01 X-0.3347 Y2.3518  
G01 X-0.3304 Y2.3453  
G01 X-0.3295 Y2.3444  
G01 X-0.3295 Y1.9471  
G01 X-0.3284 Y1.9414  
G01 X-0.3261 Y1.9360  
G01 X-0.3229 Y1.9312  
G01 X-0.3188 Y1.9271  
G01 X-0.2311 Y1.8394  
G01 X-0.2311 Y1.7332  
G01 X-0.2426 Y1.7217  
G01 X-0.2426 Y1.6877  
G01 X-0.2311 Y1.6762  
G01 X-0.2311 Y0.9832  
G01 X-0.2426 Y0.9717  
G01 X-0.2426 Y0.9377  
G01 X-0.2186 Y0.9137  
G00 Z0.0500  
G00 X-0.1619 Y1.2216  
G01 Z-0.0030 F10    
G01 X-0.1217 Y1.1814  F20    
G01 X-0.0649 Y1.1814  
G01 X-0.0248 Y1.2216  
G01 X-0.0248 Y1.2784  
G01 X-0.0649 Y1.3186  
G01 X-0.1217 Y1.3186  
G01 X-0.1619 Y1.2784  
G01 X-0.1619 Y1.2216  
G00 Z0.0500  
G00 X-0.4381 Y1.2216  
G01 Z-0.0030 F10    
G01 X-0.4381 Y1.2784  F20    
G01 X-0.4783 Y1.3186  
G01 X-0.5351 Y1.3186  
G01 X-0.5752 Y1.2784  
G01 X-0.5752 Y1.2216  
G01 X-0.5351 Y1.1814  
G01 X-0.4783 Y1.1814  
G01 X-0.4381 Y1.2216  
G00 Z0.0500  
G00 X-0.6458 Y0.7499  
G01 Z-0.0030 F10    
G01 X-0.6534 Y0.7554  F20    
G01 X-0.6617 Y0.7597  
G01 X-0.6707 Y0.7626  
G01 X-0.6799 Y0.7640  
G01 X-0.6893 Y0.7640  
G01 X-0.6986 Y0.7626  
G01 X-0.7076 Y0.7597  
G01 X-0.7159 Y0.7554  
G01 X-0.7235 Y0.7499  
G01 X-0.7302 Y0.7432  
G01 X-0.7357 Y0.7356  
G01 X-0.7400 Y0.7272  
G01 X-0.7429 Y0.7183  
G01 X-0.7443 Y0.7090  
G01 X-0.7443 Y0.6996  
G01 X-0.7429 Y0.6904  
G01 X-0.7400 Y0.6814  
G01 X-0.7357 Y0.6730  
G01 X-0.7302 Y0.6654  
G01 X-0.7235 Y0.6588  
G01 X-0.7159 Y0.6533  
G01 X-0.7076 Y0.6490  
G01 X-0.6986 Y0.6461  
G01 X-0.6893 Y0.6446  
G01 X-0.6799 Y0.6446  
G01 X-0.6707 Y0.6461  
G01 X-0.6617 Y0.6490  
G01 X-0.6534 Y0.6533  
G01 X-0.6458 Y0.6588  
G01 X-0.6391 Y0.6654  
G01 X-0.6336 Y0.6730  
G01 X-0.6293 Y0.6814  
G01 X-0.6264 Y0.6904  
G01 X-0.6249 Y0.6996  
G01 X-0.6249 Y0.7090  
G01 X-0.6264 Y0.7183  
G01 X-0.6293 Y0.7272  
G01 X-0.6336 Y0.7356  
G01 X-0.6391 Y0.7432  
G01 X-0.6458 Y0.7499  
G00 Z0.0500  
G00 X-0.9765 Y0.7026  
G01 Z-0.0030 F10    
G01 X-0.9841 Y0.7081  F20    
G01 X-0.9924 Y0.7124  
G01 X-1.0014 Y0.7153  
G01 X-1.0107 Y0.7168  
G01 X-1.0201 Y0.7168  
G01 X-1.0293 Y0.7153  
G01 X-1.0383 Y0.7124  
G01 X-1.0466 Y0.7081  
G01 X-1.0542 Y0.7026  
G01 X-1.0609 Y0.6960  
G01 X-1.0664 Y0.6884  
G01 X-1.0707 Y0.6800  
G01 X-1.0736 Y0.6711  
G01 X-1.0751 Y0.6618  
G01 X-1.0751 Y0.6524  
G01 X-1.0736 Y0.6431  
G01 X-1.0707 Y0.6342  
G01 X-1.0664 Y0.6258  
G01 X-1.0609 Y0.6182  
G01 X-1.0542 Y0.6116  
G01 X-1.0466 Y0.6060  
G01 X-1.0383 Y0.6018  
G01 X-1.0293 Y0.5989  
G01 X-1.0201 Y0.5974  
G01 X-1.0107 Y0.5974  
G01 X-1.0014 Y0.5989  
G01 X-0.9924 Y0.6018  
G01 X-0.9841 Y0.6060  
G01 X-0.9765 Y0.6116  
G01 X-0.9698 Y0.6182  
G01 X-0.9643 Y0.6258  
G01 X-0.9600 Y0.6342  
G01 X-0.9571 Y0.6431  
G01 X-0.9557 Y0.6524  
G01 X-0.9557 Y0.6618  
G01 X-0.9571 Y0.6711  
G01 X-0.9600 Y0.6800  
G01 X-0.9643 Y0.6884  
G01 X-0.9698 Y0.6960  
G01 X-0.9765 Y0.7026  
G00 Z0.0500  
G00 X-0.9589 Y0.5279  
G01 Z-0.0030 F10    
G01 X-0.9638 Y0.5212  F20    
G01 X-0.9676 Y0.5139  
G01 X-0.9701 Y0.5060  
G01 X-0.9714 Y0.4978  
G01 X-0.9714 Y0.4896  
G01 X-0.9701 Y0.4814  
G01 X-0.9676 Y0.4735  
G01 X-0.9638 Y0.4662  
G01 X-0.9589 Y0.4595  
G01 X-0.9531 Y0.4537  
G01 X-0.9464 Y0.4488  
G01 X-0.9444 Y0.4478  
G01 X-0.9444 Y0.4417  
G01 X-1.0163 Y0.3698  
G01 X-1.0198 Y0.3663  
G01 X-1.0226 Y0.3621  
G01 X-1.0245 Y0.3574  
G01 X-1.0255 Y0.3525  
G01 X-1.0255 Y0.3096  
G01 X-1.0304 Y0.3047  
G01 X-1.0347 Y0.2982  
G01 X-1.0377 Y0.2911  
G01 X-1.0392 Y0.2835  
G01 X-1.0392 Y0.2165  
G01 X-1.0377 Y0.2089  
G01 X-1.0347 Y0.2018  
G01 X-1.0304 Y0.1953  
G01 X-1.0250 Y0.1899  
G01 X-1.0186 Y0.1856  
G01 X-1.0114 Y0.1826  
G01 X-1.0039 Y0.1811  
G01 X-0.9961 Y0.1811  
G01 X-0.9886 Y0.1826  
G01 X-0.9814 Y0.1856  
G01 X-0.9750 Y0.1899  
G01 X-0.9696 Y0.1953  
G01 X-0.9653 Y0.2018  
G01 X-0.9623 Y0.2089  
G01 X-0.9608 Y0.2165  
G01 X-0.9608 Y0.2835  
G01 X-0.9623 Y0.2911  
G01 X-0.9653 Y0.2982  
G01 X-0.9696 Y0.3047  
G01 X-0.9745 Y0.3096  
G01 X-0.9745 Y0.3394  
G01 X-0.8991 Y0.4148  
G01 X-0.8963 Y0.4190  
G01 X-0.8944 Y0.4237  
G01 X-0.8934 Y0.4286  
G01 X-0.8934 Y0.4478  
G01 X-0.8914 Y0.4488  
G01 X-0.8847 Y0.4537  
G01 X-0.8789 Y0.4595  
G01 X-0.8740 Y0.4662  
G01 X-0.8702 Y0.4735  
G01 X-0.8677 Y0.4814  
G01 X-0.8664 Y0.4896  
G01 X-0.8664 Y0.4978  
G01 X-0.8677 Y0.5060  
G01 X-0.8702 Y0.5139  
G01 X-0.8740 Y0.5212  
G01 X-0.8789 Y0.5279  
G01 X-0.8847 Y0.5337  
G01 X-0.8914 Y0.5386  
G01 X-0.8987 Y0.5424  
G01 X-0.9066 Y0.5449  
G01 X-0.9148 Y0.5462  
G01 X-0.9230 Y0.5462  
G01 X-0.9312 Y0.5449  
G01 X-0.9391 Y0.5424  
G01 X-0.9464 Y0.5386  
G01 X-0.9531 Y0.5337  
G01 X-0.9589 Y0.5279  
G00 Z0.0500  
G00 X-1.0479 Y0.8938  
G01 Z-0.0030 F10    
G01 X-1.2622 Y0.6795  F20    
G01 X-1.2684 Y0.6795  
G01 X-1.2846 Y0.6957  
G01 X-1.3186 Y0.6957  
G01 X-1.3295 Y0.6848  
G01 X-1.3274 Y0.6879  
G01 X-1.3255 Y0.6926  
G01 X-1.3245 Y0.6975  
G01 X-1.3245 Y1.3025  
G01 X-1.3255 Y1.3074  
G01 X-1.3274 Y1.3121  
G01 X-1.3302 Y1.3163  
G01 X-1.3335 Y1.3196  
G01 X-1.3335 Y1.3287  
G01 X-1.3186 Y1.3137  
G01 X-1.2846 Y1.3137  
G01 X-1.2731 Y1.3252  
G01 X-1.0295 Y1.3252  
G01 X-1.0295 Y0.9122  
G01 X-1.0438 Y0.8979  
G01 X-1.0479 Y0.8938  
G00 Z0.0500  
G00 X-1.1248 Y0.9216  
G01 Z-0.0030 F10    
G01 X-1.1248 Y0.9784  F20    
G01 X-1.1649 Y1.0186  
G01 X-1.2217 Y1.0186  
G01 X-1.2619 Y0.9784  
G01 X-1.2619 Y0.9216  
G01 X-1.2217 Y0.8814  
G01 X-1.1649 Y0.8814  
G01 X-1.1248 Y0.9216  
G00 Z0.0500  
G00 X-1.5381 Y0.9216  
G01 Z-0.0030 F10    
G01 X-1.5381 Y0.9784  F20    
G01 X-1.5783 Y1.0186  
G01 X-1.6351 Y1.0186  
G01 X-1.6752 Y0.9784  
G01 X-1.6752 Y0.9216  
G01 X-1.6351 Y0.8814  
G01 X-1.5783 Y0.8814  
G01 X-1.5381 Y0.9216  
G00 Z0.0500  
G00 X-1.4245 Y0.6975  
G01 Z-0.0030 F10    
G01 X-1.4245 Y1.2394  F20    
G01 X-1.3837 Y1.2802  
G01 X-1.3802 Y1.2837  
G01 X-1.3774 Y1.2879  
G01 X-1.3755 Y1.2925  
G01 X-1.3755 Y0.6975  
G01 X-1.3745 Y0.6926  
G01 X-1.3726 Y0.6879  
G01 X-1.3698 Y0.6837  
G01 X-1.3665 Y0.6804  
G01 X-1.3665 Y0.6792  
G01 X-1.3830 Y0.6957  
G01 X-1.4170 Y0.6957  
G01 X-1.4335 Y0.6792  
G01 X-1.4335 Y0.6804  
G01 X-1.4302 Y0.6837  
G01 X-1.4274 Y0.6879  
G01 X-1.4255 Y0.6926  
G01 X-1.4245 Y0.6975  
G00 Z0.0500  
G00 X-1.4335 Y0.6302  
G01 Z-0.0030 F10    
G01 X-1.4255 Y0.6222  F20    
G01 X-1.4255 Y0.6075  
G01 X-1.4274 Y0.6121  
G01 X-1.4302 Y0.6163  
G01 X-1.4335 Y0.6196  
G01 X-1.4335 Y0.6302  
G00 Z0.0500  
G00 X-1.3665 Y0.6302  
G01 Z-0.0030 F10    
G01 X-1.3665 Y0.6196  F20    
G01 X-1.3698 Y0.6163  
G01 X-1.3726 Y0.6121  
G01 X-1.3745 Y0.6075  
G01 X-1.3745 Y0.6222  
G01 X-1.3665 Y0.6302  
G00 Z0.0500  
G00 X-1.3745 Y1.3075  
G01 Z-0.0030 F10    
G01 X-1.3745 Y1.3222  F20    
G01 X-1.3665 Y1.3302  
G01 X-1.3665 Y1.3196  
G01 X-1.3698 Y1.3163  
G01 X-1.3726 Y1.3121  
G01 X-1.3745 Y1.3075  
G00 Z0.0500  
G00 X-1.2619 Y1.6216  
G01 Z-0.0030 F10    
G01 X-1.2217 Y1.5814  F20    
G01 X-1.1649 Y1.5814  
G01 X-1.1248 Y1.6216  
G01 X-1.1248 Y1.6784  
G01 X-1.1649 Y1.7186  
G01 X-1.2217 Y1.7186  
G01 X-1.2619 Y1.6784  
G01 X-1.2619 Y1.6216  
G00 Z0.0500  
G00 X-1.5381 Y1.6216  
G01 Z-0.0030 F10    
G01 X-1.5381 Y1.6784  F20    
G01 X-1.5783 Y1.7186  
G01 X-1.6351 Y1.7186  
G01 X-1.6752 Y1.6784  
G01 X-1.6752 Y1.6216  
G01 X-1.6351 Y1.5814  
G01 X-1.5783 Y1.5814  
G01 X-1.5381 Y1.6216  
G00 Z0.0500  
G00 X-1.5381 Y2.3216  
G01 Z-0.0030 F10    
G01 X-1.5381 Y2.3784  F20    
G01 X-1.5783 Y2.4186  
G01 X-1.6351 Y2.4186  
G01 X-1.6752 Y2.3784  
G01 X-1.6752 Y2.3216  
G01 X-1.6351 Y2.2814  
G01 X-1.5783 Y2.2814  
G01 X-1.5381 Y2.3216  
G00 Z0.0500  
G00 X-1.2619 Y2.3216  
G01 Z-0.0030 F10    
G01 X-1.2217 Y2.2814  F20    
G01 X-1.1649 Y2.2814  
G01 X-1.1248 Y2.3216  
G01 X-1.1248 Y2.3784  
G01 X-1.1649 Y2.4186  
G01 X-1.2217 Y2.4186  
G01 X-1.2619 Y2.3784  
G01 X-1.2619 Y2.3216  
G00 Z0.0500  
G00 X-1.0542 Y2.5974  
G01 Z-0.0030 F10    
G01 X-1.0466 Y2.5919  F20    
G01 X-1.0383 Y2.5876  
G01 X-1.0293 Y2.5847  
G01 X-1.0201 Y2.5832  
G01 X-1.0107 Y2.5832  
G01 X-1.0014 Y2.5847  
G01 X-0.9924 Y2.5876  
G01 X-0.9841 Y2.5919  
G01 X-0.9765 Y2.5974  
G01 X-0.9698 Y2.6040  
G01 X-0.9643 Y2.6116  
G01 X-0.9600 Y2.6200  
G01 X-0.9571 Y2.6289  
G01 X-0.9557 Y2.6382  
G01 X-0.9557 Y2.6476  
G01 X-0.9571 Y2.6569  
G01 X-0.9600 Y2.6658  
G01 X-0.9643 Y2.6742  
G01 X-0.9698 Y2.6818  
G01 X-0.9765 Y2.6884  
G01 X-0.9841 Y2.6940  
G01 X-0.9924 Y2.6982  
G01 X-1.0014 Y2.7011  
G01 X-1.0107 Y2.7026  
G01 X-1.0201 Y2.7026  
G01 X-1.0293 Y2.7011  
G01 X-1.0383 Y2.6982  
G01 X-1.0466 Y2.6940  
G01 X-1.0542 Y2.6884  
G01 X-1.0609 Y2.6818  
G01 X-1.0664 Y2.6742  
G01 X-1.0707 Y2.6658  
G01 X-1.0736 Y2.6569  
G01 X-1.0751 Y2.6476  
G01 X-1.0751 Y2.6382  
G01 X-1.0736 Y2.6289  
G01 X-1.0707 Y2.6200  
G01 X-1.0664 Y2.6116  
G01 X-1.0609 Y2.6040  
G01 X-1.0542 Y2.5974  
G00 Z0.0500  
G00 X-0.7443 Y2.6004  
G01 Z-0.0030 F10    
G01 X-0.7443 Y2.5910  F20    
G01 X-0.7429 Y2.5817  
G01 X-0.7400 Y2.5728  
G01 X-0.7357 Y2.5644  
G01 X-0.7302 Y2.5568  
G01 X-0.7235 Y2.5501  
G01 X-0.7159 Y2.5446  
G01 X-0.7076 Y2.5403  
G01 X-0.6986 Y2.5374  
G01 X-0.6893 Y2.5360  
G01 X-0.6799 Y2.5360  
G01 X-0.6707 Y2.5374  
G01 X-0.6617 Y2.5403  
G01 X-0.6534 Y2.5446  
G01 X-0.6458 Y2.5501  
G01 X-0.6391 Y2.5568  
G01 X-0.6336 Y2.5644  
G01 X-0.6293 Y2.5728  
G01 X-0.6264 Y2.5817  
G01 X-0.6249 Y2.5910  
G01 X-0.6249 Y2.6004  
G01 X-0.6264 Y2.6096  
G01 X-0.6293 Y2.6186  
G01 X-0.6336 Y2.6270  
G01 X-0.6391 Y2.6346  
G01 X-0.6458 Y2.6412  
G01 X-0.6534 Y2.6467  
G01 X-0.6617 Y2.6510  
G01 X-0.6707 Y2.6539  
G01 X-0.6799 Y2.6554  
G01 X-0.6893 Y2.6554  
G01 X-0.6986 Y2.6539  
G01 X-0.7076 Y2.6510  
G01 X-0.7159 Y2.6467  
G01 X-0.7235 Y2.6412  
G01 X-0.7302 Y2.6346  
G01 X-0.7357 Y2.6270  
G01 X-0.7400 Y2.6186  
G01 X-0.7429 Y2.6096  
G01 X-0.7443 Y2.6004  
G00 Z0.0500  
G00 X-0.5752 Y2.0284  
G01 Z-0.0030 F10    
G01 X-0.5752 Y1.9716  F20    
G01 X-0.5351 Y1.9314  
G01 X-0.4783 Y1.9314  
G01 X-0.4381 Y1.9716  
G01 X-0.4381 Y2.0284  
G01 X-0.4783 Y2.0686  
G01 X-0.5351 Y2.0686  
G01 X-0.5752 Y2.0284  
G00 Z0.0500  
G00 X-0.1619 Y2.0284  
G01 Z-0.0030 F10    
G01 X-0.1619 Y1.9716  F20    
G01 X-0.1217 Y1.9314  
G01 X-0.0649 Y1.9314  
G01 X-0.0248 Y1.9716  
G01 X-0.0248 Y2.0284  
G01 X-0.0649 Y2.0686  
G01 X-0.1217 Y2.0686  
G01 X-0.1619 Y2.0284  
G00 Z0.0500  
G00 X-0.2783 Y0.5322  
G01 Z-0.0030 F10    
G01 X-0.2752 Y0.5367  F20    
G01 X-0.2731 Y0.5418  
G01 X-0.2720 Y0.5472  
G01 X-0.2720 Y0.9212  
G01 X-0.2565 Y0.9367  
G01 X-0.2565 Y0.9727  
G01 X-0.2820 Y0.9982  
G01 X-0.3180 Y0.9982  
G01 X-0.3227 Y0.9935  
G01 X-0.3220 Y0.9972  
G01 X-0.3220 Y1.0384  
G01 X-0.2783 Y1.0822  
G01 X-0.2752 Y1.0867  
G01 X-0.2731 Y1.0918  
G01 X-0.2720 Y1.0972  
G01 X-0.2720 Y1.6712  
G01 X-0.2565 Y1.6867  
G01 X-0.2565 Y1.7227  
G01 X-0.2820 Y1.7482  
G01 X-0.3180 Y1.7482  
G01 X-0.3435 Y1.7227  
G01 X-0.3435 Y1.6867  
G01 X-0.3280 Y1.6712  
G01 X-0.3280 Y1.1116  
G01 X-0.3678 Y1.0717  
G01 X-0.3717 Y1.0678  
G01 X-0.3748 Y1.0633  
G01 X-0.3769 Y1.0582  
G01 X-0.3780 Y1.0528  
G01 X-0.3780 Y0.9972  
G01 X-0.3776 Y0.9955  
G01 X-0.3804 Y0.9982  
G01 X-0.4164 Y0.9982  
G01 X-0.4279 Y0.9867  
G01 X-0.5415 Y0.9867  
G01 X-0.6180 Y1.0633  
G01 X-0.6180 Y1.6727  
G01 X-0.4279 Y1.6727  
G01 X-0.4164 Y1.6612  
G01 X-0.3804 Y1.6612  
G01 X-0.3549 Y1.6867  
G01 X-0.3549 Y1.7227  
G01 X-0.3804 Y1.7482  
G01 X-0.4164 Y1.7482  
G01 X-0.4279 Y1.7367  
G01 X-0.6180 Y1.7367  
G01 X-0.6180 Y2.2367  
G01 X-0.4867 Y2.3680  
G01 X-0.4417 Y2.3680  
G01 X-0.4417 Y2.3670  
G01 X-0.4407 Y2.3606  
G01 X-0.4386 Y2.3543  
G01 X-0.4357 Y2.3485  
G01 X-0.4318 Y2.3432  
G01 X-0.4272 Y2.3385  
G01 X-0.4218 Y2.3347  
G01 X-0.4160 Y2.3317  
G01 X-0.4098 Y2.3297  
G01 X-0.4033 Y2.3286  
G01 X-0.3967 Y2.3286  
G01 X-0.3902 Y2.3297  
G01 X-0.3840 Y2.3317  
G01 X-0.3782 Y2.3347  
G01 X-0.3728 Y2.3385  
G01 X-0.3682 Y2.3432  
G01 X-0.3643 Y2.3485  
G01 X-0.3614 Y2.3543  
G01 X-0.3593 Y2.3606  
G01 X-0.3583 Y2.3670  
G01 X-0.3583 Y2.4330  
G01 X-0.3593 Y2.4394  
G01 X-0.3614 Y2.4457  
G01 X-0.3643 Y2.4515  
G01 X-0.3680 Y2.4566  
G01 X-0.3680 Y2.5934  
G01 X-0.3643 Y2.5985  
G01 X-0.3614 Y2.6043  
G01 X-0.3593 Y2.6106  
G01 X-0.3583 Y2.6170  
G01 X-0.3583 Y2.6830  
G01 X-0.3593 Y2.6894  
G01 X-0.3614 Y2.6957  
G01 X-0.3643 Y2.7015  
G01 X-0.3682 Y2.7068  
G01 X-0.3728 Y2.7115  
G01 X-0.3782 Y2.7153  
G01 X-0.3840 Y2.7183  
G01 X-0.3902 Y2.7203  
G01 X-0.3967 Y2.7214  
G01 X-0.4033 Y2.7214  
G01 X-0.4098 Y2.7203  
G01 X-0.4160 Y2.7183  
G01 X-0.4218 Y2.7153  
G01 X-0.4272 Y2.7115  
G01 X-0.4318 Y2.7068  
G01 X-0.4357 Y2.7015  
G01 X-0.4386 Y2.6957  
G01 X-0.4407 Y2.6894  
G01 X-0.4411 Y2.6864  
G01 X-0.5859 Y2.8312  
G01 X-0.5911 Y2.8347  
G01 X-0.5970 Y2.8371  
G01 X-0.6031 Y2.8383  
G01 X-0.7364 Y2.8383  
G01 X-0.7392 Y2.8421  
G01 X-0.7453 Y2.8483  
G01 X-0.7523 Y2.8533  
G01 X-0.7600 Y2.8573  
G01 X-0.7682 Y2.8599  
G01 X-0.7768 Y2.8613  
G01 X-0.7854 Y2.8613  
G01 X-0.7940 Y2.8599  
G01 X-0.8022 Y2.8573  
G01 X-0.8099 Y2.8533  
G01 X-0.8169 Y2.8483  
G01 X-0.8231 Y2.8421  
G01 X-0.8258 Y2.8383  
G01 X-1.0469 Y2.8383  
G01 X-1.0530 Y2.8371  
G01 X-1.0589 Y2.8347  
G01 X-1.0641 Y2.8312  
G01 X-1.2095 Y2.6857  
G01 X-1.2253 Y2.6857  
G01 X-1.2284 Y2.6849  
G01 X-1.2311 Y2.6834  
G01 X-1.2334 Y2.6811  
G01 X-1.2349 Y2.6784  
G01 X-1.2357 Y2.6753  
G01 X-1.2357 Y2.6247  
G01 X-1.2349 Y2.6216  
G01 X-1.2334 Y2.6189  
G01 X-1.2311 Y2.6166  
G01 X-1.2284 Y2.6151  
G01 X-1.2253 Y2.6143  
G01 X-1.1747 Y2.6143  
G01 X-1.1716 Y2.6151  
G01 X-1.1689 Y2.6166  
G01 X-1.1666 Y2.6189  
G01 X-1.1651 Y2.6216  
G01 X-1.1643 Y2.6247  
G01 X-1.1643 Y2.6405  
G01 X-1.0304 Y2.7743  
G01 X-0.8258 Y2.7743  
G01 X-0.8231 Y2.7705  
G01 X-0.8169 Y2.7643  
G01 X-0.8099 Y2.7593  
G01 X-0.8022 Y2.7553  
G01 X-0.7940 Y2.7527  
G01 X-0.7854 Y2.7513  
G01 X-0.7768 Y2.7513  
G01 X-0.7682 Y2.7527  
G01 X-0.7600 Y2.7553  
G01 X-0.7523 Y2.7593  
G01 X-0.7453 Y2.7643  
G01 X-0.7392 Y2.7705  
G01 X-0.7364 Y2.7743  
G01 X-0.6196 Y2.7743  
G01 X-0.4749 Y2.6296  
G01 X-0.4704 Y2.6251  
G01 X-0.4652 Y2.6216  
G01 X-0.4593 Y2.6192  
G01 X-0.4532 Y2.6180  
G01 X-0.4417 Y2.6180  
G01 X-0.4417 Y2.6170  
G01 X-0.4407 Y2.6106  
G01 X-0.4386 Y2.6043  
G01 X-0.4357 Y2.5985  
G01 X-0.4320 Y2.5934  
G01 X-0.4320 Y2.4566  
G01 X-0.4357 Y2.4515  
G01 X-0.4386 Y2.4457  
G01 X-0.4407 Y2.4394  
G01 X-0.4417 Y2.4330  
G01 X-0.4417 Y2.4320  
G01 X-0.5032 Y2.4320  
G01 X-0.5093 Y2.4308  
G01 X-0.5152 Y2.4284  
G01 X-0.5204 Y2.4249  
G01 X-0.5249 Y2.4204  
G01 X-0.6749 Y2.2704  
G01 X-0.6784 Y2.2652  
G01 X-0.6808 Y2.2593  
G01 X-0.6820 Y2.2532  
G01 X-0.6820 Y1.0468  
G01 X-0.6808 Y1.0407  
G01 X-0.6784 Y1.0348  
G01 X-0.6749 Y1.0296  
G01 X-0.6704 Y1.0251  
G01 X-0.5751 Y0.9299  
G01 X-0.5699 Y0.9264  
G01 X-0.5641 Y0.9240  
G01 X-0.5579 Y0.9227  
G01 X-0.4279 Y0.9227  
G01 X-0.4164 Y0.9112  
G01 X-0.3804 Y0.9112  
G01 X-0.3690 Y0.9226  
G01 X-0.3690 Y0.9206  
G01 X-0.3717 Y0.9178  
G01 X-0.3748 Y0.9133  
G01 X-0.3769 Y0.9082  
G01 X-0.3780 Y0.9028  
G01 X-0.3780 Y0.7116  
G01 X-0.7116 Y0.3780  
G01 X-0.8528 Y0.3780  
G01 X-0.8582 Y0.3769  
G01 X-0.8633 Y0.3748  
G01 X-0.8678 Y0.3717  
G01 X-0.9178 Y0.3217  
G01 X-0.9217 Y0.3178  
G01 X-0.9248 Y0.3133  
G01 X-0.9249 Y0.3131  
G01 X-0.9272 Y0.3115  
G01 X-0.9318 Y0.3068  
G01 X-0.9357 Y0.3015  
G01 X-0.9386 Y0.2957  
G01 X-0.9407 Y0.2894  
G01 X-0.9417 Y0.2830  
G01 X-0.9417 Y0.2170  
G01 X-0.9407 Y0.2106  
G01 X-0.9386 Y0.2043  
G01 X-0.9357 Y0.1985  
G01 X-0.9318 Y0.1932  
G01 X-0.9272 Y0.1885  
G01 X-0.9218 Y0.1847  
G01 X-0.9160 Y0.1817  
G01 X-0.9098 Y0.1797  
G01 X-0.9033 Y0.1786  
G01 X-0.8967 Y0.1786  
G01 X-0.8902 Y0.1797  
G01 X-0.8840 Y0.1817  
G01 X-0.8782 Y0.1847  
G01 X-0.8728 Y0.1885  
G01 X-0.8682 Y0.1932  
G01 X-0.8643 Y0.1985  
G01 X-0.8614 Y0.2043  
G01 X-0.8593 Y0.2106  
G01 X-0.8583 Y0.2170  
G01 X-0.8583 Y0.2830  
G01 X-0.8593 Y0.2894  
G01 X-0.8614 Y0.2957  
G01 X-0.8625 Y0.2979  
G01 X-0.8384 Y0.3220  
G01 X-0.6972 Y0.3220  
G01 X-0.6918 Y0.3231  
G01 X-0.6867 Y0.3252  
G01 X-0.6822 Y0.3283  
G01 X-0.6783 Y0.3322  
G01 X-0.3322 Y0.6783  
G01 X-0.3283 Y0.6822  
G01 X-0.3280 Y0.6825  
G01 X-0.3280 Y0.5616  
G01 X-0.6116 Y0.2780  
G01 X-0.7583 Y0.2780  
G01 X-0.7583 Y0.2830  
G01 X-0.7593 Y0.2894  
G01 X-0.7614 Y0.2957  
G01 X-0.7643 Y0.3015  
G01 X-0.7682 Y0.3068  
G01 X-0.7728 Y0.3115  
G01 X-0.7782 Y0.3153  
G01 X-0.7840 Y0.3183  
G01 X-0.7902 Y0.3203  
G01 X-0.7967 Y0.3214  
G01 X-0.8033 Y0.3214  
G01 X-0.8098 Y0.3203  
G01 X-0.8160 Y0.3183  
G01 X-0.8218 Y0.3153  
G01 X-0.8272 Y0.3115  
G01 X-0.8318 Y0.3068  
G01 X-0.8357 Y0.3015  
G01 X-0.8386 Y0.2957  
G01 X-0.8407 Y0.2894  
G01 X-0.8417 Y0.2830  
G01 X-0.8417 Y0.2170  
G01 X-0.8407 Y0.2106  
G01 X-0.8386 Y0.2043  
G01 X-0.8357 Y0.1985  
G01 X-0.8318 Y0.1932  
G01 X-0.8272 Y0.1885  
G01 X-0.8218 Y0.1847  
G01 X-0.8160 Y0.1817  
G01 X-0.8098 Y0.1797  
G01 X-0.8033 Y0.1786  
G01 X-0.7967 Y0.1786  
G01 X-0.7902 Y0.1797  
G01 X-0.7840 Y0.1817  
G01 X-0.7782 Y0.1847  
G01 X-0.7728 Y0.1885  
G01 X-0.7682 Y0.1932  
G01 X-0.7643 Y0.1985  
G01 X-0.7614 Y0.2043  
G01 X-0.7593 Y0.2106  
G01 X-0.7583 Y0.2170  
G01 X-0.7583 Y0.2220  
G01 X-0.5972 Y0.2220  
G01 X-0.5918 Y0.2231  
G01 X-0.5867 Y0.2252  
G01 X-0.5822 Y0.2283  
G01 X-0.2822 Y0.5283  
G01 X-0.2783 Y0.5322  
G00 Z0.0500  
G00 X-0.3280 Y0.9175  
G01 Z-0.0030 F10    
G01 X-0.3283 Y0.9178  F20    
G01 X-0.3310 Y0.9206  
G01 X-0.3310 Y0.9242  
G01 X-0.3280 Y0.9212  
G01 X-0.3280 Y0.9175  
G00 Z0.0500  
G00 X-0.2451 Y0.9367  
G01 Z-0.0030 F10    
G01 X-0.2196 Y0.9112  F20    
G01 X-0.1836 Y0.9112  
G01 X-0.1581 Y0.9367  
G01 X-0.1581 Y0.9727  
G01 X-0.1696 Y0.9842  
G01 X-0.1696 Y1.6752  
G01 X-0.1581 Y1.6867  
G01 X-0.1581 Y1.7227  
G01 X-0.1696 Y1.7342  
G01 X-0.1696 Y1.8547  
G01 X-0.1708 Y1.8609  
G01 X-0.1732 Y1.8667  
G01 X-0.1767 Y1.8720  
G01 X-0.2680 Y1.9633  
G01 X-0.2680 Y2.3434  
G01 X-0.2643 Y2.3485  
G01 X-0.2614 Y2.3543  
G01 X-0.2593 Y2.3606  
G01 X-0.2583 Y2.3670  
G01 X-0.2583 Y2.4330  
G01 X-0.2593 Y2.4394  
G01 X-0.2614 Y2.4457  
G01 X-0.2643 Y2.4515  
G01 X-0.2680 Y2.4566  
G01 X-0.2680 Y2.5934  
G01 X-0.2643 Y2.5985  
G01 X-0.2614 Y2.6043  
G01 X-0.2593 Y2.6106  
G01 X-0.2583 Y2.6170  
G01 X-0.2583 Y2.6830  
G01 X-0.2593 Y2.6894  
G01 X-0.2614 Y2.6957  
G01 X-0.2643 Y2.7015  
G01 X-0.2680 Y2.7066  
G01 X-0.2680 Y2.7532  
G01 X-0.2692 Y2.7593  
G01 X-0.2716 Y2.7652  
G01 X-0.2751 Y2.7704  
G01 X-0.2796 Y2.7749  
G01 X-0.4296 Y2.9249  
G01 X-0.4348 Y2.9284  
G01 X-0.4407 Y2.9308  
G01 X-0.4468 Y2.9320  
G01 X-1.1032 Y2.9320  
G01 X-1.1093 Y2.9308  
G01 X-1.1152 Y2.9284  
G01 X-1.1204 Y2.9249  
G01 X-1.3264 Y2.7188  
G01 X-1.3299 Y2.7136  
G01 X-1.3323 Y2.7078  
G01 X-1.3336 Y2.7016  
G01 X-1.3336 Y2.0842  
G01 X-1.3451 Y2.0727  
G01 X-1.3451 Y2.0367  
G01 X-1.3196 Y2.0112  
G01 X-1.2836 Y2.0112  
G01 X-1.2721 Y2.0227  
G01 X-1.1180 Y2.0227  
G01 X-1.0320 Y1.9367  
G01 X-1.0320 Y1.3867  
G01 X-1.2721 Y1.3867  
G01 X-1.2836 Y1.3982  
G01 X-1.3196 Y1.3982  
G01 X-1.3224 Y1.3955  
G01 X-1.3220 Y1.3972  
G01 X-1.3220 Y1.9028  
G01 X-1.3231 Y1.9082  
G01 X-1.3252 Y1.9133  
G01 X-1.3283 Y1.9178  
G01 X-1.3322 Y1.9217  
G01 X-1.3720 Y1.9616  
G01 X-1.3720 Y2.0212  
G01 X-1.3565 Y2.0367  
G01 X-1.3565 Y2.0727  
G01 X-1.3820 Y2.0982  
G01 X-1.4180 Y2.0982  
G01 X-1.4435 Y2.0727  
G01 X-1.4435 Y2.0367  
G01 X-1.4280 Y2.0212  
G01 X-1.4280 Y1.9472  
G01 X-1.4269 Y1.9418  
G01 X-1.4248 Y1.9367  
G01 X-1.4217 Y1.9322  
G01 X-1.4178 Y1.9283  
G01 X-1.3780 Y1.8884  
G01 X-1.3780 Y1.3972  
G01 X-1.3773 Y1.3935  
G01 X-1.3820 Y1.3982  
G01 X-1.4180 Y1.3982  
G01 X-1.4435 Y1.3727  
G01 X-1.4435 Y1.3367  
G01 X-1.4280 Y1.3212  
G01 X-1.4280 Y1.3116  
G01 X-1.4678 Y1.2717  
G01 X-1.4717 Y1.2678  
G01 X-1.4748 Y1.2633  
G01 X-1.4769 Y1.2582  
G01 X-1.4780 Y1.2528  
G01 X-1.4780 Y0.6972  
G01 X-1.4776 Y0.6955  
G01 X-1.4804 Y0.6982  
G01 X-1.5164 Y0.6982  
G01 X-1.5327 Y0.6820  
G01 X-1.5850 Y0.6820  
G01 X-1.6930 Y0.8116  
G01 X-1.6930 Y1.3227  
G01 X-1.5279 Y1.3227  
G01 X-1.5164 Y1.3112  
G01 X-1.4804 Y1.3112  
G01 X-1.4549 Y1.3367  
G01 X-1.4549 Y1.3727  
G01 X-1.4804 Y1.3982  
G01 X-1.5164 Y1.3982  
G01 X-1.5279 Y1.3867  
G01 X-1.6930 Y1.3867  
G01 X-1.6930 Y2.0227  
G01 X-1.5279 Y2.0227  
G01 X-1.5164 Y2.0112  
G01 X-1.4804 Y2.0112  
G01 X-1.4549 Y2.0367  
G01 X-1.4549 Y2.0727  
G01 X-1.4804 Y2.0982  
G01 X-1.5164 Y2.0982  
G01 X-1.5279 Y2.0867  
G01 X-1.6930 Y2.0867  
G01 X-1.6930 Y2.4380  
G01 X-1.5355 Y2.6180  
G01 X-1.4325 Y2.6180  
G01 X-1.4311 Y2.6166  
G01 X-1.4284 Y2.6151  
G01 X-1.4253 Y2.6143  
G01 X-1.3747 Y2.6143  
G01 X-1.3716 Y2.6151  
G01 X-1.3689 Y2.6166  
G01 X-1.3666 Y2.6189  
G01 X-1.3651 Y2.6216  
G01 X-1.3643 Y2.6247  
G01 X-1.3643 Y2.6753  
G01 X-1.3651 Y2.6784  
G01 X-1.3666 Y2.6811  
G01 X-1.3689 Y2.6834  
G01 X-1.3716 Y2.6849  
G01 X-1.3747 Y2.6857  
G01 X-1.4253 Y2.6857  
G01 X-1.4284 Y2.6849  
G01 X-1.4311 Y2.6834  
G01 X-1.4325 Y2.6820  
G01 X-1.5479 Y2.6820  
G01 X-1.5490 Y2.6821  
G01 X-1.5511 Y2.6820  
G01 X-1.5532 Y2.6820  
G01 X-1.5542 Y2.6818  
G01 X-1.5553 Y2.6817  
G01 X-1.5573 Y2.6812  
G01 X-1.5593 Y2.6808  
G01 X-1.5603 Y2.6804  
G01 X-1.5614 Y2.6801  
G01 X-1.5632 Y2.6792  
G01 X-1.5652 Y2.6784  
G01 X-1.5660 Y2.6778  
G01 X-1.5670 Y2.6773  
G01 X-1.5687 Y2.6760  
G01 X-1.5704 Y2.6749  
G01 X-1.5712 Y2.6741  
G01 X-1.5720 Y2.6734  
G01 X-1.5734 Y2.6719  
G01 X-1.5749 Y2.6704  
G01 X-1.5755 Y2.6695  
G01 X-1.7484 Y2.4719  
G01 X-1.7499 Y2.4704  
G01 X-1.7505 Y2.4695  
G01 X-1.7512 Y2.4687  
G01 X-1.7522 Y2.4669  
G01 X-1.7534 Y2.4652  
G01 X-1.7538 Y2.4642  
G01 X-1.7543 Y2.4632  
G01 X-1.7550 Y2.4613  
G01 X-1.7558 Y2.4593  
G01 X-1.7560 Y2.4583  
G01 X-1.7563 Y2.4573  
G01 X-1.7566 Y2.4552  
G01 X-1.7570 Y2.4532  
G01 X-1.7570 Y2.4521  
G01 X-1.7571 Y2.4510  
G01 X-1.7570 Y2.4489  
G01 X-1.7570 Y0.8015  
G01 X-1.7572 Y0.7998  
G01 X-1.7570 Y0.7983  
G01 X-1.7570 Y0.7968  
G01 X-1.7567 Y0.7952  
G01 X-1.7565 Y0.7935  
G01 X-1.7561 Y0.7921  
G01 X-1.7558 Y0.7907  
G01 X-1.7551 Y0.7891  
G01 X-1.7546 Y0.7875  
G01 X-1.7539 Y0.7862  
G01 X-1.7534 Y0.7848  
G01 X-1.7524 Y0.7834  
G01 X-1.7516 Y0.7819  
G01 X-1.7507 Y0.7808  
G01 X-1.7499 Y0.7796  
G01 X-1.7487 Y0.7784  
G01 X-1.6257 Y0.6308  
G01 X-1.6249 Y0.6296  
G01 X-1.6237 Y0.6284  
G01 X-1.6226 Y0.6271  
G01 X-1.6214 Y0.6262  
G01 X-1.6204 Y0.6251  
G01 X-1.6190 Y0.6242  
G01 X-1.6177 Y0.6231  
G01 X-1.6164 Y0.6225  
G01 X-1.6152 Y0.6216  
G01 X-1.6136 Y0.6210  
G01 X-1.6121 Y0.6202  
G01 X-1.6107 Y0.6198  
G01 X-1.6093 Y0.6192  
G01 X-1.6077 Y0.6189  
G01 X-1.6060 Y0.6184  
G01 X-1.6046 Y0.6183  
G01 X-1.6032 Y0.6180  
G01 X-1.6015 Y0.6180  
G01 X-1.5998 Y0.6178  
G01 X-1.5983 Y0.6180  
G01 X-1.5232 Y0.6180  
G01 X-1.5164 Y0.6112  
G01 X-1.4804 Y0.6112  
G01 X-1.4690 Y0.6226  
G01 X-1.4690 Y0.6206  
G01 X-1.4717 Y0.6178  
G01 X-1.4748 Y0.6133  
G01 X-1.4769 Y0.6082  
G01 X-1.4780 Y0.6028  
G01 X-1.4780 Y0.3472  
G01 X-1.4769 Y0.3418  
G01 X-1.4748 Y0.3367  
G01 X-1.4717 Y0.3322  
G01 X-1.4678 Y0.3283  
G01 X-1.3678 Y0.2283  
G01 X-1.3633 Y0.2252  
G01 X-1.3582 Y0.2231  
G01 X-1.3528 Y0.2220  
G01 X-1.3417 Y0.2220  
G01 X-1.3417 Y0.2170  
G01 X-1.3407 Y0.2106  
G01 X-1.3386 Y0.2043  
G01 X-1.3357 Y0.1985  
G01 X-1.3318 Y0.1932  
G01 X-1.3272 Y0.1885  
G01 X-1.3218 Y0.1847  
G01 X-1.3160 Y0.1817  
G01 X-1.3098 Y0.1797  
G01 X-1.3033 Y0.1786  
G01 X-1.2967 Y0.1786  
G01 X-1.2902 Y0.1797  
G01 X-1.2840 Y0.1817  
G01 X-1.2782 Y0.1847  
G01 X-1.2728 Y0.1885  
G01 X-1.2682 Y0.1932  
G01 X-1.2643 Y0.1985  
G01 X-1.2614 Y0.2043  
G01 X-1.2593 Y0.2106  
G01 X-1.2583 Y0.2170  
G01 X-1.2583 Y0.2830  
G01 X-1.2593 Y0.2894  
G01 X-1.2614 Y0.2957  
G01 X-1.2643 Y0.3015  
G01 X-1.2682 Y0.3068  
G01 X-1.2728 Y0.3115  
G01 X-1.2782 Y0.3153  
G01 X-1.2840 Y0.3183  
G01 X-1.2902 Y0.3203  
G01 X-1.2967 Y0.3214  
G01 X-1.3033 Y0.3214  
G01 X-1.3098 Y0.3203  
G01 X-1.3160 Y0.3183  
G01 X-1.3218 Y0.3153  
G01 X-1.3272 Y0.3115  
G01 X-1.3318 Y0.3068  
G01 X-1.3357 Y0.3015  
G01 X-1.3386 Y0.2957  
G01 X-1.3407 Y0.2894  
G01 X-1.3417 Y0.2830  
G01 X-1.3417 Y0.2813  
G01 X-1.4220 Y0.3616  
G01 X-1.4220 Y0.4825  
G01 X-1.4217 Y0.4822  
G01 X-1.2375 Y0.2979  
G01 X-1.2386 Y0.2957  
G01 X-1.2407 Y0.2894  
G01 X-1.2417 Y0.2830  
G01 X-1.2417 Y0.2170  
G01 X-1.2407 Y0.2106  
G01 X-1.2386 Y0.2043  
G01 X-1.2357 Y0.1985  
G01 X-1.2318 Y0.1932  
G01 X-1.2272 Y0.1885  
G01 X-1.2218 Y0.1847  
G01 X-1.2160 Y0.1817  
G01 X-1.2098 Y0.1797  
G01 X-1.2033 Y0.1786  
G01 X-1.1967 Y0.1786  
G01 X-1.1902 Y0.1797  
G01 X-1.1840 Y0.1817  
G01 X-1.1782 Y0.1847  
G01 X-1.1728 Y0.1885  
G01 X-1.1682 Y0.1932  
G01 X-1.1643 Y0.1985  
G01 X-1.1614 Y0.2043  
G01 X-1.1593 Y0.2106  
G01 X-1.1583 Y0.2170  
G01 X-1.1583 Y0.2830  
G01 X-1.1593 Y0.2894  
G01 X-1.1614 Y0.2957  
G01 X-1.1643 Y0.3015  
G01 X-1.1682 Y0.3068  
G01 X-1.1728 Y0.3115  
G01 X-1.1751 Y0.3131  
G01 X-1.1752 Y0.3133  
G01 X-1.1783 Y0.3178  
G01 X-1.3720 Y0.5116  
G01 X-1.3720 Y0.5825  
G01 X-1.3717 Y0.5822  
G01 X-1.1280 Y0.3384  
G01 X-1.1280 Y0.3106  
G01 X-1.1318 Y0.3068  
G01 X-1.1357 Y0.3015  
G01 X-1.1386 Y0.2957  
G01 X-1.1407 Y0.2894  
G01 X-1.1417 Y0.2830  
G01 X-1.1417 Y0.2170  
G01 X-1.1407 Y0.2106  
G01 X-1.1386 Y0.2043  
G01 X-1.1357 Y0.1985  
G01 X-1.1318 Y0.1932  
G01 X-1.1272 Y0.1885  
G01 X-1.1218 Y0.1847  
G01 X-1.1160 Y0.1817  
G01 X-1.1098 Y0.1797  
G01 X-1.1033 Y0.1786  
G01 X-1.0967 Y0.1786  
G01 X-1.0902 Y0.1797  
G01 X-1.0840 Y0.1817  
G01 X-1.0782 Y0.1847  
G01 X-1.0728 Y0.1885  
G01 X-1.0682 Y0.1932  
G01 X-1.0643 Y0.1985  
G01 X-1.0614 Y0.2043  
G01 X-1.0593 Y0.2106  
G01 X-1.0583 Y0.2170  
G01 X-1.0583 Y0.2830  
G01 X-1.0593 Y0.2894  
G01 X-1.0614 Y0.2957  
G01 X-1.0643 Y0.3015  
G01 X-1.0682 Y0.3068  
G01 X-1.0720 Y0.3106  
G01 X-1.0720 Y0.3528  
G01 X-1.0731 Y0.3582  
G01 X-1.0752 Y0.3633  
G01 X-1.0783 Y0.3678  
G01 X-1.3310 Y0.6206  
G01 X-1.3310 Y0.6226  
G01 X-1.3196 Y0.6112  
G01 X-1.2836 Y0.6112  
G01 X-1.2768 Y0.6180  
G01 X-1.2468 Y0.6180  
G01 X-1.2407 Y0.6192  
G01 X-1.2348 Y0.6216  
G01 X-1.2296 Y0.6251  
G01 X-1.2251 Y0.6296  
G01 X-1.0250 Y0.8297  
G01 X-0.8131 Y0.6178  
G01 X-0.8131 Y0.5384  
G01 X-0.8169 Y0.5357  
G01 X-0.8231 Y0.5295  
G01 X-0.8281 Y0.5225  
G01 X-0.8321 Y0.5148  
G01 X-0.8347 Y0.5066  
G01 X-0.8361 Y0.4980  
G01 X-0.8361 Y0.4894  
G01 X-0.8347 Y0.4808  
G01 X-0.8321 Y0.4726  
G01 X-0.8281 Y0.4649  
G01 X-0.8231 Y0.4579  
G01 X-0.8169 Y0.4517  
G01 X-0.8099 Y0.4467  
G01 X-0.8022 Y0.4427  
G01 X-0.7940 Y0.4401  
G01 X-0.7854 Y0.4387  
G01 X-0.7768 Y0.4387  
G01 X-0.7682 Y0.4401  
G01 X-0.7600 Y0.4427  
G01 X-0.7523 Y0.4467  
G01 X-0.7453 Y0.4517  
G01 X-0.7392 Y0.4579  
G01 X-0.7341 Y0.4649  
G01 X-0.7301 Y0.4726  
G01 X-0.7275 Y0.4808  
G01 X-0.7261 Y0.4894  
G01 X-0.7261 Y0.4980  
G01 X-0.7275 Y0.5066  
G01 X-0.7301 Y0.5148  
G01 X-0.7341 Y0.5225  
G01 X-0.7392 Y0.5295  
G01 X-0.7453 Y0.5357  
G01 X-0.7491 Y0.5384  
G01 X-0.7491 Y0.6343  
G01 X-0.7503 Y0.6404  
G01 X-0.7527 Y0.6463  
G01 X-0.7562 Y0.6515  
G01 X-0.9797 Y0.8750  
G01 X-0.9751 Y0.8796  
G01 X-0.9716 Y0.8848  
G01 X-0.9692 Y0.8907  
G01 X-0.9680 Y0.8968  
G01 X-0.9680 Y1.9532  
G01 X-0.9692 Y1.9593  
G01 X-0.9716 Y1.9652  
G01 X-0.9751 Y1.9704  
G01 X-0.9796 Y1.9749  
G01 X-1.0843 Y2.0796  
G01 X-1.0896 Y2.0831  
G01 X-1.0954 Y2.0855  
G01 X-1.1016 Y2.0867  
G01 X-1.2696 Y2.0867  
G01 X-1.2696 Y2.6852  
G01 X-1.0867 Y2.8680  
G01 X-0.4633 Y2.8680  
G01 X-0.3320 Y2.7367  
G01 X-0.3320 Y2.7066  
G01 X-0.3357 Y2.7015  
G01 X-0.3386 Y2.6957  
G01 X-0.3407 Y2.6894  
G01 X-0.3417 Y2.6830  
G01 X-0.3417 Y2.6170  
G01 X-0.3407 Y2.6106  
G01 X-0.3386 Y2.6043  
G01 X-0.3357 Y2.5985  
G01 X-0.3320 Y2.5934  
G01 X-0.3320 Y2.4566  
G01 X-0.3357 Y2.4515  
G01 X-0.3386 Y2.4457  
G01 X-0.3407 Y2.4394  
