(.../pcb-gcode-3.6.2.4/pcb-gcode.ulp)
(Copyright 2005 - 2012 by John Johnson)
(See readme.txt for licensing terms.)
(This file generated from the board:)
(.../atmega_midi_pg800/eagle/vca_chorus_pots.brd)
(Current profile is .../pcb-gcode-3.6.2.4/profiles/mach.pp  )
(This file generated 3/4/17 7:59 PM)
(Settings from pcb-machine.h)
(spindle on time = 0.0000)
(spindle speed = 15000.0000)
(milling depth = -0.0730)
(tool change at 0.0000  0.0000  1.5000  )
(feed rate xy = F10    )
(feed rate z  = F5     )
(Z Axis Settings)
(  High     Up        Down     Drill)
(0.2500  	0.0500  	-0.0030 	-0.0710 )
(Settings from pcb-defaults.h)
(isolate min = 0.0030)
(isolate max = 0.0200)
(isolate step = 0.0025)
(Generated bottom outlines, bottom drill, )
(Unit of measure: inch)
(Inch Mode)
G20
(Absolute Coordinates)
G90
S15000
G00 Z0.2500  
G00 X0.0000  Y0.0000  
M03
G04 P0.000000
G00 Z0.0500  
G00 X-0.6250 Y0.0000  
G01 Z-0.0730 F5     
G01 X-1.5500 Y0.0000  F10    
G01 X-1.8000 Y0.2500  
G01 X-1.8000 Y2.8000  
G01 X-1.6500 Y2.9750  
G01 X-0.1000 Y2.9750  
G01 X0.0250  Y2.8500  
G01 X0.0250  Y0.6500  
G01 X-0.6250 Y0.0000  
G00 Z0.2500  
M05
M02
