(.../pcb-gcode-3.6.2.4/pcb-gcode.ulp)
(Copyright 2005 - 2012 by John Johnson)
(See readme.txt for licensing terms.)
(This file generated from the board:)
(.../atmega_midi_pg800/eagle/vca_chorus_pots.brd)
(Current profile is .../pcb-gcode-3.6.2.4/profiles/mach.pp  )
(This file generated 3/4/17 7:59 PM)
(Settings from pcb-machine.h)
(spindle on time = 0.0000)
(spindle speed = 20000.0000)
(tool change at 0.0000  0.0000  1.5000  )
(feed rate xy = F0     )
(feed rate z  = F20    )
(Z Axis Settings)
(  High     Up        Down     Drill)
(0.2500  	0.0500  	-0.0030 	-0.0710 )
(Settings from pcb-defaults.h)
(isolate min = 0.0030)
(isolate max = 0.0200)
(isolate step = 0.0025)
(Generated bottom outlines, bottom drill, )
(Unit of measure: inch)
( Tool|       Size       |  Min Sub |  Max Sub |   Count )
( T01 | 0.800mm 0.0315in | 0.0000in | 0.0000in |       0 )
( T02 | 1.000mm 0.0394in | 0.0000in | 0.0000in |       0 )
( T03 | 1.200mm 0.0472in | 0.0000in | 0.0000in |       0 )
( T04 | 1.700mm 0.0669in | 0.0000in | 0.0000in |       0 )
( T05 | 2.000mm 0.0787in | 0.0000in | 0.0000in |       0 )
(Inch Mode)
G20
(Absolute Coordinates)
G90
S20000
G00 Z0.2500  
G00 X0.0000  Y0.0000  
M03
G04 P0.000000
M05
G00 Z1.5000  
M06 T01  ; 0.0315  
G01 Z0.0000  F20    
M06 
G00 Z0.0500  
M03
G04 P0.000000
G82 X-1.2000 Y2.6500  Z-0.0710 F20    R0.0500  P0.250000
G82 X-1.4000 Y2.6500  
M05
G00 Z1.5000  
G00 X0.0000  Y0.0000  
M06 T02  ; 0.0394  
G01 Z0.0000  F20    
M06 
G00 Z0.0500  
M03
G04 P0.000000
G82 X-0.2016 Y0.9547  Z-0.0710 F20    R0.0500  P0.250000
G82 X-0.3000 Y0.9547  
G82 X-0.3984 Y0.9547  
G82 X-0.3984 Y1.7047  
G82 X-0.3000 Y1.7047  
G82 X-0.2016 Y1.7047  
G82 X-0.3000 Y2.4000  
G82 X-0.4000 Y2.4000  
G82 X-0.4000 Y2.6500  
G82 X-0.3000 Y2.6500  
G82 X-1.3016 Y2.0547  
G82 X-1.4000 Y2.0547  
G82 X-1.4984 Y2.0547  
G82 X-1.4984 Y1.3547  
G82 X-1.4000 Y1.3547  
G82 X-1.3016 Y1.3547  
G82 X-1.3016 Y0.6547  
G82 X-1.4000 Y0.6547  
G82 X-1.4984 Y0.6547  
G82 X-1.3000 Y0.2500  
G82 X-1.2000 Y0.2500  
G82 X-1.1000 Y0.2500  
G82 X-1.0000 Y0.2500  
G82 X-0.9000 Y0.2500  
G82 X-0.8000 Y0.2500  
M05
G00 Z1.5000  
G00 X0.0000  Y0.0000  
M06 T03  ; 0.0472  
G01 Z0.0000  F20    
M06 
G00 Z0.0500  
M03
G04 P0.000000
G82 X-0.7811 Y0.4937  Z-0.0710 F20    R0.0500  P0.250000
G82 X-0.9189 Y0.4937  
G82 X-0.7811 Y2.8063  
M05
G00 Z1.5000  
G00 X0.0000  Y0.0000  
M06 T04  ; 0.0669  
G01 Z0.0000  F20    
M06 
G00 Z0.0500  
M03
G04 P0.000000
G82 X-0.6846 Y0.7043  Z-0.0710 F20    R0.0500  P0.250000
G82 X-1.0154 Y0.6571  
G82 X-0.6846 Y2.5957  
G82 X-1.0154 Y2.6429  
M05
G00 Z1.5000  
G00 X0.0000  Y0.0000  
M06 T05  ; 0.0787  
G01 Z0.0000  F20    
M06 
G00 Z0.0500  
M03
G04 P0.000000
G82 X-0.0933 Y1.2500  Z-0.0710 F20    R0.0500  P0.250000
G82 X-0.5067 Y1.2500  
G82 X-1.1933 Y0.9500  
G82 X-1.6067 Y0.9500  
G82 X-1.6067 Y1.6500  
G82 X-1.1933 Y1.6500  
G82 X-1.1933 Y2.3500  
G82 X-1.6067 Y2.3500  
G82 X-0.5067 Y2.0000  
G82 X-0.0933 Y2.0000  
T01 
G00 Z0.2500  
M05
M02
