(.../pcb-gcode-3.6.2.4/pcb-gcode.ulp)
(Copyright 2005 - 2012 by John Johnson)
(See readme.txt for licensing terms.)
(This file generated from the board:)
(.../atmega_midi_pg800/eagle/vcf_pots.brd)
(Current profile is .../pcb-gcode-3.6.2.4/profiles/mach.pp  )
(This file generated 2/27/17 6:00 PM)
(Settings from pcb-machine.h)
(spindle on time = 0.0000)
(  Tool Size)
(0.0030  )
(spindle speed = 30000.0000)
(tool change at 0.0000  0.0000  1.5000  )
(feed rate xy = F20    )
(feed rate z  = F10    )
(Z Axis Settings)
(  High     Up        Down     Drill)
(0.2500  	0.0500  	-0.0030 	-0.0710 )
(Settings from pcb-defaults.h)
(isolate min = 0.0030)
(isolate max = 0.0200)
(isolate step = 0.0025)
(Generated bottom outlines, bottom drill, )
(Unit of measure: inch)
(Inch Mode)
G20
(Absolute Coordinates)
G90
S30000
G00 Z0.2500  
G00 X0.0000  Y0.0000  
M03
G04 P0.000000
G00 Z0.0500  
G00 X-0.1949 Y0.4628  
G01 Z-0.0030 F10    
G01 X-0.1905 Y0.4688  F20    
G01 X-0.1871 Y0.4755  
G01 X-0.1848 Y0.4826  
G01 X-0.1836 Y0.4900  
G01 X-0.1836 Y0.4974  
G01 X-0.1848 Y0.5048  
G01 X-0.1871 Y0.5119  
G01 X-0.1905 Y0.5186  
G01 X-0.1949 Y0.5246  
G01 X-0.2002 Y0.5299  
G01 X-0.2062 Y0.5343  
G01 X-0.2106 Y0.5366  
G01 X-0.2106 Y0.6338  
G01 X-0.2120 Y0.6390  
G01 X-0.2147 Y0.6437  
G01 X-0.3836 Y0.8126  
G01 X-0.3874 Y0.8164  
G01 X-0.3921 Y0.8191  
G01 X-0.3973 Y0.8205  
G01 X-2.5295 Y0.8205  
G01 X-2.5295 Y1.0527  
G01 X-2.5309 Y1.0579  
G01 X-2.5336 Y1.0626  
G01 X-2.5374 Y1.0664  
G01 X-2.6210 Y1.1500  
G01 X-2.5336 Y1.2374  
G01 X-2.5309 Y1.2421  
G01 X-2.5295 Y1.2473  
G01 X-2.5295 Y1.7027  
G01 X-2.5309 Y1.7079  
G01 X-2.5336 Y1.7126  
G01 X-2.5374 Y1.7164  
G01 X-2.6210 Y1.8000  
G01 X-2.5336 Y1.8874  
G01 X-2.5309 Y1.8921  
G01 X-2.5295 Y1.8973  
G01 X-2.5295 Y2.2527  
G01 X-2.5309 Y2.2579  
G01 X-2.5336 Y2.2626  
G01 X-2.5374 Y2.2664  
G01 X-2.6795 Y2.4085  
G01 X-2.6795 Y2.5658  
G01 X-2.6669 Y2.5658  
G01 X-2.6603 Y2.5671  
G01 X-2.6541 Y2.5697  
G01 X-2.6485 Y2.5734  
G01 X-2.6438 Y2.5782  
G01 X-2.6400 Y2.5838  
G01 X-2.6374 Y2.5900  
G01 X-2.6361 Y2.5966  
G01 X-2.6361 Y2.6034  
G01 X-2.6374 Y2.6100  
G01 X-2.6400 Y2.6162  
G01 X-2.6438 Y2.6218  
G01 X-2.6485 Y2.6266  
G01 X-2.6541 Y2.6303  
G01 X-2.6603 Y2.6329  
G01 X-2.6669 Y2.6342  
G01 X-2.7331 Y2.6342  
G01 X-2.7397 Y2.6329  
G01 X-2.7459 Y2.6303  
G01 X-2.7515 Y2.6266  
G01 X-2.7562 Y2.6218  
G01 X-2.7571 Y2.6205  
G01 X-2.9429 Y2.6205  
G01 X-2.9438 Y2.6218  
G01 X-2.9485 Y2.6266  
G01 X-2.9541 Y2.6303  
G01 X-2.9603 Y2.6329  
G01 X-2.9669 Y2.6342  
G01 X-3.0331 Y2.6342  
G01 X-3.0397 Y2.6329  
G01 X-3.0459 Y2.6303  
G01 X-3.0515 Y2.6266  
G01 X-3.0562 Y2.6218  
G01 X-3.0600 Y2.6162  
G01 X-3.0626 Y2.6100  
G01 X-3.0639 Y2.6034  
G01 X-3.0639 Y2.5966  
G01 X-3.0626 Y2.5900  
G01 X-3.0600 Y2.5838  
G01 X-3.0562 Y2.5782  
G01 X-3.0515 Y2.5734  
G01 X-3.0459 Y2.5697  
G01 X-3.0397 Y2.5671  
G01 X-3.0331 Y2.5658  
G01 X-2.9669 Y2.5658  
G01 X-2.9603 Y2.5671  
G01 X-2.9541 Y2.5697  
G01 X-2.9485 Y2.5734  
G01 X-2.9438 Y2.5782  
G01 X-2.9429 Y2.5795  
G01 X-2.7571 Y2.5795  
G01 X-2.7562 Y2.5782  
G01 X-2.7515 Y2.5734  
G01 X-2.7459 Y2.5697  
G01 X-2.7397 Y2.5671  
G01 X-2.7331 Y2.5658  
G01 X-2.7205 Y2.5658  
G01 X-2.7205 Y2.3973  
G01 X-2.7191 Y2.3921  
G01 X-2.7164 Y2.3874  
G01 X-2.5705 Y2.2415  
G01 X-2.5705 Y1.9085  
G01 X-2.6538 Y1.8252  
G01 X-2.7712 Y1.8252  
G01 X-2.7867 Y1.8407  
G01 X-2.8165 Y1.8407  
G01 X-2.8376 Y1.8196  
G01 X-2.8376 Y1.7898  
G01 X-2.8165 Y1.7687  
G01 X-2.7867 Y1.7687  
G01 X-2.7759 Y1.7795  
G01 X-2.6585 Y1.7795  
G01 X-2.5705 Y1.6915  
G01 X-2.5705 Y1.2585  
G01 X-2.6538 Y1.1752  
G01 X-2.7712 Y1.1752  
G01 X-2.7867 Y1.1907  
G01 X-2.8165 Y1.1907  
G01 X-2.8376 Y1.1696  
G01 X-2.8376 Y1.1398  
G01 X-2.8165 Y1.1187  
G01 X-2.7867 Y1.1187  
G01 X-2.7759 Y1.1295  
G01 X-2.6585 Y1.1295  
G01 X-2.5705 Y1.0415  
G01 X-2.5705 Y0.7648  
G01 X-2.7946 Y0.5407  
G01 X-2.8165 Y0.5407  
G01 X-2.8376 Y0.5196  
G01 X-2.8376 Y0.4898  
G01 X-2.8165 Y0.4687  
G01 X-2.7867 Y0.4687  
G01 X-2.7656 Y0.4898  
G01 X-2.7656 Y0.5117  
G01 X-2.5336 Y0.7437  
G01 X-2.5309 Y0.7484  
G01 X-2.5295 Y0.7536  
G01 X-2.5295 Y0.7795  
G01 X-2.3205 Y0.7795  
G01 X-2.3205 Y0.6473  
G01 X-2.3191 Y0.6421  
G01 X-2.3164 Y0.6374  
G01 X-2.3126 Y0.6336  
G01 X-2.2516 Y0.5726  
G01 X-2.2516 Y0.5366  
G01 X-2.2560 Y0.5343  
G01 X-2.2620 Y0.5299  
G01 X-2.2673 Y0.5246  
G01 X-2.2717 Y0.5186  
G01 X-2.2751 Y0.5119  
G01 X-2.2774 Y0.5048  
G01 X-2.2786 Y0.4974  
G01 X-2.2786 Y0.4900  
G01 X-2.2774 Y0.4826  
G01 X-2.2751 Y0.4755  
G01 X-2.2717 Y0.4688  
G01 X-2.2673 Y0.4628  
G01 X-2.2620 Y0.4575  
G01 X-2.2560 Y0.4531  
G01 X-2.2493 Y0.4497  
G01 X-2.2422 Y0.4474  
G01 X-2.2348 Y0.4462  
G01 X-2.2274 Y0.4462  
G01 X-2.2200 Y0.4474  
G01 X-2.2129 Y0.4497  
G01 X-2.2062 Y0.4531  
G01 X-2.2002 Y0.4575  
G01 X-2.1949 Y0.4628  
G01 X-2.1905 Y0.4688  
G01 X-2.1871 Y0.4755  
G01 X-2.1848 Y0.4826  
G01 X-2.1836 Y0.4900  
G01 X-2.1836 Y0.4974  
G01 X-2.1848 Y0.5048  
G01 X-2.1871 Y0.5119  
G01 X-2.1905 Y0.5186  
G01 X-2.1949 Y0.5246  
G01 X-2.2002 Y0.5299  
G01 X-2.2062 Y0.5343  
G01 X-2.2106 Y0.5366  
G01 X-2.2106 Y0.5838  
G01 X-2.2120 Y0.5890  
G01 X-2.2147 Y0.5937  
G01 X-2.2795 Y0.6585  
G01 X-2.2795 Y0.7795  
G01 X-1.8205 Y0.7795  
G01 X-1.8205 Y0.6473  
G01 X-1.8191 Y0.6421  
G01 X-1.8164 Y0.6374  
G01 X-1.8126 Y0.6336  
G01 X-1.7516 Y0.5726  
G01 X-1.7516 Y0.5366  
G01 X-1.7560 Y0.5343  
G01 X-1.7620 Y0.5299  
G01 X-1.7673 Y0.5246  
G01 X-1.7717 Y0.5186  
G01 X-1.7751 Y0.5119  
G01 X-1.7774 Y0.5048  
G01 X-1.7786 Y0.4974  
G01 X-1.7786 Y0.4900  
G01 X-1.7774 Y0.4826  
G01 X-1.7751 Y0.4755  
G01 X-1.7717 Y0.4688  
G01 X-1.7673 Y0.4628  
G01 X-1.7620 Y0.4575  
G01 X-1.7560 Y0.4531  
G01 X-1.7493 Y0.4497  
G01 X-1.7422 Y0.4474  
G01 X-1.7348 Y0.4462  
G01 X-1.7274 Y0.4462  
G01 X-1.7200 Y0.4474  
G01 X-1.7129 Y0.4497  
G01 X-1.7062 Y0.4531  
G01 X-1.7002 Y0.4575  
G01 X-1.6949 Y0.4628  
G01 X-1.6905 Y0.4688  
G01 X-1.6871 Y0.4755  
G01 X-1.6848 Y0.4826  
G01 X-1.6836 Y0.4900  
G01 X-1.6836 Y0.4974  
G01 X-1.6848 Y0.5048  
G01 X-1.6871 Y0.5119  
G01 X-1.6905 Y0.5186  
G01 X-1.6949 Y0.5246  
G01 X-1.7002 Y0.5299  
G01 X-1.7062 Y0.5343  
G01 X-1.7106 Y0.5366  
G01 X-1.7106 Y0.5838  
G01 X-1.7120 Y0.5890  
G01 X-1.7147 Y0.5937  
G01 X-1.7795 Y0.6585  
G01 X-1.7795 Y0.7795  
G01 X-1.3205 Y0.7795  
G01 X-1.3205 Y0.6473  
G01 X-1.3191 Y0.6421  
G01 X-1.3164 Y0.6374  
G01 X-1.3126 Y0.6336  
G01 X-1.2516 Y0.5726  
G01 X-1.2516 Y0.5366  
G01 X-1.2560 Y0.5343  
G01 X-1.2620 Y0.5299  
G01 X-1.2673 Y0.5246  
G01 X-1.2717 Y0.5186  
G01 X-1.2751 Y0.5119  
G01 X-1.2774 Y0.5048  
G01 X-1.2786 Y0.4974  
G01 X-1.2786 Y0.4900  
G01 X-1.2774 Y0.4826  
G01 X-1.2751 Y0.4755  
G01 X-1.2717 Y0.4688  
G01 X-1.2673 Y0.4628  
G01 X-1.2620 Y0.4575  
G01 X-1.2560 Y0.4531  
G01 X-1.2493 Y0.4497  
G01 X-1.2422 Y0.4474  
G01 X-1.2348 Y0.4462  
G01 X-1.2274 Y0.4462  
G01 X-1.2200 Y0.4474  
G01 X-1.2129 Y0.4497  
G01 X-1.2062 Y0.4531  
G01 X-1.2002 Y0.4575  
G01 X-1.1949 Y0.4628  
G01 X-1.1905 Y0.4688  
G01 X-1.1871 Y0.4755  
G01 X-1.1848 Y0.4826  
G01 X-1.1836 Y0.4900  
G01 X-1.1836 Y0.4974  
G01 X-1.1848 Y0.5048  
G01 X-1.1871 Y0.5119  
G01 X-1.1905 Y0.5186  
G01 X-1.1949 Y0.5246  
G01 X-1.2002 Y0.5299  
G01 X-1.2062 Y0.5343  
G01 X-1.2106 Y0.5366  
G01 X-1.2106 Y0.5838  
G01 X-1.2120 Y0.5890  
G01 X-1.2147 Y0.5937  
G01 X-1.2795 Y0.6585  
G01 X-1.2795 Y0.7795  
G01 X-0.8205 Y0.7795  
G01 X-0.8205 Y0.6473  
G01 X-0.8191 Y0.6421  
G01 X-0.8164 Y0.6374  
G01 X-0.8126 Y0.6336  
G01 X-0.7516 Y0.5726  
G01 X-0.7516 Y0.5366  
G01 X-0.7560 Y0.5343  
G01 X-0.7620 Y0.5299  
G01 X-0.7673 Y0.5246  
G01 X-0.7717 Y0.5186  
G01 X-0.7751 Y0.5119  
G01 X-0.7774 Y0.5048  
G01 X-0.7786 Y0.4974  
G01 X-0.7786 Y0.4900  
G01 X-0.7774 Y0.4826  
G01 X-0.7751 Y0.4755  
G01 X-0.7717 Y0.4688  
G01 X-0.7673 Y0.4628  
G01 X-0.7620 Y0.4575  
G01 X-0.7560 Y0.4531  
G01 X-0.7493 Y0.4497  
G01 X-0.7422 Y0.4474  
G01 X-0.7348 Y0.4462  
G01 X-0.7274 Y0.4462  
G01 X-0.7200 Y0.4474  
G01 X-0.7129 Y0.4497  
G01 X-0.7062 Y0.4531  
G01 X-0.7002 Y0.4575  
G01 X-0.6949 Y0.4628  
G01 X-0.6905 Y0.4688  
G01 X-0.6871 Y0.4755  
G01 X-0.6848 Y0.4826  
G01 X-0.6836 Y0.4900  
G01 X-0.6836 Y0.4974  
G01 X-0.6848 Y0.5048  
G01 X-0.6871 Y0.5119  
G01 X-0.6905 Y0.5186  
G01 X-0.6949 Y0.5246  
G01 X-0.7002 Y0.5299  
G01 X-0.7062 Y0.5343  
G01 X-0.7106 Y0.5366  
G01 X-0.7106 Y0.5838  
G01 X-0.7120 Y0.5890  
G01 X-0.7147 Y0.5937  
G01 X-0.7795 Y0.6585  
G01 X-0.7795 Y0.7795  
G01 X-0.4085 Y0.7795  
G01 X-0.2516 Y0.6226  
G01 X-0.2516 Y0.5366  
G01 X-0.2560 Y0.5343  
G01 X-0.2620 Y0.5299  
G01 X-0.2673 Y0.5246  
G01 X-0.2717 Y0.5186  
G01 X-0.2751 Y0.5119  
G01 X-0.2774 Y0.5048  
G01 X-0.2786 Y0.4974  
G01 X-0.2786 Y0.4900  
G01 X-0.2774 Y0.4826  
G01 X-0.2751 Y0.4755  
G01 X-0.2717 Y0.4688  
G01 X-0.2673 Y0.4628  
G01 X-0.2620 Y0.4575  
G01 X-0.2560 Y0.4531  
G01 X-0.2493 Y0.4497  
G01 X-0.2422 Y0.4474  
G01 X-0.2348 Y0.4462  
G01 X-0.2274 Y0.4462  
G01 X-0.2200 Y0.4474  
G01 X-0.2129 Y0.4497  
G01 X-0.2062 Y0.4531  
G01 X-0.2002 Y0.4575  
G01 X-0.1949 Y0.4628  
G00 Z0.0500  
G00 X-0.3327 Y0.4628  
G01 Z-0.0030 F10    
G01 X-0.3283 Y0.4688  F20    
G01 X-0.3249 Y0.4755  
G01 X-0.3226 Y0.4826  
G01 X-0.3214 Y0.4900  
G01 X-0.3214 Y0.4974  
G01 X-0.3226 Y0.5048  
G01 X-0.3249 Y0.5119  
G01 X-0.3283 Y0.5186  
G01 X-0.3327 Y0.5246  
G01 X-0.3380 Y0.5299  
G01 X-0.3440 Y0.5343  
G01 X-0.3507 Y0.5377  
G01 X-0.3578 Y0.5400  
G01 X-0.3652 Y0.5412  
G01 X-0.3726 Y0.5412  
G01 X-0.3800 Y0.5400  
G01 X-0.3871 Y0.5377  
G01 X-0.3938 Y0.5343  
G01 X-0.3998 Y0.5299  
G01 X-0.4051 Y0.5246  
G01 X-0.4095 Y0.5186  
G01 X-0.4129 Y0.5119  
G01 X-0.4152 Y0.5048  
G01 X-0.4164 Y0.4974  
G01 X-0.4164 Y0.4900  
G01 X-0.4152 Y0.4826  
G01 X-0.4137 Y0.4779  
G01 X-0.6711 Y0.2205  
G01 X-1.7158 Y0.2205  
G01 X-1.7158 Y0.2331  
G01 X-1.7171 Y0.2397  
G01 X-1.7197 Y0.2459  
G01 X-1.7234 Y0.2515  
G01 X-1.7282 Y0.2562  
G01 X-1.7338 Y0.2600  
G01 X-1.7400 Y0.2626  
G01 X-1.7466 Y0.2639  
G01 X-1.7534 Y0.2639  
G01 X-1.7600 Y0.2626  
G01 X-1.7662 Y0.2600  
G01 X-1.7718 Y0.2562  
G01 X-1.7766 Y0.2515  
G01 X-1.7803 Y0.2459  
G01 X-1.7829 Y0.2397  
G01 X-1.7842 Y0.2331  
G01 X-1.7842 Y0.1669  
G01 X-1.7829 Y0.1603  
G01 X-1.7803 Y0.1541  
G01 X-1.7766 Y0.1485  
G01 X-1.7718 Y0.1438  
G01 X-1.7662 Y0.1400  
G01 X-1.7600 Y0.1374  
G01 X-1.7534 Y0.1361  
G01 X-1.7466 Y0.1361  
G01 X-1.7400 Y0.1374  
G01 X-1.7338 Y0.1400  
G01 X-1.7282 Y0.1438  
G01 X-1.7234 Y0.1485  
G01 X-1.7197 Y0.1541  
G01 X-1.7171 Y0.1603  
G01 X-1.7158 Y0.1669  
G01 X-1.7158 Y0.1795  
G01 X-0.6599 Y0.1795  
G01 X-0.6547 Y0.1809  
G01 X-0.6500 Y0.1836  
G01 X-0.3847 Y0.4489  
G01 X-0.3800 Y0.4474  
G01 X-0.3726 Y0.4462  
G01 X-0.3652 Y0.4462  
G01 X-0.3578 Y0.4474  
G01 X-0.3507 Y0.4497  
G01 X-0.3440 Y0.4531  
G01 X-0.3380 Y0.4575  
G01 X-0.3327 Y0.4628  
G00 Z0.0500  
G00 X-0.4236 Y0.6215  
G01 Z-0.0030 F10    
G01 X-0.4186 Y0.6284  F20    
G01 X-0.4147 Y0.6361  
G01 X-0.4120 Y0.6443  
G01 X-0.4107 Y0.6528  
G01 X-0.4107 Y0.6614  
G01 X-0.4120 Y0.6699  
G01 X-0.4147 Y0.6781  
G01 X-0.4186 Y0.6858  
G01 X-0.4236 Y0.6927  
G01 X-0.4297 Y0.6988  
G01 X-0.4367 Y0.7039  
G01 X-0.4444 Y0.7078  
G01 X-0.4525 Y0.7104  
G01 X-0.4610 Y0.7118  
G01 X-0.4697 Y0.7118  
G01 X-0.4782 Y0.7104  
G01 X-0.4864 Y0.7078  
G01 X-0.4940 Y0.7039  
G01 X-0.5010 Y0.6988  
G01 X-0.5071 Y0.6927  
G01 X-0.5121 Y0.6858  
G01 X-0.5160 Y0.6781  
G01 X-0.5187 Y0.6699  
G01 X-0.5201 Y0.6614  
G01 X-0.5201 Y0.6528  
G01 X-0.5187 Y0.6443  
G01 X-0.5160 Y0.6361  
G01 X-0.5121 Y0.6284  
G01 X-0.5071 Y0.6215  
G01 X-0.5010 Y0.6154  
G01 X-0.4940 Y0.6103  
G01 X-0.4864 Y0.6064  
G01 X-0.4782 Y0.6037  
G01 X-0.4697 Y0.6024  
G01 X-0.4610 Y0.6024  
G01 X-0.4525 Y0.6037  
G01 X-0.4444 Y0.6064  
G01 X-0.4367 Y0.6103  
G01 X-0.4297 Y0.6154  
G01 X-0.4236 Y0.6215  
G00 Z0.0500  
G00 X-0.5929 Y0.6687  
G01 Z-0.0030 F10    
G01 X-0.5879 Y0.6757  F20    
G01 X-0.5840 Y0.6833  
G01 X-0.5813 Y0.6915  
G01 X-0.5799 Y0.7000  
G01 X-0.5799 Y0.7086  
G01 X-0.5813 Y0.7171  
G01 X-0.5840 Y0.7253  
G01 X-0.5879 Y0.7330  
G01 X-0.5929 Y0.7400  
G01 X-0.5990 Y0.7461  
G01 X-0.6060 Y0.7511  
G01 X-0.6136 Y0.7550  
G01 X-0.6218 Y0.7577  
G01 X-0.6303 Y0.7590  
G01 X-0.6390 Y0.7590  
G01 X-0.6475 Y0.7577  
G01 X-0.6556 Y0.7550  
G01 X-0.6633 Y0.7511  
G01 X-0.6703 Y0.7461  
G01 X-0.6764 Y0.7400  
G01 X-0.6814 Y0.7330  
G01 X-0.6853 Y0.7253  
G01 X-0.6880 Y0.7171  
G01 X-0.6893 Y0.7086  
G01 X-0.6893 Y0.7000  
G01 X-0.6880 Y0.6915  
G01 X-0.6853 Y0.6833  
G01 X-0.6814 Y0.6757  
G01 X-0.6764 Y0.6687  
G01 X-0.6703 Y0.6626  
G01 X-0.6633 Y0.6575  
G01 X-0.6556 Y0.6536  
G01 X-0.6475 Y0.6510  
G01 X-0.6390 Y0.6496  
G01 X-0.6303 Y0.6496  
G01 X-0.6218 Y0.6510  
G01 X-0.6136 Y0.6536  
G01 X-0.6060 Y0.6575  
G01 X-0.5990 Y0.6626  
G01 X-0.5929 Y0.6687  
G00 Z0.0500  
G00 X-0.9120 Y0.6699  
G01 Z-0.0030 F10    
G01 X-0.9147 Y0.6781  F20    
G01 X-0.9186 Y0.6858  
G01 X-0.9236 Y0.6927  
G01 X-0.9297 Y0.6988  
G01 X-0.9367 Y0.7039  
G01 X-0.9444 Y0.7078  
G01 X-0.9525 Y0.7104  
G01 X-0.9610 Y0.7118  
G01 X-0.9697 Y0.7118  
G01 X-0.9782 Y0.7104  
G01 X-0.9864 Y0.7078  
G01 X-0.9940 Y0.7039  
G01 X-1.0010 Y0.6988  
G01 X-1.0071 Y0.6927  
G01 X-1.0121 Y0.6858  
G01 X-1.0160 Y0.6781  
G01 X-1.0187 Y0.6699  
G01 X-1.0201 Y0.6614  
G01 X-1.0201 Y0.6528  
G01 X-1.0187 Y0.6443  
G01 X-1.0160 Y0.6361  
G01 X-1.0121 Y0.6284  
G01 X-1.0071 Y0.6215  
G01 X-1.0010 Y0.6154  
G01 X-0.9940 Y0.6103  
G01 X-0.9864 Y0.6064  
G01 X-0.9782 Y0.6037  
G01 X-0.9697 Y0.6024  
G01 X-0.9610 Y0.6024  
G01 X-0.9525 Y0.6037  
G01 X-0.9444 Y0.6064  
G01 X-0.9367 Y0.6103  
G01 X-0.9297 Y0.6154  
G01 X-0.9236 Y0.6215  
G01 X-0.9186 Y0.6284  
G01 X-0.9147 Y0.6361  
G01 X-0.9120 Y0.6443  
G01 X-0.9107 Y0.6528  
G01 X-0.9107 Y0.6614  
G01 X-0.9120 Y0.6699  
G00 Z0.0500  
G00 X-0.9051 Y0.5246  
G01 Z-0.0030 F10    
G01 X-0.9095 Y0.5186  F20    
G01 X-0.9129 Y0.5119  
G01 X-0.9152 Y0.5048  
G01 X-0.9164 Y0.4974  
G01 X-0.9164 Y0.4900  
G01 X-0.9152 Y0.4826  
G01 X-0.9147 Y0.4810  
G01 X-1.0703 Y0.3455  
G01 X-1.7993 Y0.3455  
G01 X-1.8014 Y0.3456  
G01 X-1.8020 Y0.3455  
G01 X-1.8027 Y0.3455  
G01 X-1.8047 Y0.3450  
G01 X-1.8067 Y0.3446  
G01 X-1.8073 Y0.3443  
G01 X-1.8079 Y0.3441  
G01 X-1.8097 Y0.3431  
G01 X-1.8115 Y0.3422  
G01 X-1.8120 Y0.3417  
G01 X-1.8126 Y0.3414  
G01 X-1.8140 Y0.3400  
G01 X-1.8156 Y0.3386  
G01 X-1.8159 Y0.3381  
G01 X-1.8164 Y0.3376  
G01 X-1.8174 Y0.3358  
G01 X-1.8659 Y0.2631  
G01 X-1.8664 Y0.2626  
G01 X-1.8674 Y0.2608  
G01 X-1.8686 Y0.2591  
G01 X-1.8688 Y0.2585  
G01 X-1.8690 Y0.2581  
G01 X-1.8718 Y0.2562  
G01 X-1.8766 Y0.2515  
G01 X-1.8803 Y0.2459  
G01 X-1.8829 Y0.2397  
G01 X-1.8842 Y0.2331  
G01 X-1.8842 Y0.1669  
G01 X-1.8829 Y0.1603  
G01 X-1.8803 Y0.1541  
G01 X-1.8766 Y0.1485  
G01 X-1.8718 Y0.1438  
G01 X-1.8662 Y0.1400  
G01 X-1.8600 Y0.1374  
G01 X-1.8534 Y0.1361  
G01 X-1.8466 Y0.1361  
G01 X-1.8400 Y0.1374  
G01 X-1.8338 Y0.1400  
G01 X-1.8282 Y0.1438  
G01 X-1.8234 Y0.1485  
G01 X-1.8197 Y0.1541  
G01 X-1.8171 Y0.1603  
G01 X-1.8158 Y0.1669  
G01 X-1.8158 Y0.2331  
G01 X-1.8171 Y0.2397  
G01 X-1.8197 Y0.2459  
G01 X-1.8234 Y0.2515  
G01 X-1.8240 Y0.2520  
G01 X-1.7890 Y0.3045  
G01 X-1.0633 Y0.3045  
G01 X-1.0613 Y0.3044  
G01 X-1.0606 Y0.3045  
G01 X-1.0599 Y0.3045  
G01 X-1.0580 Y0.3050  
G01 X-1.0560 Y0.3054  
G01 X-1.0554 Y0.3057  
G01 X-1.0547 Y0.3059  
G01 X-1.0530 Y0.3069  
G01 X-1.0512 Y0.3078  
G01 X-1.0506 Y0.3082  
G01 X-1.0500 Y0.3086  
G01 X-1.0486 Y0.3100  
G01 X-0.8878 Y0.4500  
G01 X-0.8871 Y0.4497  
G01 X-0.8800 Y0.4474  
G01 X-0.8726 Y0.4462  
G01 X-0.8652 Y0.4462  
G01 X-0.8578 Y0.4474  
G01 X-0.8507 Y0.4497  
G01 X-0.8440 Y0.4531  
G01 X-0.8380 Y0.4575  
G01 X-0.8327 Y0.4628  
G01 X-0.8283 Y0.4688  
G01 X-0.8249 Y0.4755  
G01 X-0.8226 Y0.4826  
G01 X-0.8214 Y0.4900  
G01 X-0.8214 Y0.4974  
G01 X-0.8226 Y0.5048  
G01 X-0.8249 Y0.5119  
G01 X-0.8283 Y0.5186  
G01 X-0.8327 Y0.5246  
G01 X-0.8380 Y0.5299  
G01 X-0.8440 Y0.5343  
G01 X-0.8507 Y0.5377  
G01 X-0.8578 Y0.5400  
G01 X-0.8652 Y0.5412  
G01 X-0.8726 Y0.5412  
G01 X-0.8800 Y0.5400  
G01 X-0.8871 Y0.5377  
G01 X-0.8938 Y0.5343  
G01 X-0.8998 Y0.5299  
G01 X-0.9051 Y0.5246  
G00 Z0.0500  
G00 X-1.0929 Y0.6687  
G01 Z-0.0030 F10    
G01 X-1.0879 Y0.6757  F20    
G01 X-1.0840 Y0.6833  
G01 X-1.0813 Y0.6915  
G01 X-1.0799 Y0.7000  
G01 X-1.0799 Y0.7086  
G01 X-1.0813 Y0.7171  
G01 X-1.0840 Y0.7253  
G01 X-1.0879 Y0.7330  
G01 X-1.0929 Y0.7400  
G01 X-1.0990 Y0.7461  
G01 X-1.1060 Y0.7511  
G01 X-1.1136 Y0.7550  
G01 X-1.1218 Y0.7577  
G01 X-1.1303 Y0.7590  
G01 X-1.1390 Y0.7590  
G01 X-1.1475 Y0.7577  
G01 X-1.1556 Y0.7550  
G01 X-1.1633 Y0.7511  
G01 X-1.1703 Y0.7461  
G01 X-1.1764 Y0.7400  
G01 X-1.1814 Y0.7330  
G01 X-1.1853 Y0.7253  
G01 X-1.1880 Y0.7171  
G01 X-1.1893 Y0.7086  
G01 X-1.1893 Y0.7000  
G01 X-1.1880 Y0.6915  
G01 X-1.1853 Y0.6833  
G01 X-1.1814 Y0.6757  
G01 X-1.1764 Y0.6687  
G01 X-1.1703 Y0.6626  
G01 X-1.1633 Y0.6575  
G01 X-1.1556 Y0.6536  
G01 X-1.1475 Y0.6510  
G01 X-1.1390 Y0.6496  
G01 X-1.1303 Y0.6496  
G01 X-1.1218 Y0.6510  
G01 X-1.1136 Y0.6536  
G01 X-1.1060 Y0.6575  
G01 X-1.0990 Y0.6626  
G01 X-1.0929 Y0.6687  
G00 Z0.0500  
G00 X-1.4120 Y0.6699  
G01 Z-0.0030 F10    
G01 X-1.4147 Y0.6781  F20    
G01 X-1.4186 Y0.6858  
G01 X-1.4236 Y0.6927  
G01 X-1.4297 Y0.6988  
G01 X-1.4367 Y0.7039  
G01 X-1.4444 Y0.7078  
G01 X-1.4525 Y0.7104  
G01 X-1.4610 Y0.7118  
G01 X-1.4697 Y0.7118  
G01 X-1.4782 Y0.7104  
G01 X-1.4864 Y0.7078  
G01 X-1.4940 Y0.7039  
G01 X-1.5010 Y0.6988  
G01 X-1.5071 Y0.6927  
G01 X-1.5121 Y0.6858  
G01 X-1.5160 Y0.6781  
G01 X-1.5187 Y0.6699  
G01 X-1.5201 Y0.6614  
G01 X-1.5201 Y0.6528  
G01 X-1.5187 Y0.6443  
G01 X-1.5160 Y0.6361  
G01 X-1.5121 Y0.6284  
G01 X-1.5071 Y0.6215  
G01 X-1.5010 Y0.6154  
G01 X-1.4940 Y0.6103  
G01 X-1.4864 Y0.6064  
G01 X-1.4782 Y0.6037  
G01 X-1.4697 Y0.6024  
G01 X-1.4610 Y0.6024  
G01 X-1.4525 Y0.6037  
G01 X-1.4444 Y0.6064  
G01 X-1.4367 Y0.6103  
G01 X-1.4297 Y0.6154  
G01 X-1.4236 Y0.6215  
G01 X-1.4186 Y0.6284  
G01 X-1.4147 Y0.6361  
G01 X-1.4120 Y0.6443  
G01 X-1.4107 Y0.6528  
G01 X-1.4107 Y0.6614  
G01 X-1.4120 Y0.6699  
G00 Z0.0500  
G00 X-1.4051 Y0.5246  
G01 Z-0.0030 F10    
G01 X-1.4095 Y0.5186  F20    
G01 X-1.4129 Y0.5119  
G01 X-1.4152 Y0.5048  
G01 X-1.4164 Y0.4974  
G01 X-1.4164 Y0.4900  
G01 X-1.4152 Y0.4826  
G01 X-1.4137 Y0.4779  
G01 X-1.4711 Y0.4205  
G01 X-1.9027 Y0.4205  
G01 X-1.9079 Y0.4191  
G01 X-1.9126 Y0.4164  
G01 X-1.9164 Y0.4126  
G01 X-1.9664 Y0.3626  
G01 X-1.9691 Y0.3579  
G01 X-1.9705 Y0.3527  
G01 X-1.9705 Y0.2571  
G01 X-1.9718 Y0.2562  
G01 X-1.9766 Y0.2515  
G01 X-1.9803 Y0.2459  
G01 X-1.9829 Y0.2397  
G01 X-1.9842 Y0.2331  
G01 X-1.9842 Y0.1669  
G01 X-1.9829 Y0.1603  
G01 X-1.9803 Y0.1541  
G01 X-1.9766 Y0.1485  
G01 X-1.9718 Y0.1438  
G01 X-1.9662 Y0.1400  
G01 X-1.9600 Y0.1374  
G01 X-1.9534 Y0.1361  
G01 X-1.9466 Y0.1361  
G01 X-1.9400 Y0.1374  
G01 X-1.9338 Y0.1400  
G01 X-1.9282 Y0.1438  
G01 X-1.9234 Y0.1485  
G01 X-1.9197 Y0.1541  
G01 X-1.9171 Y0.1603  
G01 X-1.9158 Y0.1669  
G01 X-1.9158 Y0.2331  
G01 X-1.9171 Y0.2397  
G01 X-1.9197 Y0.2459  
G01 X-1.9234 Y0.2515  
G01 X-1.9282 Y0.2562  
G01 X-1.9295 Y0.2571  
G01 X-1.9295 Y0.3415  
G01 X-1.8915 Y0.3795  
G01 X-1.4599 Y0.3795  
G01 X-1.4547 Y0.3809  
G01 X-1.4500 Y0.3836  
G01 X-1.3847 Y0.4489  
G01 X-1.3800 Y0.4474  
G01 X-1.3726 Y0.4462  
G01 X-1.3652 Y0.4462  
G01 X-1.3578 Y0.4474  
G01 X-1.3507 Y0.4497  
G01 X-1.3440 Y0.4531  
G01 X-1.3380 Y0.4575  
G01 X-1.3327 Y0.4628  
G01 X-1.3283 Y0.4688  
G01 X-1.3249 Y0.4755  
G01 X-1.3226 Y0.4826  
G01 X-1.3214 Y0.4900  
G01 X-1.3214 Y0.4974  
G01 X-1.3226 Y0.5048  
G01 X-1.3249 Y0.5119  
G01 X-1.3283 Y0.5186  
G01 X-1.3327 Y0.5246  
G01 X-1.3380 Y0.5299  
G01 X-1.3440 Y0.5343  
G01 X-1.3507 Y0.5377  
G01 X-1.3578 Y0.5400  
G01 X-1.3652 Y0.5412  
G01 X-1.3726 Y0.5412  
G01 X-1.3800 Y0.5400  
G01 X-1.3871 Y0.5377  
G01 X-1.3938 Y0.5343  
G01 X-1.3998 Y0.5299  
G01 X-1.4051 Y0.5246  
G00 Z0.0500  
G00 X-1.5929 Y0.6687  
G01 Z-0.0030 F10    
G01 X-1.5879 Y0.6757  F20    
G01 X-1.5840 Y0.6833  
G01 X-1.5813 Y0.6915  
G01 X-1.5799 Y0.7000  
G01 X-1.5799 Y0.7086  
G01 X-1.5813 Y0.7171  
G01 X-1.5840 Y0.7253  
G01 X-1.5879 Y0.7330  
G01 X-1.5929 Y0.7400  
G01 X-1.5990 Y0.7461  
G01 X-1.6060 Y0.7511  
G01 X-1.6136 Y0.7550  
G01 X-1.6218 Y0.7577  
G01 X-1.6303 Y0.7590  
G01 X-1.6390 Y0.7590  
G01 X-1.6475 Y0.7577  
G01 X-1.6556 Y0.7550  
G01 X-1.6633 Y0.7511  
G01 X-1.6703 Y0.7461  
G01 X-1.6764 Y0.7400  
G01 X-1.6814 Y0.7330  
G01 X-1.6853 Y0.7253  
G01 X-1.6880 Y0.7171  
G01 X-1.6893 Y0.7086  
G01 X-1.6893 Y0.7000  
G01 X-1.6880 Y0.6915  
G01 X-1.6853 Y0.6833  
G01 X-1.6814 Y0.6757  
G01 X-1.6764 Y0.6687  
G01 X-1.6703 Y0.6626  
G01 X-1.6633 Y0.6575  
G01 X-1.6556 Y0.6536  
G01 X-1.6475 Y0.6510  
G01 X-1.6390 Y0.6496  
G01 X-1.6303 Y0.6496  
G01 X-1.6218 Y0.6510  
G01 X-1.6136 Y0.6536  
G01 X-1.6060 Y0.6575  
G01 X-1.5990 Y0.6626  
G01 X-1.5929 Y0.6687  
G00 Z0.0500  
G00 X-1.9120 Y0.6699  
G01 Z-0.0030 F10    
G01 X-1.9147 Y0.6781  F20    
G01 X-1.9186 Y0.6858  
G01 X-1.9236 Y0.6927  
G01 X-1.9297 Y0.6988  
G01 X-1.9367 Y0.7039  
G01 X-1.9444 Y0.7078  
G01 X-1.9525 Y0.7104  
G01 X-1.9610 Y0.7118  
G01 X-1.9697 Y0.7118  
G01 X-1.9782 Y0.7104  
G01 X-1.9864 Y0.7078  
G01 X-1.9940 Y0.7039  
G01 X-2.0010 Y0.6988  
G01 X-2.0071 Y0.6927  
G01 X-2.0121 Y0.6858  
G01 X-2.0160 Y0.6781  
G01 X-2.0187 Y0.6699  
G01 X-2.0201 Y0.6614  
G01 X-2.0201 Y0.6528  
G01 X-2.0187 Y0.6443  
G01 X-2.0160 Y0.6361  
G01 X-2.0121 Y0.6284  
G01 X-2.0071 Y0.6215  
G01 X-2.0010 Y0.6154  
G01 X-1.9940 Y0.6103  
G01 X-1.9864 Y0.6064  
G01 X-1.9782 Y0.6037  
G01 X-1.9697 Y0.6024  
G01 X-1.9610 Y0.6024  
G01 X-1.9525 Y0.6037  
G01 X-1.9444 Y0.6064  
G01 X-1.9367 Y0.6103  
G01 X-1.9297 Y0.6154  
G01 X-1.9236 Y0.6215  
G01 X-1.9186 Y0.6284  
G01 X-1.9147 Y0.6361  
G01 X-1.9120 Y0.6443  
G01 X-1.9107 Y0.6528  
G01 X-1.9107 Y0.6614  
G01 X-1.9120 Y0.6699  
G00 Z0.0500  
G00 X-1.9051 Y0.5246  
G01 Z-0.0030 F10    
G01 X-1.9081 Y0.5205  F20    
G01 X-1.9527 Y0.5205  
G01 X-1.9579 Y0.5191  
G01 X-1.9626 Y0.5164  
G01 X-1.9664 Y0.5126  
G01 X-2.0664 Y0.4126  
G01 X-2.0691 Y0.4079  
G01 X-2.0705 Y0.4027  
G01 X-2.0705 Y0.2571  
G01 X-2.0718 Y0.2562  
G01 X-2.0766 Y0.2515  
G01 X-2.0803 Y0.2459  
G01 X-2.0829 Y0.2397  
G01 X-2.0842 Y0.2331  
G01 X-2.0842 Y0.1669  
G01 X-2.0829 Y0.1603  
G01 X-2.0803 Y0.1541  
G01 X-2.0766 Y0.1485  
G01 X-2.0718 Y0.1438  
G01 X-2.0662 Y0.1400  
G01 X-2.0600 Y0.1374  
G01 X-2.0534 Y0.1361  
G01 X-2.0466 Y0.1361  
G01 X-2.0400 Y0.1374  
G01 X-2.0338 Y0.1400  
G01 X-2.0282 Y0.1438  
G01 X-2.0234 Y0.1485  
G01 X-2.0197 Y0.1541  
G01 X-2.0171 Y0.1603  
G01 X-2.0158 Y0.1669  
G01 X-2.0158 Y0.2331  
G01 X-2.0171 Y0.2397  
G01 X-2.0197 Y0.2459  
G01 X-2.0234 Y0.2515  
G01 X-2.0282 Y0.2562  
G01 X-2.0295 Y0.2571  
G01 X-2.0295 Y0.3915  
G01 X-1.9415 Y0.4795  
G01 X-1.9142 Y0.4795  
G01 X-1.9129 Y0.4755  
G01 X-1.9095 Y0.4688  
G01 X-1.9051 Y0.4628  
G01 X-1.8998 Y0.4575  
G01 X-1.8938 Y0.4531  
G01 X-1.8871 Y0.4497  
G01 X-1.8800 Y0.4474  
G01 X-1.8726 Y0.4462  
G01 X-1.8652 Y0.4462  
G01 X-1.8578 Y0.4474  
G01 X-1.8507 Y0.4497  
G01 X-1.8440 Y0.4531  
G01 X-1.8380 Y0.4575  
G01 X-1.8327 Y0.4628  
G01 X-1.8283 Y0.4688  
G01 X-1.8249 Y0.4755  
G01 X-1.8226 Y0.4826  
G01 X-1.8214 Y0.4900  
G01 X-1.8214 Y0.4974  
G01 X-1.8226 Y0.5048  
G01 X-1.8249 Y0.5119  
G01 X-1.8283 Y0.5186  
G01 X-1.8327 Y0.5246  
G01 X-1.8380 Y0.5299  
G01 X-1.8440 Y0.5343  
G01 X-1.8507 Y0.5377  
G01 X-1.8578 Y0.5400  
G01 X-1.8652 Y0.5412  
G01 X-1.8726 Y0.5412  
G01 X-1.8800 Y0.5400  
G01 X-1.8871 Y0.5377  
G01 X-1.8938 Y0.5343  
G01 X-1.8998 Y0.5299  
G01 X-1.9051 Y0.5246  
G00 Z0.0500  
G00 X-2.0929 Y0.6687  
G01 Z-0.0030 F10    
G01 X-2.0879 Y0.6757  F20    
G01 X-2.0840 Y0.6833  
G01 X-2.0813 Y0.6915  
G01 X-2.0799 Y0.7000  
G01 X-2.0799 Y0.7086  
G01 X-2.0813 Y0.7171  
G01 X-2.0840 Y0.7253  
G01 X-2.0879 Y0.7330  
G01 X-2.0929 Y0.7400  
G01 X-2.0990 Y0.7461  
G01 X-2.1060 Y0.7511  
G01 X-2.1136 Y0.7550  
G01 X-2.1218 Y0.7577  
G01 X-2.1303 Y0.7590  
G01 X-2.1390 Y0.7590  
G01 X-2.1475 Y0.7577  
G01 X-2.1556 Y0.7550  
G01 X-2.1633 Y0.7511  
G01 X-2.1703 Y0.7461  
G01 X-2.1764 Y0.7400  
G01 X-2.1814 Y0.7330  
G01 X-2.1853 Y0.7253  
G01 X-2.1880 Y0.7171  
G01 X-2.1893 Y0.7086  
G01 X-2.1893 Y0.7000  
G01 X-2.1880 Y0.6915  
G01 X-2.1853 Y0.6833  
G01 X-2.1814 Y0.6757  
G01 X-2.1764 Y0.6687  
G01 X-2.1703 Y0.6626  
G01 X-2.1633 Y0.6575  
G01 X-2.1556 Y0.6536  
G01 X-2.1475 Y0.6510  
G01 X-2.1390 Y0.6496  
G01 X-2.1303 Y0.6496  
G01 X-2.1218 Y0.6510  
G01 X-2.1136 Y0.6536  
G01 X-2.1060 Y0.6575  
G01 X-2.0990 Y0.6626  
G01 X-2.0929 Y0.6687  
G00 Z0.0500  
G00 X-2.4120 Y0.6699  
G01 Z-0.0030 F10    
G01 X-2.4147 Y0.6781  F20    
G01 X-2.4186 Y0.6858  
G01 X-2.4236 Y0.6927  
G01 X-2.4297 Y0.6988  
G01 X-2.4367 Y0.7039  
G01 X-2.4444 Y0.7078  
G01 X-2.4525 Y0.7104  
G01 X-2.4610 Y0.7118  
G01 X-2.4697 Y0.7118  
G01 X-2.4782 Y0.7104  
G01 X-2.4864 Y0.7078  
G01 X-2.4940 Y0.7039  
G01 X-2.5010 Y0.6988  
G01 X-2.5071 Y0.6927  
G01 X-2.5121 Y0.6858  
G01 X-2.5160 Y0.6781  
G01 X-2.5187 Y0.6699  
G01 X-2.5201 Y0.6614  
G01 X-2.5201 Y0.6528  
G01 X-2.5187 Y0.6443  
G01 X-2.5160 Y0.6361  
G01 X-2.5121 Y0.6284  
G01 X-2.5071 Y0.6215  
G01 X-2.5010 Y0.6154  
G01 X-2.4940 Y0.6103  
G01 X-2.4864 Y0.6064  
G01 X-2.4782 Y0.6037  
G01 X-2.4697 Y0.6024  
G01 X-2.4610 Y0.6024  
G01 X-2.4525 Y0.6037  
G01 X-2.4444 Y0.6064  
G01 X-2.4367 Y0.6103  
G01 X-2.4297 Y0.6154  
G01 X-2.4236 Y0.6215  
G01 X-2.4186 Y0.6284  
G01 X-2.4147 Y0.6361  
G01 X-2.4120 Y0.6443  
G01 X-2.4107 Y0.6528  
G01 X-2.4107 Y0.6614  
G01 X-2.4120 Y0.6699  
G00 Z0.0500  
G00 X-2.4051 Y0.5246  
G01 Z-0.0030 F10    
G01 X-2.4095 Y0.5186  F20    
G01 X-2.4129 Y0.5119  
G01 X-2.4152 Y0.5048  
G01 X-2.4164 Y0.4974  
G01 X-2.4164 Y0.4900  
G01 X-2.4152 Y0.4826  
G01 X-2.4129 Y0.4755  
G01 X-2.4095 Y0.4688  
G01 X-2.4051 Y0.4628  
G01 X-2.3998 Y0.4575  
G01 X-2.3938 Y0.4531  
G01 X-2.3871 Y0.4497  
G01 X-2.3800 Y0.4474  
G01 X-2.3726 Y0.4462  
G01 X-2.3652 Y0.4462  
G01 X-2.3578 Y0.4474  
G01 X-2.3531 Y0.4489  
G01 X-2.2878 Y0.3836  
G01 X-2.2831 Y0.3809  
G01 X-2.2779 Y0.3795  
G01 X-2.2085 Y0.3795  
G01 X-2.1705 Y0.3415  
G01 X-2.1705 Y0.2571  
G01 X-2.1718 Y0.2562  
G01 X-2.1766 Y0.2515  
G01 X-2.1803 Y0.2459  
G01 X-2.1829 Y0.2397  
G01 X-2.1842 Y0.2331  
G01 X-2.1842 Y0.1669  
G01 X-2.1829 Y0.1603  
G01 X-2.1803 Y0.1541  
G01 X-2.1766 Y0.1485  
G01 X-2.1718 Y0.1438  
G01 X-2.1662 Y0.1400  
G01 X-2.1600 Y0.1374  
G01 X-2.1534 Y0.1361  
G01 X-2.1466 Y0.1361  
G01 X-2.1400 Y0.1374  
G01 X-2.1338 Y0.1400  
G01 X-2.1282 Y0.1438  
G01 X-2.1234 Y0.1485  
G01 X-2.1197 Y0.1541  
G01 X-2.1171 Y0.1603  
G01 X-2.1158 Y0.1669  
G01 X-2.1158 Y0.2331  
G01 X-2.1171 Y0.2397  
G01 X-2.1197 Y0.2459  
G01 X-2.1234 Y0.2515  
G01 X-2.1282 Y0.2562  
G01 X-2.1295 Y0.2571  
G01 X-2.1295 Y0.3527  
G01 X-2.1309 Y0.3579  
G01 X-2.1336 Y0.3626  
G01 X-2.1836 Y0.4126  
G01 X-2.1874 Y0.4164  
G01 X-2.1921 Y0.4191  
G01 X-2.1973 Y0.4205  
G01 X-2.2667 Y0.4205  
G01 X-2.3241 Y0.4779  
G01 X-2.3226 Y0.4826  
G01 X-2.3214 Y0.4900  
G01 X-2.3214 Y0.4974  
G01 X-2.3226 Y0.5048  
G01 X-2.3249 Y0.5119  
G01 X-2.3283 Y0.5186  
G01 X-2.3327 Y0.5246  
G01 X-2.3380 Y0.5299  
G01 X-2.3440 Y0.5343  
G01 X-2.3507 Y0.5377  
G01 X-2.3578 Y0.5400  
G01 X-2.3652 Y0.5412  
G01 X-2.3726 Y0.5412  
G01 X-2.3800 Y0.5400  
G01 X-2.3871 Y0.5377  
G01 X-2.3938 Y0.5343  
G01 X-2.3998 Y0.5299  
G01 X-2.4051 Y0.5246  
G00 Z0.0500  
G00 X-2.3973 Y0.4205  
G01 Z-0.0030 F10    
G01 X-2.7915 Y0.4205  F20    
G01 X-2.8374 Y0.4664  
G01 X-2.8395 Y0.4676  
G01 X-2.8395 Y0.5324  
G01 X-2.8374 Y0.5336  
G01 X-2.8336 Y0.5374  
G01 X-2.8309 Y0.5421  
G01 X-2.8295 Y0.5473  
G01 X-2.8295 Y1.1074  
G01 X-2.8309 Y1.1126  
G01 X-2.8336 Y1.1173  
G01 X-2.8374 Y1.1211  
G01 X-2.8640 Y1.1477  
G01 X-2.8640 Y1.1696  
G01 X-2.8851 Y1.1907  
G01 X-2.9149 Y1.1907  
G01 X-2.9360 Y1.1696  
G01 X-2.9360 Y1.1398  
G01 X-2.9149 Y1.1187  
G01 X-2.8930 Y1.1187  
G01 X-2.8705 Y1.0962  
G01 X-2.8705 Y0.5473  
G01 X-2.8691 Y0.5421  
G01 X-2.8664 Y0.5374  
G01 X-2.8626 Y0.5336  
G01 X-2.8605 Y0.5324  
G01 X-2.8605 Y0.4676  
G01 X-2.8626 Y0.4664  
G01 X-2.8664 Y0.4626  
G01 X-2.8691 Y0.4579  
G01 X-2.8705 Y0.4527  
G01 X-2.8705 Y0.4473  
G01 X-2.8691 Y0.4421  
G01 X-2.8664 Y0.4374  
G01 X-2.8126 Y0.3836  
G01 X-2.8079 Y0.3809  
G01 X-2.8027 Y0.3795  
G01 X-2.4085 Y0.3795  
G01 X-2.2781 Y0.2491  
G01 X-2.2803 Y0.2459  
G01 X-2.2829 Y0.2397  
G01 X-2.2842 Y0.2331  
G01 X-2.2842 Y0.1669  
G01 X-2.2829 Y0.1603  
G01 X-2.2803 Y0.1541  
G01 X-2.2766 Y0.1485  
G01 X-2.2718 Y0.1438  
G01 X-2.2662 Y0.1400  
G01 X-2.2600 Y0.1374  
G01 X-2.2534 Y0.1361  
G01 X-2.2466 Y0.1361  
G01 X-2.2400 Y0.1374  
G01 X-2.2338 Y0.1400  
G01 X-2.2282 Y0.1438  
G01 X-2.2234 Y0.1485  
G01 X-2.2197 Y0.1541  
G01 X-2.2171 Y0.1603  
G01 X-2.2158 Y0.1669  
G01 X-2.2158 Y0.2331  
G01 X-2.2171 Y0.2397  
G01 X-2.2197 Y0.2459  
G01 X-2.2234 Y0.2515  
G01 X-2.2282 Y0.2562  
G01 X-2.2310 Y0.2581  
G01 X-2.2336 Y0.2626  
G01 X-2.3836 Y0.4126  
G01 X-2.3874 Y0.4164  
G01 X-2.3921 Y0.4191  
G01 X-2.3973 Y0.4205  
G00 Z0.0500  
G00 X-2.4124 Y0.3414  
G01 Z-0.0030 F10    
G01 X-2.4171 Y0.3441  F20    
G01 X-2.4223 Y0.3455  
G01 X-2.8165 Y0.3455  
G01 X-2.8795 Y0.4085  
G01 X-2.8795 Y0.4743  
G01 X-2.8640 Y0.4898  
G01 X-2.8640 Y0.5196  
G01 X-2.8851 Y0.5407  
G01 X-2.9149 Y0.5407  
G01 X-2.9360 Y0.5196  
G01 X-2.9360 Y0.4898  
G01 X-2.9205 Y0.4743  
G01 X-2.9205 Y0.3973  
G01 X-2.9191 Y0.3921  
G01 X-2.9164 Y0.3874  
G01 X-2.9126 Y0.3836  
G01 X-2.8414 Y0.3124  
G01 X-2.8376 Y0.3086  
G01 X-2.8329 Y0.3059  
G01 X-2.8277 Y0.3045  
G01 X-2.4335 Y0.3045  
G01 X-2.3781 Y0.2491  
G01 X-2.3803 Y0.2459  
G01 X-2.3829 Y0.2397  
G01 X-2.3842 Y0.2331  
G01 X-2.3842 Y0.1669  
G01 X-2.3829 Y0.1603  
G01 X-2.3803 Y0.1541  
G01 X-2.3766 Y0.1485  
G01 X-2.3718 Y0.1438  
G01 X-2.3662 Y0.1400  
G01 X-2.3600 Y0.1374  
G01 X-2.3534 Y0.1361  
G01 X-2.3466 Y0.1361  
G01 X-2.3400 Y0.1374  
G01 X-2.3338 Y0.1400  
G01 X-2.3282 Y0.1438  
G01 X-2.3234 Y0.1485  
G01 X-2.3197 Y0.1541  
G01 X-2.3171 Y0.1603  
G01 X-2.3158 Y0.1669  
G01 X-2.3158 Y0.2331  
G01 X-2.3171 Y0.2397  
G01 X-2.3197 Y0.2459  
G01 X-2.3234 Y0.2515  
G01 X-2.3282 Y0.2562  
G01 X-2.3310 Y0.2581  
G01 X-2.3336 Y0.2626  
G01 X-2.3374 Y0.2664  
G01 X-2.4124 Y0.3414  
G00 Z0.0500  
G00 X-2.4282 Y0.2562  
G01 Z-0.0030 F10    
G01 X-2.4338 Y0.2600  F20    
G01 X-2.4400 Y0.2626  
G01 X-2.4466 Y0.2639  
G01 X-2.4534 Y0.2639  
G01 X-2.4600 Y0.2626  
G01 X-2.4662 Y0.2600  
G01 X-2.4718 Y0.2562  
G01 X-2.4766 Y0.2515  
G01 X-2.4803 Y0.2459  
G01 X-2.4829 Y0.2397  
G01 X-2.4842 Y0.2331  
G01 X-2.4842 Y0.2205  
G01 X-2.7915 Y0.2205  
G01 X-2.9295 Y0.3585  
G01 X-2.9295 Y0.4527  
G01 X-2.9309 Y0.4579  
G01 X-2.9336 Y0.4626  
G01 X-2.9374 Y0.4664  
G01 X-2.9395 Y0.4676  
G01 X-2.9395 Y0.5324  
G01 X-2.9374 Y0.5336  
G01 X-2.9336 Y0.5374  
G01 X-2.9309 Y0.5421  
G01 X-2.9295 Y0.5473  
G01 X-2.9295 Y1.1027  
G01 X-2.9309 Y1.1079  
G01 X-2.9336 Y1.1126  
G01 X-2.9374 Y1.1164  
G01 X-2.9395 Y1.1176  
G01 X-2.9395 Y1.1824  
G01 X-2.9374 Y1.1836  
G01 X-2.8836 Y1.2374  
G01 X-2.8809 Y1.2421  
G01 X-2.8795 Y1.2473  
G01 X-2.8795 Y1.7743  
G01 X-2.8640 Y1.7898  
G01 X-2.8640 Y1.8196  
G01 X-2.8851 Y1.8407  
G01 X-2.9149 Y1.8407  
G01 X-2.9360 Y1.8196  
G01 X-2.9360 Y1.7898  
G01 X-2.9205 Y1.7743  
G01 X-2.9205 Y1.2585  
G01 X-2.9664 Y1.2126  
G01 X-2.9691 Y1.2079  
G01 X-2.9705 Y1.2027  
G01 X-2.9705 Y1.1973  
G01 X-2.9691 Y1.1921  
G01 X-2.9664 Y1.1874  
G01 X-2.9626 Y1.1836  
G01 X-2.9605 Y1.1824  
G01 X-2.9605 Y1.1176  
G01 X-2.9626 Y1.1164  
G01 X-2.9664 Y1.1126  
G01 X-2.9691 Y1.1079  
G01 X-2.9705 Y1.1027  
G01 X-2.9705 Y0.5473  
G01 X-2.9691 Y0.5421  
G01 X-2.9664 Y0.5374  
G01 X-2.9626 Y0.5336  
G01 X-2.9605 Y0.5324  
G01 X-2.9605 Y0.4676  
G01 X-2.9626 Y0.4664  
G01 X-2.9664 Y0.4626  
G01 X-2.9691 Y0.4579  
G01 X-2.9705 Y0.4527  
G01 X-2.9705 Y0.3473  
G01 X-2.9691 Y0.3421  
G01 X-2.9664 Y0.3374  
G01 X-2.9626 Y0.3336  
G01 X-2.8164 Y0.1874  
G01 X-2.8126 Y0.1836  
G01 X-2.8079 Y0.1809  
G01 X-2.8027 Y0.1795  
G01 X-2.4842 Y0.1795  
G01 X-2.4842 Y0.1669  
G01 X-2.4829 Y0.1603  
G01 X-2.4803 Y0.1541  
G01 X-2.4766 Y0.1485  
G01 X-2.4718 Y0.1438  
G01 X-2.4662 Y0.1400  
G01 X-2.4600 Y0.1374  
G01 X-2.4534 Y0.1361  
G01 X-2.4466 Y0.1361  
G01 X-2.4400 Y0.1374  
G01 X-2.4338 Y0.1400  
G01 X-2.4282 Y0.1438  
G01 X-2.4234 Y0.1485  
G01 X-2.4197 Y0.1541  
G01 X-2.4171 Y0.1603  
G01 X-2.4158 Y0.1669  
G01 X-2.4158 Y0.2331  
G01 X-2.4171 Y0.2397  
G01 X-2.4197 Y0.2459  
G01 X-2.4234 Y0.2515  
G01 X-2.4282 Y0.2562  
G00 Z0.0500  
G00 X-2.6298 Y0.7737  
G01 Z-0.0030 F10    
G01 X-2.6298 Y0.8263  F20    
G01 X-2.6670 Y0.8636  
G01 X-2.7196 Y0.8636  
G01 X-2.7569 Y0.8263  
G01 X-2.7569 Y0.7737  
G01 X-2.7196 Y0.7364  
G01 X-2.6670 Y0.7364  
G01 X-2.6298 Y0.7737  
G00 Z0.0500  
G00 X-3.0431 Y0.7737  
G01 Z-0.0030 F10    
G01 X-3.0431 Y0.8263  F20    
G01 X-3.0804 Y0.8636  
G01 X-3.1330 Y0.8636  
G01 X-3.1702 Y0.8263  
G01 X-3.1702 Y0.7737  
G01 X-3.1330 Y0.7364  
G01 X-3.0804 Y0.7364  
G01 X-3.0431 Y0.7737  
G00 Z0.0500  
G00 X-3.0424 Y0.5205  
G01 Z-0.0030 F10    
G01 X-3.2045 Y0.6594  F20    
G01 X-3.2045 Y1.7825  
G01 X-3.1937 Y1.7842  
G01 X-3.0288 Y1.7842  
G01 X-3.0189 Y1.7743  
G01 X-3.0189 Y1.1851  
G01 X-3.0344 Y1.1696  
G01 X-3.0344 Y1.1398  
G01 X-3.0133 Y1.1187  
G01 X-2.9835 Y1.1187  
G01 X-2.9624 Y1.1398  
G01 X-2.9624 Y1.1696  
G01 X-2.9779 Y1.1851  
G01 X-2.9779 Y1.7743  
G01 X-2.9624 Y1.7898  
G01 X-2.9624 Y1.8196  
G01 X-2.9835 Y1.8407  
G01 X-3.0133 Y1.8407  
G01 X-3.0288 Y1.8252  
G01 X-3.1942 Y1.8252  
G01 X-3.1958 Y1.8254  
G01 X-3.1969 Y1.8252  
G01 X-3.1980 Y1.8252  
G01 X-3.1995 Y1.8248  
G01 X-3.2045 Y1.8240  
G01 X-3.2045 Y2.6165  
G01 X-3.1415 Y2.6795  
G01 X-3.0571 Y2.6795  
G01 X-3.0562 Y2.6782  
G01 X-3.0515 Y2.6734  
G01 X-3.0459 Y2.6697  
G01 X-3.0397 Y2.6671  
G01 X-3.0331 Y2.6658  
G01 X-2.9669 Y2.6658  
G01 X-2.9603 Y2.6671  
G01 X-2.9541 Y2.6697  
G01 X-2.9485 Y2.6734  
G01 X-2.9438 Y2.6782  
G01 X-2.9429 Y2.6795  
G01 X-2.7571 Y2.6795  
G01 X-2.7562 Y2.6782  
G01 X-2.7515 Y2.6734  
G01 X-2.7459 Y2.6697  
G01 X-2.7397 Y2.6671  
G01 X-2.7331 Y2.6658  
G01 X-2.6669 Y2.6658  
G01 X-2.6603 Y2.6671  
G01 X-2.6541 Y2.6697  
G01 X-2.6485 Y2.6734  
G01 X-2.6438 Y2.6782  
G01 X-2.6400 Y2.6838  
G01 X-2.6374 Y2.6900  
G01 X-2.6361 Y2.6966  
G01 X-2.6361 Y2.7034  
G01 X-2.4447 Y2.7801  
G01 X-2.4048 Y2.7858  
G01 X-2.2740 Y2.7858  
G01 X-2.2717 Y2.7814  
G01 X-2.2673 Y2.7754  
G01 X-2.2620 Y2.7701  
G01 X-2.2560 Y2.7657  
G01 X-2.2493 Y2.7623  
G01 X-2.2422 Y2.7600  
G01 X-2.2348 Y2.7588  
G01 X-2.2274 Y2.7588  
G01 X-2.2200 Y2.7600  
G01 X-2.2129 Y2.7623  
G01 X-2.2062 Y2.7657  
G01 X-2.2002 Y2.7701  
G01 X-2.1949 Y2.7754  
G01 X-2.1905 Y2.7814  
G01 X-2.1882 Y2.7858  
G01 X-1.7740 Y2.7858  
G01 X-1.7717 Y2.7814  
G01 X-1.7673 Y2.7754  
G01 X-1.7620 Y2.7701  
G01 X-1.7560 Y2.7657  
G01 X-1.7493 Y2.7623  
G01 X-1.7422 Y2.7600  
G01 X-1.7348 Y2.7588  
G01 X-1.7274 Y2.7588  
G01 X-1.7200 Y2.7600  
G01 X-1.7129 Y2.7623  
G01 X-1.7062 Y2.7657  
G01 X-1.7002 Y2.7701  
G01 X-1.6949 Y2.7754  
G01 X-1.6905 Y2.7814  
G01 X-1.6882 Y2.7858  
G01 X-1.2740 Y2.7858  
G01 X-1.2717 Y2.7814  
G01 X-1.2673 Y2.7754  
G01 X-1.2620 Y2.7701  
G01 X-1.2560 Y2.7657  
G01 X-1.2493 Y2.7623  
G01 X-1.2422 Y2.7600  
G01 X-1.2348 Y2.7588  
G01 X-1.2274 Y2.7588  
G01 X-1.2200 Y2.7600  
G01 X-1.2129 Y2.7623  
G01 X-1.2062 Y2.7657  
G01 X-1.2002 Y2.7701  
G01 X-1.1949 Y2.7754  
G01 X-1.1905 Y2.7814  
G01 X-1.1882 Y2.7858  
G01 X-0.7740 Y2.7858  
G01 X-0.7717 Y2.7814  
G01 X-0.7673 Y2.7754  
G01 X-0.7620 Y2.7701  
G01 X-0.7560 Y2.7657  
G01 X-0.7493 Y2.7623  
G01 X-0.7422 Y2.7600  
G01 X-0.7348 Y2.7588  
G01 X-0.7274 Y2.7588  
G01 X-0.7200 Y2.7600  
G01 X-0.7129 Y2.7623  
G01 X-0.7062 Y2.7657  
G01 X-0.7002 Y2.7701  
G01 X-0.6949 Y2.7754  
G01 X-0.6905 Y2.7814  
G01 X-0.6882 Y2.7858  
G01 X-0.2740 Y2.7858  
G01 X-0.2717 Y2.7814  
G01 X-0.2673 Y2.7754  
G01 X-0.2620 Y2.7701  
G01 X-0.2560 Y2.7657  
G01 X-0.2493 Y2.7623  
G01 X-0.2422 Y2.7600  
G01 X-0.2348 Y2.7588  
G01 X-0.2274 Y2.7588  
G01 X-0.2200 Y2.7600  
G01 X-0.2129 Y2.7623  
G01 X-0.2062 Y2.7657  
G01 X-0.2002 Y2.7701  
G01 X-0.1949 Y2.7754  
G01 X-0.1905 Y2.7814  
G01 X-0.1871 Y2.7881  
G01 X-0.1848 Y2.7952  
G01 X-0.1836 Y2.8026  
G01 X-0.1836 Y2.8100  
G01 X-0.1848 Y2.8174  
G01 X-0.1871 Y2.8245  
G01 X-0.1905 Y2.8312  
G01 X-0.1949 Y2.8372  
G01 X-0.2002 Y2.8425  
G01 X-0.2062 Y2.8469  
G01 X-0.2129 Y2.8503  
G01 X-0.2200 Y2.8526  
G01 X-0.2274 Y2.8538  
G01 X-0.2348 Y2.8538  
G01 X-0.2422 Y2.8526  
G01 X-0.2493 Y2.8503  
G01 X-0.2560 Y2.8469  
G01 X-0.2620 Y2.8425  
G01 X-0.2673 Y2.8372  
G01 X-0.2717 Y2.8312  
G01 X-0.2740 Y2.8268  
G01 X-0.6882 Y2.8268  
G01 X-0.6905 Y2.8312  
G01 X-0.6949 Y2.8372  
G01 X-0.7002 Y2.8425  
G01 X-0.7062 Y2.8469  
G01 X-0.7129 Y2.8503  
G01 X-0.7200 Y2.8526  
G01 X-0.7274 Y2.8538  
G01 X-0.7348 Y2.8538  
G01 X-0.7422 Y2.8526  
G01 X-0.7493 Y2.8503  
G01 X-0.7560 Y2.8469  
G01 X-0.7620 Y2.8425  
G01 X-0.7673 Y2.8372  
G01 X-0.7717 Y2.8312  
G01 X-0.7740 Y2.8268  
G01 X-1.1882 Y2.8268  
G01 X-1.1905 Y2.8312  
G01 X-1.1949 Y2.8372  
G01 X-1.2002 Y2.8425  
G01 X-1.2062 Y2.8469  
G01 X-1.2129 Y2.8503  
G01 X-1.2200 Y2.8526  
G01 X-1.2274 Y2.8538  
G01 X-1.2348 Y2.8538  
G01 X-1.2422 Y2.8526  
G01 X-1.2493 Y2.8503  
G01 X-1.2560 Y2.8469  
G01 X-1.2620 Y2.8425  
G01 X-1.2673 Y2.8372  
G01 X-1.2717 Y2.8312  
G01 X-1.2740 Y2.8268  
G01 X-1.6882 Y2.8268  
G01 X-1.6905 Y2.8312  
G01 X-1.6949 Y2.8372  
G01 X-1.7002 Y2.8425  
G01 X-1.7062 Y2.8469  
G01 X-1.7129 Y2.8503  
G01 X-1.7200 Y2.8526  
G01 X-1.7274 Y2.8538  
G01 X-1.7348 Y2.8538  
G01 X-1.7422 Y2.8526  
G01 X-1.7493 Y2.8503  
G01 X-1.7560 Y2.8469  
G01 X-1.7620 Y2.8425  
G01 X-1.7673 Y2.8372  
G01 X-1.7717 Y2.8312  
G01 X-1.7740 Y2.8268  
G01 X-2.1882 Y2.8268  
G01 X-2.1905 Y2.8312  
G01 X-2.1949 Y2.8372  
G01 X-2.2002 Y2.8425  
G01 X-2.2062 Y2.8469  
G01 X-2.2129 Y2.8503  
G01 X-2.2200 Y2.8526  
G01 X-2.2274 Y2.8538  
G01 X-2.2348 Y2.8538  
G01 X-2.2422 Y2.8526  
G01 X-2.2493 Y2.8503  
G01 X-2.2560 Y2.8469  
G01 X-2.2620 Y2.8425  
G01 X-2.2673 Y2.8372  
G01 X-2.2717 Y2.8312  
G01 X-2.2740 Y2.8268  
G01 X-2.4051 Y2.8268  
G01 X-2.4066 Y2.8270  
G01 X-2.4078 Y2.8268  
G01 X-2.4090 Y2.8268  
G01 X-2.4104 Y2.8264  
G01 X-2.4527 Y2.8203  
G01 X-2.4551 Y2.8200  
G01 X-2.4553 Y2.8199  
G01 X-2.4556 Y2.8199  
G01 X-2.4578 Y2.8189  
G01 X-2.6697 Y2.7342  
G01 X-2.7331 Y2.7342  
G01 X-2.7397 Y2.7329  
G01 X-2.7459 Y2.7303  
G01 X-2.7515 Y2.7266  
G01 X-2.7562 Y2.7218  
G01 X-2.7571 Y2.7205  
G01 X-2.9429 Y2.7205  
G01 X-2.9438 Y2.7218  
G01 X-2.9485 Y2.7266  
G01 X-2.9541 Y2.7303  
G01 X-2.9603 Y2.7329  
G01 X-2.9669 Y2.7342  
G01 X-3.0331 Y2.7342  
G01 X-3.0397 Y2.7329  
G01 X-3.0459 Y2.7303  
G01 X-3.0515 Y2.7266  
G01 X-3.0562 Y2.7218  
G01 X-3.0571 Y2.7205  
G01 X-3.1527 Y2.7205  
G01 X-3.1579 Y2.7191  
G01 X-3.1626 Y2.7164  
G01 X-3.2376 Y2.6414  
G01 X-3.2414 Y2.6376  
G01 X-3.2441 Y2.6329  
G01 X-3.2455 Y2.6277  
G01 X-3.2455 Y1.8011  
G01 X-3.2457 Y1.7994  
G01 X-3.2455 Y1.7984  
G01 X-3.2455 Y0.6519  
G01 X-3.2456 Y0.6511  
G01 X-3.2455 Y0.6492  
G01 X-3.2455 Y0.6473  
G01 X-3.2453 Y0.6465  
G01 X-3.2452 Y0.6457  
G01 X-3.2446 Y0.6439  
G01 X-3.2441 Y0.6421  
G01 X-3.2437 Y0.6414  
G01 X-3.2434 Y0.6406  
G01 X-3.2424 Y0.6391  
G01 X-3.2414 Y0.6374  
G01 X-3.2408 Y0.6368  
G01 X-3.2404 Y0.6362  
G01 X-3.2389 Y0.6349  
G01 X-3.2376 Y0.6336  
G01 X-3.2369 Y0.6332  
G01 X-3.0639 Y0.4849  
G01 X-3.0626 Y0.4836  
G01 X-3.0619 Y0.4832  
G01 X-3.0613 Y0.4827  
G01 X-3.0596 Y0.4819  
G01 X-3.0579 Y0.4809  
G01 X-3.0571 Y0.4807  
G01 X-3.0564 Y0.4803  
G01 X-3.0545 Y0.4800  
G01 X-3.0527 Y0.4795  
G01 X-3.0519 Y0.4795  
G01 X-3.0511 Y0.4794  
G01 X-3.0492 Y0.4795  
G01 X-3.0241 Y0.4795  
G01 X-3.0133 Y0.4687  
G01 X-2.9835 Y0.4687  
G01 X-2.9624 Y0.4898  
G01 X-2.9624 Y0.5196  
G01 X-2.9835 Y0.5407  
G01 X-3.0133 Y0.5407  
G01 X-3.0336 Y0.5205  
G01 X-3.0424 Y0.5205  
G00 Z0.0500  
G00 X-3.0431 Y1.4237  
G01 Z-0.0030 F10    
G01 X-3.0431 Y1.4763  F20    
G01 X-3.0804 Y1.5136  
G01 X-3.1330 Y1.5136  
G01 X-3.1702 Y1.4763  
G01 X-3.1702 Y1.4237  
G01 X-3.1330 Y1.3864  
G01 X-3.0804 Y1.3864  
G01 X-3.0431 Y1.4237  
G00 Z0.0500  
G00 X-2.7569 Y1.4237  
G01 Z-0.0030 F10    
G01 X-2.7196 Y1.3864  F20    
G01 X-2.6670 Y1.3864  
G01 X-2.6298 Y1.4237  
G01 X-2.6298 Y1.4763  
G01 X-2.6670 Y1.5136  
G01 X-2.7196 Y1.5136  
G01 X-2.7569 Y1.4763  
G01 X-2.7569 Y1.4237  
G00 Z0.0500  
G00 X-2.7569 Y2.0737  
G01 Z-0.0030 F10    
G01 X-2.7196 Y2.0364  F20    
G01 X-2.6670 Y2.0364  
G01 X-2.6298 Y2.0737  
G01 X-2.6298 Y2.1263  
G01 X-2.6670 Y2.1636  
G01 X-2.7196 Y2.1636  
G01 X-2.7569 Y2.1263  
G01 X-2.7569 Y2.0737  
G00 Z0.0500  
G00 X-3.0431 Y2.0737  
G01 Z-0.0030 F10    
G01 X-3.0431 Y2.1263  F20    
G01 X-3.0804 Y2.1636  
G01 X-3.1330 Y2.1636  
G01 X-3.1702 Y2.1263  
G01 X-3.1702 Y2.0737  
G01 X-3.1330 Y2.0364  
G01 X-3.0804 Y2.0364  
G01 X-3.0431 Y2.0737  
G00 Z0.0500  
G00 X-2.5010 Y2.6012  
G01 Z-0.0030 F10    
G01 X-2.4940 Y2.5961  F20    
G01 X-2.4864 Y2.5922  
G01 X-2.4782 Y2.5896  
G01 X-2.4697 Y2.5882  
G01 X-2.4610 Y2.5882  
G01 X-2.4525 Y2.5896  
G01 X-2.4444 Y2.5922  
G01 X-2.4367 Y2.5961  
G01 X-2.4297 Y2.6012  
G01 X-2.4236 Y2.6073  
G01 X-2.4186 Y2.6142  
G01 X-2.4147 Y2.6219  
G01 X-2.4120 Y2.6301  
G01 X-2.4107 Y2.6386  
G01 X-2.4107 Y2.6472  
G01 X-2.4120 Y2.6557  
G01 X-2.4147 Y2.6639  
G01 X-2.4186 Y2.6716  
G01 X-2.4236 Y2.6785  
G01 X-2.4297 Y2.6846  
G01 X-2.4367 Y2.6897  
G01 X-2.4444 Y2.6936  
G01 X-2.4525 Y2.6963  
G01 X-2.4610 Y2.6976  
G01 X-2.4697 Y2.6976  
G01 X-2.4782 Y2.6963  
G01 X-2.4864 Y2.6936  
G01 X-2.4940 Y2.6897  
G01 X-2.5010 Y2.6846  
G01 X-2.5071 Y2.6785  
G01 X-2.5121 Y2.6716  
G01 X-2.5160 Y2.6639  
G01 X-2.5187 Y2.6557  
G01 X-2.5201 Y2.6472  
G01 X-2.5201 Y2.6386  
G01 X-2.5187 Y2.6301  
G01 X-2.5160 Y2.6219  
G01 X-2.5121 Y2.6142  
G01 X-2.5071 Y2.6073  
G01 X-2.5010 Y2.6012  
G00 Z0.0500  
G00 X-2.1893 Y2.6000  
G01 Z-0.0030 F10    
G01 X-2.1893 Y2.5914  F20    
G01 X-2.1880 Y2.5829  
G01 X-2.1853 Y2.5747  
G01 X-2.1814 Y2.5670  
G01 X-2.1764 Y2.5600  
G01 X-2.1703 Y2.5539  
G01 X-2.1633 Y2.5489  
G01 X-2.1556 Y2.5450  
G01 X-2.1475 Y2.5423  
G01 X-2.1390 Y2.5410  
G01 X-2.1303 Y2.5410  
G01 X-2.1218 Y2.5423  
G01 X-2.1136 Y2.5450  
G01 X-2.1060 Y2.5489  
G01 X-2.0990 Y2.5539  
G01 X-2.0929 Y2.5600  
G01 X-2.0879 Y2.5670  
G01 X-2.0840 Y2.5747  
G01 X-2.0813 Y2.5829  
G01 X-2.0799 Y2.5914  
G01 X-2.0799 Y2.6000  
G01 X-2.0813 Y2.6085  
G01 X-2.0840 Y2.6167  
G01 X-2.0879 Y2.6243  
G01 X-2.0929 Y2.6313  
G01 X-2.0990 Y2.6374  
G01 X-2.1060 Y2.6425  
G01 X-2.1136 Y2.6464  
G01 X-2.1218 Y2.6490  
G01 X-2.1303 Y2.6504  
G01 X-2.1390 Y2.6504  
G01 X-2.1475 Y2.6490  
G01 X-2.1556 Y2.6464  
G01 X-2.1633 Y2.6425  
G01 X-2.1703 Y2.6374  
G01 X-2.1764 Y2.6313  
G01 X-2.1814 Y2.6243  
G01 X-2.1853 Y2.6167  
G01 X-2.1880 Y2.6085  
G01 X-2.1893 Y2.6000  
G00 Z0.0500  
G00 X-2.0010 Y2.6012  
G01 Z-0.0030 F10    
G01 X-1.9940 Y2.5961  F20    
G01 X-1.9864 Y2.5922  
G01 X-1.9782 Y2.5896  
G01 X-1.9697 Y2.5882  
G01 X-1.9610 Y2.5882  
G01 X-1.9525 Y2.5896  
G01 X-1.9444 Y2.5922  
G01 X-1.9367 Y2.5961  
G01 X-1.9297 Y2.6012  
G01 X-1.9236 Y2.6073  
G01 X-1.9186 Y2.6142  
G01 X-1.9147 Y2.6219  
G01 X-1.9120 Y2.6301  
G01 X-1.9107 Y2.6386  
G01 X-1.9107 Y2.6472  
G01 X-1.9120 Y2.6557  
G01 X-1.9147 Y2.6639  
G01 X-1.9186 Y2.6716  
G01 X-1.9236 Y2.6785  
G01 X-1.9297 Y2.6846  
G01 X-1.9367 Y2.6897  
G01 X-1.9444 Y2.6936  
G01 X-1.9525 Y2.6963  
G01 X-1.9610 Y2.6976  
G01 X-1.9697 Y2.6976  
G01 X-1.9782 Y2.6963  
G01 X-1.9864 Y2.6936  
G01 X-1.9940 Y2.6897  
G01 X-2.0010 Y2.6846  
G01 X-2.0071 Y2.6785  
G01 X-2.0121 Y2.6716  
G01 X-2.0160 Y2.6639  
G01 X-2.0187 Y2.6557  
G01 X-2.0201 Y2.6472  
G01 X-2.0201 Y2.6386  
G01 X-2.0187 Y2.6301  
G01 X-2.0160 Y2.6219  
G01 X-2.0121 Y2.6142  
G01 X-2.0071 Y2.6073  
G01 X-2.0010 Y2.6012  
G00 Z0.0500  
G00 X-1.6893 Y2.6000  
G01 Z-0.0030 F10    
G01 X-1.6893 Y2.5914  F20    
G01 X-1.6880 Y2.5829  
G01 X-1.6853 Y2.5747  
G01 X-1.6814 Y2.5670  
G01 X-1.6764 Y2.5600  
G01 X-1.6703 Y2.5539  
G01 X-1.6633 Y2.5489  
G01 X-1.6556 Y2.5450  
G01 X-1.6475 Y2.5423  
G01 X-1.6390 Y2.5410  
G01 X-1.6303 Y2.5410  
G01 X-1.6218 Y2.5423  
G01 X-1.6136 Y2.5450  
G01 X-1.6060 Y2.5489  
G01 X-1.5990 Y2.5539  
G01 X-1.5929 Y2.5600  
G01 X-1.5879 Y2.5670  
G01 X-1.5840 Y2.5747  
G01 X-1.5813 Y2.5829  
G01 X-1.5799 Y2.5914  
G01 X-1.5799 Y2.6000  
G01 X-1.5813 Y2.6085  
G01 X-1.5840 Y2.6167  
G01 X-1.5879 Y2.6243  
G01 X-1.5929 Y2.6313  
G01 X-1.5990 Y2.6374  
G01 X-1.6060 Y2.6425  
G01 X-1.6136 Y2.6464  
G01 X-1.6218 Y2.6490  
G01 X-1.6303 Y2.6504  
G01 X-1.6390 Y2.6504  
G01 X-1.6475 Y2.6490  
G01 X-1.6556 Y2.6464  
G01 X-1.6633 Y2.6425  
G01 X-1.6703 Y2.6374  
G01 X-1.6764 Y2.6313  
G01 X-1.6814 Y2.6243  
G01 X-1.6853 Y2.6167  
G01 X-1.6880 Y2.6085  
G01 X-1.6893 Y2.6000  
G00 Z0.0500  
G00 X-1.5010 Y2.6012  
G01 Z-0.0030 F10    
G01 X-1.4940 Y2.5961  F20    
G01 X-1.4864 Y2.5922  
G01 X-1.4782 Y2.5896  
G01 X-1.4697 Y2.5882  
G01 X-1.4610 Y2.5882  
G01 X-1.4525 Y2.5896  
G01 X-1.4444 Y2.5922  
G01 X-1.4367 Y2.5961  
G01 X-1.4297 Y2.6012  
G01 X-1.4236 Y2.6073  
G01 X-1.4186 Y2.6142  
G01 X-1.4147 Y2.6219  
G01 X-1.4120 Y2.6301  
G01 X-1.4107 Y2.6386  
G01 X-1.4107 Y2.6472  
G01 X-1.4120 Y2.6557  
G01 X-1.4147 Y2.6639  
G01 X-1.4186 Y2.6716  
G01 X-1.4236 Y2.6785  
G01 X-1.4297 Y2.6846  
G01 X-1.4367 Y2.6897  
G01 X-1.4444 Y2.6936  
G01 X-1.4525 Y2.6963  
G01 X-1.4610 Y2.6976  
G01 X-1.4697 Y2.6976  
G01 X-1.4782 Y2.6963  
G01 X-1.4864 Y2.6936  
G01 X-1.4940 Y2.6897  
G01 X-1.5010 Y2.6846  
G01 X-1.5071 Y2.6785  
G01 X-1.5121 Y2.6716  
G01 X-1.5160 Y2.6639  
G01 X-1.5187 Y2.6557  
G01 X-1.5201 Y2.6472  
G01 X-1.5201 Y2.6386  
G01 X-1.5187 Y2.6301  
G01 X-1.5160 Y2.6219  
G01 X-1.5121 Y2.6142  
G01 X-1.5071 Y2.6073  
G01 X-1.5010 Y2.6012  
G00 Z0.0500  
G00 X-1.1893 Y2.6000  
G01 Z-0.0030 F10    
G01 X-1.1893 Y2.5914  F20    
G01 X-1.1880 Y2.5829  
G01 X-1.1853 Y2.5747  
G01 X-1.1814 Y2.5670  
G01 X-1.1764 Y2.5600  
G01 X-1.1703 Y2.5539  
G01 X-1.1633 Y2.5489  
G01 X-1.1556 Y2.5450  
G01 X-1.1475 Y2.5423  
G01 X-1.1390 Y2.5410  
G01 X-1.1303 Y2.5410  
G01 X-1.1218 Y2.5423  
G01 X-1.1136 Y2.5450  
G01 X-1.1060 Y2.5489  
G01 X-1.0990 Y2.5539  
G01 X-1.0929 Y2.5600  
G01 X-1.0879 Y2.5670  
G01 X-1.0840 Y2.5747  
G01 X-1.0813 Y2.5829  
G01 X-1.0799 Y2.5914  
G01 X-1.0799 Y2.6000  
G01 X-1.0813 Y2.6085  
G01 X-1.0840 Y2.6167  
G01 X-1.0879 Y2.6243  
G01 X-1.0929 Y2.6313  
G01 X-1.0990 Y2.6374  
G01 X-1.1060 Y2.6425  
G01 X-1.1136 Y2.6464  
G01 X-1.1218 Y2.6490  
G01 X-1.1303 Y2.6504  
G01 X-1.1390 Y2.6504  
G01 X-1.1475 Y2.6490  
G01 X-1.1556 Y2.6464  
G01 X-1.1633 Y2.6425  
G01 X-1.1703 Y2.6374  
G01 X-1.1764 Y2.6313  
G01 X-1.1814 Y2.6243  
G01 X-1.1853 Y2.6167  
G01 X-1.1880 Y2.6085  
G01 X-1.1893 Y2.6000  
G00 Z0.0500  
G00 X-1.0010 Y2.6012  
G01 Z-0.0030 F10    
G01 X-0.9940 Y2.5961  F20    
G01 X-0.9864 Y2.5922  
G01 X-0.9782 Y2.5896  
G01 X-0.9697 Y2.5882  
G01 X-0.9610 Y2.5882  
G01 X-0.9525 Y2.5896  
G01 X-0.9444 Y2.5922  
G01 X-0.9367 Y2.5961  
G01 X-0.9297 Y2.6012  
G01 X-0.9236 Y2.6073  
G01 X-0.9186 Y2.6142  
G01 X-0.9147 Y2.6219  
G01 X-0.9120 Y2.6301  
G01 X-0.9107 Y2.6386  
G01 X-0.9107 Y2.6472  
G01 X-0.9120 Y2.6557  
G01 X-0.9147 Y2.6639  
G01 X-0.9186 Y2.6716  
G01 X-0.9236 Y2.6785  
G01 X-0.9297 Y2.6846  
G01 X-0.9367 Y2.6897  
G01 X-0.9444 Y2.6936  
G01 X-0.9525 Y2.6963  
G01 X-0.9610 Y2.6976  
G01 X-0.9697 Y2.6976  
G01 X-0.9782 Y2.6963  
G01 X-0.9864 Y2.6936  
G01 X-0.9940 Y2.6897  
G01 X-1.0010 Y2.6846  
G01 X-1.0071 Y2.6785  
G01 X-1.0121 Y2.6716  
G01 X-1.0160 Y2.6639  
G01 X-1.0187 Y2.6557  
G01 X-1.0201 Y2.6472  
G01 X-1.0201 Y2.6386  
G01 X-1.0187 Y2.6301  
G01 X-1.0160 Y2.6219  
G01 X-1.0121 Y2.6142  
G01 X-1.0071 Y2.6073  
G01 X-1.0010 Y2.6012  
G00 Z0.0500  
G00 X-0.6893 Y2.6000  
G01 Z-0.0030 F10    
G01 X-0.6893 Y2.5914  F20    
G01 X-0.6880 Y2.5829  
G01 X-0.6853 Y2.5747  
G01 X-0.6814 Y2.5670  
G01 X-0.6764 Y2.5600  
G01 X-0.6703 Y2.5539  
G01 X-0.6633 Y2.5489  
G01 X-0.6556 Y2.5450  
G01 X-0.6475 Y2.5423  
G01 X-0.6390 Y2.5410  
G01 X-0.6303 Y2.5410  
G01 X-0.6218 Y2.5423  
G01 X-0.6136 Y2.5450  
G01 X-0.6060 Y2.5489  
G01 X-0.5990 Y2.5539  
G01 X-0.5929 Y2.5600  
G01 X-0.5879 Y2.5670  
G01 X-0.5840 Y2.5747  
G01 X-0.5813 Y2.5829  
G01 X-0.5799 Y2.5914  
G01 X-0.5799 Y2.6000  
G01 X-0.5813 Y2.6085  
G01 X-0.5840 Y2.6167  
G01 X-0.5879 Y2.6243  
G01 X-0.5929 Y2.6313  
G01 X-0.5990 Y2.6374  
G01 X-0.6060 Y2.6425  
G01 X-0.6136 Y2.6464  
G01 X-0.6218 Y2.6490  
G01 X-0.6303 Y2.6504  
G01 X-0.6390 Y2.6504  
G01 X-0.6475 Y2.6490  
G01 X-0.6556 Y2.6464  
G01 X-0.6633 Y2.6425  
G01 X-0.6703 Y2.6374  
G01 X-0.6764 Y2.6313  
G01 X-0.6814 Y2.6243  
G01 X-0.6853 Y2.6167  
G01 X-0.6880 Y2.6085  
G01 X-0.6893 Y2.6000  
G00 Z0.0500  
G00 X-0.5010 Y2.6012  
G01 Z-0.0030 F10    
G01 X-0.4940 Y2.5961  F20    
G01 X-0.4864 Y2.5922  
G01 X-0.4782 Y2.5896  
G01 X-0.4697 Y2.5882  
G01 X-0.4610 Y2.5882  
G01 X-0.4525 Y2.5896  
G01 X-0.4444 Y2.5922  
G01 X-0.4367 Y2.5961  
G01 X-0.4297 Y2.6012  
G01 X-0.4236 Y2.6073  
G01 X-0.4186 Y2.6142  
G01 X-0.4147 Y2.6219  
G01 X-0.4120 Y2.6301  
G01 X-0.4107 Y2.6386  
G01 X-0.4107 Y2.6472  
G01 X-0.4120 Y2.6557  
G01 X-0.4147 Y2.6639  
G01 X-0.4186 Y2.6716  
G01 X-0.4236 Y2.6785  
G01 X-0.4297 Y2.6846  
G01 X-0.4367 Y2.6897  
G01 X-0.4444 Y2.6936  
G01 X-0.4525 Y2.6963  
G01 X-0.4610 Y2.6976  
G01 X-0.4697 Y2.6976  
G01 X-0.4782 Y2.6963  
G01 X-0.4864 Y2.6936  
G01 X-0.4940 Y2.6897  
G01 X-0.5010 Y2.6846  
G01 X-0.5071 Y2.6785  
G01 X-0.5121 Y2.6716  
G01 X-0.5160 Y2.6639  
G01 X-0.5187 Y2.6557  
G01 X-0.5201 Y2.6472  
G01 X-0.5201 Y2.6386  
G01 X-0.5187 Y2.6301  
G01 X-0.5160 Y2.6219  
G01 X-0.5121 Y2.6142  
G01 X-0.5071 Y2.6073  
G01 X-0.5010 Y2.6012  
G00 Z0.0500  
G00 X-0.1893 Y2.6000  
G01 Z-0.0030 F10    
G01 X-0.1893 Y2.5914  F20    
G01 X-0.1880 Y2.5829  
G01 X-0.1853 Y2.5747  
G01 X-0.1814 Y2.5670  
G01 X-0.1764 Y2.5600  
G01 X-0.1703 Y2.5539  
G01 X-0.1633 Y2.5489  
G01 X-0.1556 Y2.5450  
G01 X-0.1475 Y2.5423  
G01 X-0.1390 Y2.5410  
G01 X-0.1303 Y2.5410  
G01 X-0.1218 Y2.5423  
G01 X-0.1136 Y2.5450  
G01 X-0.1060 Y2.5489  
G01 X-0.0990 Y2.5539  
G01 X-0.0929 Y2.5600  
G01 X-0.0879 Y2.5670  
G01 X-0.0840 Y2.5747  
G01 X-0.0813 Y2.5829  
G01 X-0.0799 Y2.5914  
G01 X-0.0799 Y2.6000  
G01 X-0.0813 Y2.6085  
G01 X-0.0840 Y2.6167  
G01 X-0.0879 Y2.6243  
G01 X-0.0929 Y2.6313  
G01 X-0.0990 Y2.6374  
G01 X-0.1060 Y2.6425  
G01 X-0.1136 Y2.6464  
G01 X-0.1218 Y2.6490  
G01 X-0.1303 Y2.6504  
G01 X-0.1390 Y2.6504  
G01 X-0.1475 Y2.6490  
G01 X-0.1556 Y2.6464  
G01 X-0.1633 Y2.6425  
G01 X-0.1703 Y2.6374  
G01 X-0.1764 Y2.6313  
G01 X-0.1814 Y2.6243  
G01 X-0.1853 Y2.6167  
G01 X-0.1880 Y2.6085  
G01 X-0.1893 Y2.6000  
G00 Z0.0500  
G00 X-0.1764 Y0.7400  
G01 Z-0.0030 F10    
G01 X-0.1814 Y0.7330  F20    
G01 X-0.1853 Y0.7253  
G01 X-0.1880 Y0.7171  
G01 X-0.1893 Y0.7086  
G01 X-0.1893 Y0.7000  
G01 X-0.1880 Y0.6915  
G01 X-0.1853 Y0.6833  
G01 X-0.1814 Y0.6757  
G01 X-0.1764 Y0.6687  
G01 X-0.1703 Y0.6626  
G01 X-0.1633 Y0.6575  
G01 X-0.1556 Y0.6536  
G01 X-0.1475 Y0.6510  
G01 X-0.1390 Y0.6496  
G01 X-0.1303 Y0.6496  
G01 X-0.1218 Y0.6510  
G01 X-0.1136 Y0.6536  
G01 X-0.1060 Y0.6575  
G01 X-0.0990 Y0.6626  
G01 X-0.0929 Y0.6687  
G01 X-0.0879 Y0.6757  
G01 X-0.0840 Y0.6833  
G01 X-0.0813 Y0.6915  
G01 X-0.0799 Y0.7000  
G01 X-0.0799 Y0.7086  
G01 X-0.0813 Y0.7171  
G01 X-0.0840 Y0.7253  
G01 X-0.0879 Y0.7330  
G01 X-0.0929 Y0.7400  
G01 X-0.0990 Y0.7461  
G01 X-0.1060 Y0.7511  
G01 X-0.1136 Y0.7550  
G01 X-0.1218 Y0.7577  
G01 X-0.1303 Y0.7590  
G01 X-0.1390 Y0.7590  
G01 X-0.1475 Y0.7577  
G01 X-0.1556 Y0.7550  
G01 X-0.1633 Y0.7511  
G01 X-0.1703 Y0.7461  
G01 X-0.1764 Y0.7400  
G00 Z0.0500  
G00 X-0.1930 Y0.4611  
G01 Z-0.0030 F10    
G01 X-0.1883 Y0.4675  F20    
G01 X-0.1848 Y0.4745  
G01 X-0.1823 Y0.4820  
G01 X-0.1811 Y0.4898  
G01 X-0.1811 Y0.4976  
G01 X-0.1823 Y0.5054  
G01 X-0.1848 Y0.5129  
G01 X-0.1883 Y0.5199  
G01 X-0.1930 Y0.5263  
G01 X-0.1985 Y0.5318  
G01 X-0.2049 Y0.5365  
G01 X-0.2081 Y0.5381  
G01 X-0.2081 Y0.6334  
G01 X-0.2090 Y0.6378  
G01 X-0.2107 Y0.6420  
G01 X-0.2132 Y0.6458  
G01 X-0.3821 Y0.8147  
G01 X-0.3853 Y0.8179  
G01 X-0.3891 Y0.8204  
G01 X-0.3933 Y0.8221  
G01 X-0.3977 Y0.8230  
G01 X-2.5270 Y0.8230  
G01 X-2.5270 Y1.0523  
G01 X-2.5279 Y1.0567  
G01 X-2.5296 Y1.0609  
G01 X-2.5321 Y1.0647  
G01 X-2.5353 Y1.0679  
G01 X-2.6175 Y1.1500  
G01 X-2.5321 Y1.2353  
G01 X-2.5296 Y1.2391  
G01 X-2.5279 Y1.2433  
G01 X-2.5270 Y1.2477  
G01 X-2.5270 Y1.7023  
G01 X-2.5279 Y1.7067  
G01 X-2.5296 Y1.7109  
G01 X-2.5321 Y1.7147  
G01 X-2.5353 Y1.7179  
G01 X-2.6175 Y1.8000  
G01 X-2.5321 Y1.8853  
G01 X-2.5296 Y1.8891  
G01 X-2.5279 Y1.8933  
G01 X-2.5270 Y1.8977  
G01 X-2.5270 Y2.2523  
G01 X-2.5279 Y2.2567  
G01 X-2.5296 Y2.2609  
G01 X-2.5321 Y2.2647  
G01 X-2.5353 Y2.2679  
G01 X-2.6770 Y2.4095  
G01 X-2.6770 Y2.5633  
G01 X-2.6667 Y2.5633  
G01 X-2.6596 Y2.5647  
G01 X-2.6529 Y2.5675  
G01 X-2.6469 Y2.5715  
G01 X-2.6418 Y2.5766  
G01 X-2.6378 Y2.5826  
G01 X-2.6350 Y2.5893  
G01 X-2.6336 Y2.5964  
G01 X-2.6336 Y2.6036  
G01 X-2.6350 Y2.6107  
G01 X-2.6378 Y2.6174  
G01 X-2.6418 Y2.6234  
G01 X-2.6469 Y2.6285  
G01 X-2.6529 Y2.6325  
G01 X-2.6596 Y2.6353  
G01 X-2.6667 Y2.6367  
G01 X-2.7333 Y2.6367  
G01 X-2.7404 Y2.6353  
G01 X-2.7471 Y2.6325  
G01 X-2.7531 Y2.6285  
G01 X-2.7582 Y2.6234  
G01 X-2.7584 Y2.6230  
G01 X-2.9416 Y2.6230  
G01 X-2.9418 Y2.6234  
G01 X-2.9469 Y2.6285  
G01 X-2.9529 Y2.6325  
G01 X-2.9596 Y2.6353  
G01 X-2.9667 Y2.6367  
G01 X-3.0333 Y2.6367  
G01 X-3.0404 Y2.6353  
G01 X-3.0471 Y2.6325  
G01 X-3.0531 Y2.6285  
G01 X-3.0582 Y2.6234  
G01 X-3.0622 Y2.6174  
G01 X-3.0650 Y2.6107  
G01 X-3.0664 Y2.6036  
G01 X-3.0664 Y2.5964  
G01 X-3.0650 Y2.5893  
G01 X-3.0622 Y2.5826  
G01 X-3.0582 Y2.5766  
G01 X-3.0531 Y2.5715  
G01 X-3.0471 Y2.5675  
G01 X-3.0404 Y2.5647  
G01 X-3.0333 Y2.5633  
G01 X-2.9667 Y2.5633  
G01 X-2.9596 Y2.5647  
G01 X-2.9529 Y2.5675  
G01 X-2.9469 Y2.5715  
G01 X-2.9418 Y2.5766  
G01 X-2.9416 Y2.5770  
G01 X-2.7584 Y2.5770  
G01 X-2.7582 Y2.5766  
G01 X-2.7531 Y2.5715  
G01 X-2.7471 Y2.5675  
G01 X-2.7404 Y2.5647  
G01 X-2.7333 Y2.5633  
G01 X-2.7230 Y2.5633  
G01 X-2.7230 Y2.3977  
G01 X-2.7221 Y2.3933  
G01 X-2.7204 Y2.3891  
G01 X-2.7179 Y2.3853  
G01 X-2.5730 Y2.2405  
G01 X-2.5730 Y1.9095  
G01 X-2.6548 Y1.8277  
G01 X-2.7701 Y1.8277  
G01 X-2.7856 Y1.8432  
G01 X-2.8175 Y1.8432  
G01 X-2.8401 Y1.8207  
G01 X-2.8401 Y1.7888  
G01 X-2.8175 Y1.7662  
G01 X-2.7856 Y1.7662  
G01 X-2.7749 Y1.7770  
G01 X-2.6595 Y1.7770  
G01 X-2.5730 Y1.6905  
G01 X-2.5730 Y1.2595  
G01 X-2.6548 Y1.1777  
G01 X-2.7701 Y1.1777  
G01 X-2.7856 Y1.1932  
G01 X-2.8175 Y1.1932  
G01 X-2.8401 Y1.1707  
G01 X-2.8401 Y1.1388  
G01 X-2.8175 Y1.1162  
G01 X-2.7856 Y1.1162  
G01 X-2.7749 Y1.1270  
G01 X-2.6595 Y1.1270  
G01 X-2.5730 Y1.0405  
G01 X-2.5730 Y0.7658  
G01 X-2.7956 Y0.5432  
G01 X-2.8175 Y0.5432  
G01 X-2.8370 Y0.5237  
G01 X-2.8370 Y0.5310  
G01 X-2.8353 Y0.5321  
G01 X-2.8321 Y0.5353  
G01 X-2.8296 Y0.5391  
G01 X-2.8279 Y0.5433  
G01 X-2.8270 Y0.5477  
G01 X-2.8270 Y1.1070  
G01 X-2.8279 Y1.1114  
G01 X-2.8296 Y1.1156  
G01 X-2.8321 Y1.1194  
G01 X-2.8353 Y1.1226  
G01 X-2.8615 Y1.1488  
G01 X-2.8615 Y1.1707  
G01 X-2.8841 Y1.1932  
G01 X-2.9159 Y1.1932  
G01 X-2.9370 Y1.1722  
G01 X-2.9370 Y1.1810  
G01 X-2.9353 Y1.1821  
G01 X-2.8821 Y1.2353  
G01 X-2.8796 Y1.2391  
G01 X-2.8779 Y1.2433  
G01 X-2.8770 Y1.2477  
G01 X-2.8770 Y1.7733  
G01 X-2.8615 Y1.7888  
G01 X-2.8615 Y1.8207  
G01 X-2.8841 Y1.8432  
G01 X-2.9159 Y1.8432  
G01 X-2.9385 Y1.8207  
G01 X-2.9385 Y1.7888  
G01 X-2.9230 Y1.7733  
G01 X-2.9230 Y1.2595  
G01 X-2.9679 Y1.2147  
G01 X-2.9704 Y1.2109  
G01 X-2.9721 Y1.2067  
G01 X-2.9730 Y1.2023  
G01 X-2.9730 Y1.1977  
G01 X-2.9721 Y1.1933  
G01 X-2.9704 Y1.1891  
G01 X-2.9679 Y1.1853  
G01 X-2.9647 Y1.1821  
G01 X-2.9630 Y1.1810  
G01 X-2.9630 Y1.1737  
G01 X-2.9754 Y1.1862  
G01 X-2.9754 Y1.7733  
G01 X-2.9599 Y1.7888  
G01 X-2.9599 Y1.8207  
G01 X-2.9825 Y1.8432  
G01 X-3.0144 Y1.8432  
G01 X-3.0299 Y1.8277  
G01 X-3.1948 Y1.8277  
G01 X-3.1966 Y1.8278  
G01 X-3.1971 Y1.8277  
G01 X-3.1975 Y1.8277  
G01 X-3.1993 Y1.8274  
G01 X-3.2020 Y1.8269  
G01 X-3.2020 Y2.6155  
G01 X-3.1405 Y2.6770  
G01 X-3.0584 Y2.6770  
G01 X-3.0582 Y2.6766  
G01 X-3.0531 Y2.6715  
G01 X-3.0471 Y2.6675  
G01 X-3.0404 Y2.6647  
G01 X-3.0333 Y2.6633  
G01 X-2.9667 Y2.6633  
G01 X-2.9596 Y2.6647  
G01 X-2.9529 Y2.6675  
G01 X-2.9469 Y2.6715  
G01 X-2.9418 Y2.6766  
G01 X-2.9416 Y2.6770  
G01 X-2.7584 Y2.6770  
G01 X-2.7582 Y2.6766  
G01 X-2.7531 Y2.6715  
G01 X-2.7471 Y2.6675  
G01 X-2.7404 Y2.6647  
G01 X-2.7333 Y2.6633  
G01 X-2.6667 Y2.6633  
G01 X-2.6596 Y2.6647  
G01 X-2.6529 Y2.6675  
G01 X-2.6469 Y2.6715  
G01 X-2.6418 Y2.6766  
G01 X-2.6378 Y2.6826  
G01 X-2.6350 Y2.6893  
G01 X-2.6336 Y2.6964  
G01 X-2.6336 Y2.7018  
G01 X-2.4440 Y2.7776  
G01 X-2.4046 Y2.7833  
G01 X-2.2755 Y2.7833  
G01 X-2.2739 Y2.7801  
G01 X-2.2692 Y2.7737  
G01 X-2.2637 Y2.7682  
G01 X-2.2573 Y2.7635  
G01 X-2.2503 Y2.7600  
G01 X-2.2428 Y2.7575  
G01 X-2.2350 Y2.7563  
G01 X-2.2272 Y2.7563  
G01 X-2.2194 Y2.7575  
G01 X-2.2119 Y2.7600  
G01 X-2.2049 Y2.7635  
G01 X-2.1985 Y2.7682  
G01 X-2.1930 Y2.7737  
G01 X-2.1883 Y2.7801  
G01 X-2.1867 Y2.7833  
G01 X-1.7755 Y2.7833  
G01 X-1.7739 Y2.7801  
G01 X-1.7692 Y2.7737  
G01 X-1.7637 Y2.7682  
G01 X-1.7573 Y2.7635  
G01 X-1.7503 Y2.7600  
G01 X-1.7428 Y2.7575  
G01 X-1.7350 Y2.7563  
G01 X-1.7272 Y2.7563  
G01 X-1.7194 Y2.7575  
G01 X-1.7119 Y2.7600  
G01 X-1.7049 Y2.7635  
G01 X-1.6985 Y2.7682  
G01 X-1.6930 Y2.7737  
G01 X-1.6883 Y2.7801  
G01 X-1.6867 Y2.7833  
G01 X-1.2755 Y2.7833  
G01 X-1.2739 Y2.7801  
G01 X-1.2692 Y2.7737  
G01 X-1.2637 Y2.7682  
G01 X-1.2573 Y2.7635  
G01 X-1.2503 Y2.7600  
G01 X-1.2428 Y2.7575  
G01 X-1.2350 Y2.7563  
G01 X-1.2272 Y2.7563  
G01 X-1.2194 Y2.7575  
G01 X-1.2119 Y2.7600  
G01 X-1.2049 Y2.7635  
G01 X-1.1985 Y2.7682  
G01 X-1.1930 Y2.7737  
G01 X-1.1883 Y2.7801  
G01 X-1.1867 Y2.7833  
G01 X-0.7755 Y2.7833  
G01 X-0.7739 Y2.7801  
G01 X-0.7692 Y2.7737  
G01 X-0.7637 Y2.7682  
G01 X-0.7573 Y2.7635  
G01 X-0.7503 Y2.7600  
G01 X-0.7428 Y2.7575  
G01 X-0.7350 Y2.7563  
G01 X-0.7272 Y2.7563  
G01 X-0.7194 Y2.7575  
G01 X-0.7119 Y2.7600  
G01 X-0.7049 Y2.7635  
G01 X-0.6985 Y2.7682  
G01 X-0.6930 Y2.7737  
G01 X-0.6883 Y2.7801  
G01 X-0.6867 Y2.7833  
G01 X-0.2755 Y2.7833  
G01 X-0.2739 Y2.7801  
G01 X-0.2692 Y2.7737  
G01 X-0.2637 Y2.7682  
G01 X-0.2573 Y2.7635  
G01 X-0.2503 Y2.7600  
G01 X-0.2428 Y2.7575  
G01 X-0.2350 Y2.7563  
G01 X-0.2272 Y2.7563  
G01 X-0.2194 Y2.7575  
G01 X-0.2119 Y2.7600  
G01 X-0.2049 Y2.7635  
G01 X-0.1985 Y2.7682  
G01 X-0.1930 Y2.7737  
G01 X-0.1883 Y2.7801  
G01 X-0.1848 Y2.7871  
G01 X-0.1823 Y2.7946  
G01 X-0.1811 Y2.8024  
G01 X-0.1811 Y2.8102  
G01 X-0.1823 Y2.8180  
G01 X-0.1848 Y2.8255  
G01 X-0.1883 Y2.8325  
G01 X-0.1930 Y2.8389  
G01 X-0.1985 Y2.8444  
G01 X-0.2049 Y2.8491  
G01 X-0.2119 Y2.8526  
G01 X-0.2194 Y2.8551  
G01 X-0.2272 Y2.8563  
G01 X-0.2350 Y2.8563  
G01 X-0.2428 Y2.8551  
G01 X-0.2503 Y2.8526  
G01 X-0.2573 Y2.8491  
G01 X-0.2637 Y2.8444  
G01 X-0.2692 Y2.8389  
G01 X-0.2739 Y2.8325  
G01 X-0.2755 Y2.8293  
G01 X-0.6867 Y2.8293  
G01 X-0.6883 Y2.8325  
G01 X-0.6930 Y2.8389  
G01 X-0.6985 Y2.8444  
G01 X-0.7049 Y2.8491  
G01 X-0.7119 Y2.8526  
G01 X-0.7194 Y2.8551  
G01 X-0.7272 Y2.8563  
G01 X-0.7350 Y2.8563  
G01 X-0.7428 Y2.8551  
G01 X-0.7503 Y2.8526  
G01 X-0.7573 Y2.8491  
G01 X-0.7637 Y2.8444  
G01 X-0.7692 Y2.8389  
G01 X-0.7739 Y2.8325  
G01 X-0.7755 Y2.8293  
G01 X-1.1867 Y2.8293  
G01 X-1.1883 Y2.8325  
G01 X-1.1930 Y2.8389  
G01 X-1.1985 Y2.8444  
G01 X-1.2049 Y2.8491  
G01 X-1.2119 Y2.8526  
G01 X-1.2194 Y2.8551  
G01 X-1.2272 Y2.8563  
G01 X-1.2350 Y2.8563  
G01 X-1.2428 Y2.8551  
G01 X-1.2503 Y2.8526  
G01 X-1.2573 Y2.8491  
G01 X-1.2637 Y2.8444  
G01 X-1.2692 Y2.8389  
G01 X-1.2739 Y2.8325  
G01 X-1.2755 Y2.8293  
G01 X-1.6867 Y2.8293  
G01 X-1.6883 Y2.8325  
G01 X-1.6930 Y2.8389  
G01 X-1.6985 Y2.8444  
G01 X-1.7049 Y2.8491  
G01 X-1.7119 Y2.8526  
G01 X-1.7194 Y2.8551  
G01 X-1.7272 Y2.8563  
G01 X-1.7350 Y2.8563  
G01 X-1.7428 Y2.8551  
G01 X-1.7503 Y2.8526  
G01 X-1.7573 Y2.8491  
G01 X-1.7637 Y2.8444  
G01 X-1.7692 Y2.8389  
G01 X-1.7739 Y2.8325  
G01 X-1.7755 Y2.8293  
G01 X-2.1867 Y2.8293  
G01 X-2.1883 Y2.8325  
G01 X-2.1930 Y2.8389  
G01 X-2.1985 Y2.8444  
G01 X-2.2049 Y2.8491  
G01 X-2.2119 Y2.8526  
G01 X-2.2194 Y2.8551  
G01 X-2.2272 Y2.8563  
G01 X-2.2350 Y2.8563  
G01 X-2.2428 Y2.8551  
G01 X-2.2503 Y2.8526  
G01 X-2.2573 Y2.8491  
G01 X-2.2637 Y2.8444  
G01 X-2.2692 Y2.8389  
G01 X-2.2739 Y2.8325  
G01 X-2.2755 Y2.8293  
G01 X-2.4057 Y2.8293  
G01 X-2.4073 Y2.8294  
G01 X-2.4079 Y2.8293  
G01 X-2.4086 Y2.8293  
G01 X-2.4102 Y2.8290  
G01 X-2.4515 Y2.8230  
G01 X-2.4520 Y2.8230  
G01 X-2.4537 Y2.8227  
G01 X-2.4555 Y2.8224  
G01 X-2.4560 Y2.8223  
G01 X-2.4564 Y2.8222  
G01 X-2.4581 Y2.8215  
G01 X-2.4598 Y2.8209  
G01 X-2.4602 Y2.8207  
G01 X-2.6702 Y2.7367  
G01 X-2.7333 Y2.7367  
G01 X-2.7404 Y2.7353  
G01 X-2.7471 Y2.7325  
G01 X-2.7531 Y2.7285  
G01 X-2.7582 Y2.7234  
G01 X-2.7584 Y2.7230  
G01 X-2.9416 Y2.7230  
G01 X-2.9418 Y2.7234  
G01 X-2.9469 Y2.7285  
G01 X-2.9529 Y2.7325  
G01 X-2.9596 Y2.7353  
G01 X-2.9667 Y2.7367  
G01 X-3.0333 Y2.7367  
G01 X-3.0404 Y2.7353  
G01 X-3.0471 Y2.7325  
G01 X-3.0531 Y2.7285  
G01 X-3.0582 Y2.7234  
G01 X-3.0584 Y2.7230  
G01 X-3.1523 Y2.7230  
G01 X-3.1567 Y2.7221  
G01 X-3.1609 Y2.7204  
G01 X-3.1647 Y2.7179  
G01 X-3.2397 Y2.6429  
G01 X-3.2429 Y2.6397  
G01 X-3.2454 Y2.6359  
G01 X-3.2471 Y2.6317  
G01 X-3.2480 Y2.6273  
G01 X-3.2480 Y1.8004  
G01 X-3.2481 Y1.7986  
G01 X-3.2480 Y1.7982  
G01 X-3.2480 Y0.6514  
G01 X-3.2481 Y0.6505  
G01 X-3.2480 Y0.6491  
G01 X-3.2480 Y0.6477  
G01 X-3.2478 Y0.6469  
G01 X-3.2478 Y0.6460  
G01 X-3.2474 Y0.6446  
G01 X-3.2471 Y0.6433  
G01 X-3.2468 Y0.6425  
G01 X-3.2465 Y0.6416  
G01 X-3.2459 Y0.6404  
G01 X-3.2454 Y0.6391  
G01 X-3.2449 Y0.6384  
G01 X-3.2445 Y0.6376  
G01 X-3.2436 Y0.6365  
G01 X-3.2429 Y0.6353  
G01 X-3.2422 Y0.6347  
G01 X-3.2417 Y0.6340  
G01 X-3.2406 Y0.6331  
G01 X-3.2397 Y0.6321  
G01 X-3.2389 Y0.6316  
G01 X-3.0656 Y0.4831  
G01 X-3.0647 Y0.4821  
G01 X-3.0639 Y0.4816  
G01 X-3.0632 Y0.4811  
G01 X-3.0620 Y0.4804  
G01 X-3.0609 Y0.4796  
G01 X-3.0601 Y0.4793  
G01 X-3.0593 Y0.4788  
G01 X-3.0580 Y0.4784  
G01 X-3.0567 Y0.4779  
G01 X-3.0558 Y0.4777  
G01 X-3.0550 Y0.4774  
G01 X-3.0536 Y0.4773  
G01 X-3.0523 Y0.4770  
G01 X-3.0514 Y0.4770  
G01 X-3.0505 Y0.4769  
G01 X-3.0491 Y0.4770  
G01 X-3.0251 Y0.4770  
G01 X-3.0144 Y0.4662  
G01 X-2.9825 Y0.4662  
G01 X-2.9630 Y0.4857  
G01 X-2.9630 Y0.4690  
G01 X-2.9647 Y0.4679  
G01 X-2.9679 Y0.4647  
G01 X-2.9704 Y0.4609  
G01 X-2.9721 Y0.4567  
G01 X-2.9730 Y0.4523  
G01 X-2.9730 Y0.3477  
G01 X-2.9721 Y0.3433  
G01 X-2.9704 Y0.3391  
G01 X-2.9679 Y0.3353  
G01 X-2.9647 Y0.3321  
G01 X-2.8179 Y0.1853  
G01 X-2.8147 Y0.1821  
G01 X-2.8109 Y0.1796  
G01 X-2.8067 Y0.1779  
G01 X-2.8023 Y0.1770  
G01 X-2.4867 Y0.1770  
G01 X-2.4867 Y0.1667  
G01 X-2.4853 Y0.1596  
G01 X-2.4825 Y0.1529  
G01 X-2.4785 Y0.1469  
G01 X-2.4734 Y0.1418  
G01 X-2.4674 Y0.1378  
G01 X-2.4607 Y0.1350  
G01 X-2.4536 Y0.1336  
G01 X-2.4464 Y0.1336  
G01 X-2.4393 Y0.1350  
G01 X-2.4326 Y0.1378  
G01 X-2.4266 Y0.1418  
G01 X-2.4215 Y0.1469  
G01 X-2.4175 Y0.1529  
G01 X-2.4147 Y0.1596  
G01 X-2.4133 Y0.1667  
G01 X-2.4133 Y0.2333  
G01 X-2.4147 Y0.2404  
G01 X-2.4175 Y0.2471  
G01 X-2.4215 Y0.2531  
G01 X-2.4266 Y0.2582  
G01 X-2.4326 Y0.2622  
G01 X-2.4393 Y0.2650  
G01 X-2.4464 Y0.2664  
G01 X-2.4536 Y0.2664  
G01 X-2.4607 Y0.2650  
G01 X-2.4674 Y0.2622  
G01 X-2.4734 Y0.2582  
G01 X-2.4785 Y0.2531  
G01 X-2.4825 Y0.2471  
G01 X-2.4853 Y0.2404  
G01 X-2.4867 Y0.2333  
G01 X-2.4867 Y0.2230  
G01 X-2.7905 Y0.2230  
G01 X-2.9270 Y0.3595  
G01 X-2.9270 Y0.4523  
G01 X-2.9279 Y0.4567  
G01 X-2.9296 Y0.4609  
G01 X-2.9321 Y0.4647  
G01 X-2.9353 Y0.4679  
G01 X-2.9370 Y0.4690  
G01 X-2.9370 Y0.4873  
G01 X-2.9230 Y0.4733  
G01 X-2.9230 Y0.3977  
G01 X-2.9221 Y0.3933  
G01 X-2.9204 Y0.3891  
G01 X-2.9179 Y0.3853  
G01 X-2.9147 Y0.3821  
G01 X-2.8429 Y0.3103  
G01 X-2.8397 Y0.3071  
G01 X-2.8359 Y0.3046  
G01 X-2.8317 Y0.3029  
G01 X-2.8273 Y0.3020  
G01 X-2.4345 Y0.3020  
G01 X-2.3813 Y0.2488  
G01 X-2.3825 Y0.2471  
G01 X-2.3853 Y0.2404  
G01 X-2.3867 Y0.2333  
G01 X-2.3867 Y0.1667  
G01 X-2.3853 Y0.1596  
G01 X-2.3825 Y0.1529  
G01 X-2.3785 Y0.1469  
G01 X-2.3734 Y0.1418  
G01 X-2.3674 Y0.1378  
G01 X-2.3607 Y0.1350  
G01 X-2.3536 Y0.1336  
G01 X-2.3464 Y0.1336  
G01 X-2.3393 Y0.1350  
G01 X-2.3326 Y0.1378  
G01 X-2.3266 Y0.1418  
G01 X-2.3215 Y0.1469  
G01 X-2.3175 Y0.1529  
G01 X-2.3147 Y0.1596  
G01 X-2.3133 Y0.1667  
G01 X-2.3133 Y0.2333  
G01 X-2.3147 Y0.2404  
G01 X-2.3175 Y0.2471  
G01 X-2.3215 Y0.2531  
G01 X-2.3266 Y0.2582  
G01 X-2.3292 Y0.2599  
G01 X-2.3296 Y0.2609  
G01 X-2.3321 Y0.2647  
G01 X-2.3353 Y0.2679  
G01 X-2.4103 Y0.3429  
G01 X-2.4141 Y0.3454  
G01 X-2.4183 Y0.3471  
G01 X-2.4227 Y0.3480  
G01 X-2.8155 Y0.3480  
G01 X-2.8770 Y0.4095  
G01 X-2.8770 Y0.4733  
G01 X-2.8630 Y0.4873  
G01 X-2.8630 Y0.4690  
G01 X-2.8647 Y0.4679  
G01 X-2.8679 Y0.4647  
G01 X-2.8704 Y0.4609  
G01 X-2.8721 Y0.4567  
G01 X-2.8730 Y0.4523  
G01 X-2.8730 Y0.4477  
G01 X-2.8721 Y0.4433  
G01 X-2.8704 Y0.4391  
G01 X-2.8679 Y0.4353  
G01 X-2.8147 Y0.3821  
G01 X-2.8109 Y0.3796  
G01 X-2.8067 Y0.3779  
G01 X-2.8023 Y0.3770  
G01 X-2.4095 Y0.3770  
G01 X-2.2813 Y0.2488  
G01 X-2.2825 Y0.2471  
G01 X-2.2853 Y0.2404  
G01 X-2.2867 Y0.2333  
G01 X-2.2867 Y0.1667  
G01 X-2.2853 Y0.1596  
G01 X-2.2825 Y0.1529  
G01 X-2.2785 Y0.1469  
G01 X-2.2734 Y0.1418  
G01 X-2.2674 Y0.1378  
G01 X-2.2607 Y0.1350  
G01 X-2.2536 Y0.1336  
G01 X-2.2464 Y0.1336  
G01 X-2.2393 Y0.1350  
G01 X-2.2326 Y0.1378  
G01 X-2.2266 Y0.1418  
G01 X-2.2215 Y0.1469  
G01 X-2.2175 Y0.1529  
G01 X-2.2147 Y0.1596  
G01 X-2.2133 Y0.1667  
G01 X-2.2133 Y0.2333  
G01 X-2.2147 Y0.2404  
G01 X-2.2175 Y0.2471  
G01 X-2.2215 Y0.2531  
G01 X-2.2266 Y0.2582  
G01 X-2.2292 Y0.2599  
G01 X-2.2296 Y0.2609  
G01 X-2.2321 Y0.2647  
G01 X-2.3821 Y0.4147  
G01 X-2.3853 Y0.4179  
G01 X-2.3891 Y0.4204  
G01 X-2.3933 Y0.4221  
G01 X-2.3977 Y0.4230  
G01 X-2.7905 Y0.4230  
G01 X-2.8353 Y0.4679  
G01 X-2.8370 Y0.4690  
G01 X-2.8370 Y0.4857  
G01 X-2.8175 Y0.4662  
G01 X-2.7856 Y0.4662  
G01 X-2.7631 Y0.4888  
G01 X-2.7631 Y0.5107  
G01 X-2.5321 Y0.7416  
G01 X-2.5296 Y0.7454  
G01 X-2.5279 Y0.7496  
G01 X-2.5270 Y0.7540  
G01 X-2.5270 Y0.7770  
G01 X-2.3230 Y0.7770  
G01 X-2.3230 Y0.6477  
G01 X-2.3221 Y0.6433  
G01 X-2.3204 Y0.6391  
G01 X-2.3179 Y0.6353  
G01 X-2.3147 Y0.6321  
G01 X-2.2541 Y0.5716  
G01 X-2.2541 Y0.5381  
G01 X-2.2573 Y0.5365  
G01 X-2.2637 Y0.5318  
G01 X-2.2692 Y0.5263  
G01 X-2.2739 Y0.5199  
G01 X-2.2774 Y0.5129  
G01 X-2.2799 Y0.5054  
G01 X-2.2811 Y0.4976  
G01 X-2.2811 Y0.4898  
G01 X-2.2799 Y0.4820  
G01 X-2.2774 Y0.4745  
G01 X-2.2739 Y0.4675  
G01 X-2.2692 Y0.4611  
G01 X-2.2637 Y0.4556  
G01 X-2.2573 Y0.4509  
G01 X-2.2503 Y0.4474  
G01 X-2.2428 Y0.4449  
G01 X-2.2350 Y0.4437  
G01 X-2.2272 Y0.4437  
G01 X-2.2194 Y0.4449  
G01 X-2.2119 Y0.4474  
G01 X-2.2049 Y0.4509  
G01 X-2.1985 Y0.4556  
G01 X-2.1930 Y0.4611  
G01 X-2.1883 Y0.4675  
G01 X-2.1848 Y0.4745  
G01 X-2.1823 Y0.4820  
G01 X-2.1811 Y0.4898  
G01 X-2.1811 Y0.4976  
G01 X-2.1823 Y0.5054  
G01 X-2.1848 Y0.5129  
G01 X-2.1883 Y0.5199  
G01 X-2.1930 Y0.5263  
G01 X-2.1985 Y0.5318  
G01 X-2.2049 Y0.5365  
G01 X-2.2081 Y0.5381  
G01 X-2.2081 Y0.5834  
G01 X-2.2090 Y0.5878  
G01 X-2.2107 Y0.5920  
G01 X-2.2132 Y0.5958  
G01 X-2.2770 Y0.6595  
G01 X-2.2770 Y0.7770  
G01 X-1.8230 Y0.7770  
G01 X-1.8230 Y0.6477  
G01 X-1.8221 Y0.6433  
G01 X-1.8204 Y0.6391  
G01 X-1.8179 Y0.6353  
G01 X-1.8147 Y0.6321  
G01 X-1.7541 Y0.5716  
G01 X-1.7541 Y0.5381  
G01 X-1.7573 Y0.5365  
G01 X-1.7637 Y0.5318  
G01 X-1.7692 Y0.5263  
G01 X-1.7739 Y0.5199  
G01 X-1.7774 Y0.5129  
G01 X-1.7799 Y0.5054  
G01 X-1.7811 Y0.4976  
G01 X-1.7811 Y0.4898  
G01 X-1.7799 Y0.4820  
G01 X-1.7774 Y0.4745  
G01 X-1.7739 Y0.4675  
G01 X-1.7692 Y0.4611  
G01 X-1.7637 Y0.4556  
G01 X-1.7573 Y0.4509  
G01 X-1.7503 Y0.4474  
G01 X-1.7428 Y0.4449  
G01 X-1.7350 Y0.4437  
G01 X-1.7272 Y0.4437  
G01 X-1.7194 Y0.4449  
G01 X-1.7119 Y0.4474  
G01 X-1.7049 Y0.4509  
G01 X-1.6985 Y0.4556  
G01 X-1.6930 Y0.4611  
G01 X-1.6883 Y0.4675  
G01 X-1.6848 Y0.4745  
G01 X-1.6823 Y0.4820  
G01 X-1.6811 Y0.4898  
G01 X-1.6811 Y0.4976  
G01 X-1.6823 Y0.5054  
G01 X-1.6848 Y0.5129  
G01 X-1.6883 Y0.5199  
G01 X-1.6930 Y0.5263  
G01 X-1.6985 Y0.5318  
G01 X-1.7049 Y0.5365  
G01 X-1.7081 Y0.5381  
G01 X-1.7081 Y0.5834  
G01 X-1.7090 Y0.5878  
G01 X-1.7107 Y0.5920  
G01 X-1.7132 Y0.5958  
G01 X-1.7770 Y0.6595  
G01 X-1.7770 Y0.7770  
G01 X-1.3230 Y0.7770  
G01 X-1.3230 Y0.6477  
G01 X-1.3221 Y0.6433  
G01 X-1.3204 Y0.6391  
G01 X-1.3179 Y0.6353  
G01 X-1.3147 Y0.6321  
G01 X-1.2541 Y0.5716  
G01 X-1.2541 Y0.5381  
G01 X-1.2573 Y0.5365  
G01 X-1.2637 Y0.5318  
G01 X-1.2692 Y0.5263  
G01 X-1.2739 Y0.5199  
G01 X-1.2774 Y0.5129  
G01 X-1.2799 Y0.5054  
G01 X-1.2811 Y0.4976  
G01 X-1.2811 Y0.4898  
G01 X-1.2799 Y0.4820  
G01 X-1.2774 Y0.4745  
G01 X-1.2739 Y0.4675  
G01 X-1.2692 Y0.4611  
G01 X-1.2637 Y0.4556  
G01 X-1.2573 Y0.4509  
G01 X-1.2503 Y0.4474  
G01 X-1.2428 Y0.4449  
G01 X-1.2350 Y0.4437  
G01 X-1.2272 Y0.4437  
G01 X-1.2194 Y0.4449  
G01 X-1.2119 Y0.4474  
G01 X-1.2049 Y0.4509  
G01 X-1.1985 Y0.4556  
G01 X-1.1930 Y0.4611  
G01 X-1.1883 Y0.4675  
G01 X-1.1848 Y0.4745  
G01 X-1.1823 Y0.4820  
G01 X-1.1811 Y0.4898  
G01 X-1.1811 Y0.4976  
G01 X-1.1823 Y0.5054  
G01 X-1.1848 Y0.5129  
G01 X-1.1883 Y0.5199  
G01 X-1.1930 Y0.5263  
G01 X-1.1985 Y0.5318  
G01 X-1.2049 Y0.5365  
G01 X-1.2081 Y0.5381  
G01 X-1.2081 Y0.5834  
G01 X-1.2090 Y0.5878  
G01 X-1.2107 Y0.5920  
G01 X-1.2132 Y0.5958  
G01 X-1.2770 Y0.6595  
G01 X-1.2770 Y0.7770  
G01 X-0.8230 Y0.7770  
G01 X-0.8230 Y0.6477  
G01 X-0.8221 Y0.6433  
G01 X-0.8204 Y0.6391  
G01 X-0.8179 Y0.6353  
G01 X-0.8147 Y0.6321  
G01 X-0.7541 Y0.5716  
G01 X-0.7541 Y0.5381  
G01 X-0.7573 Y0.5365  
G01 X-0.7637 Y0.5318  
G01 X-0.7692 Y0.5263  
G01 X-0.7739 Y0.5199  
G01 X-0.7774 Y0.5129  
G01 X-0.7799 Y0.5054  
G01 X-0.7811 Y0.4976  
G01 X-0.7811 Y0.4898  
G01 X-0.7799 Y0.4820  
G01 X-0.7774 Y0.4745  
G01 X-0.7739 Y0.4675  
G01 X-0.7692 Y0.4611  
G01 X-0.7637 Y0.4556  
G01 X-0.7573 Y0.4509  
G01 X-0.7503 Y0.4474  
G01 X-0.7428 Y0.4449  
G01 X-0.7350 Y0.4437  
G01 X-0.7272 Y0.4437  
G01 X-0.7194 Y0.4449  
G01 X-0.7119 Y0.4474  
G01 X-0.7049 Y0.4509  
G01 X-0.6985 Y0.4556  
G01 X-0.6930 Y0.4611  
G01 X-0.6883 Y0.4675  
G01 X-0.6848 Y0.4745  
G01 X-0.6823 Y0.4820  
G01 X-0.6811 Y0.4898  
G01 X-0.6811 Y0.4976  
G01 X-0.6823 Y0.5054  
G01 X-0.6848 Y0.5129  
G01 X-0.6883 Y0.5199  
G01 X-0.6930 Y0.5263  
G01 X-0.6985 Y0.5318  
G01 X-0.7049 Y0.5365  
G01 X-0.7081 Y0.5381  
G01 X-0.7081 Y0.5834  
G01 X-0.7090 Y0.5878  
G01 X-0.7107 Y0.5920  
G01 X-0.7132 Y0.5958  
G01 X-0.7770 Y0.6595  
G01 X-0.7770 Y0.7770  
G01 X-0.4095 Y0.7770  
G01 X-0.2541 Y0.6216  
G01 X-0.2541 Y0.5381  
G01 X-0.2573 Y0.5365  
G01 X-0.2637 Y0.5318  
G01 X-0.2692 Y0.5263  
G01 X-0.2739 Y0.5199  
G01 X-0.2774 Y0.5129  
G01 X-0.2799 Y0.5054  
G01 X-0.2811 Y0.4976  
G01 X-0.2811 Y0.4898  
G01 X-0.2799 Y0.4820  
G01 X-0.2774 Y0.4745  
G01 X-0.2739 Y0.4675  
G01 X-0.2692 Y0.4611  
G01 X-0.2637 Y0.4556  
G01 X-0.2573 Y0.4509  
G01 X-0.2503 Y0.4474  
G01 X-0.2428 Y0.4449  
G01 X-0.2350 Y0.4437  
G01 X-0.2272 Y0.4437  
G01 X-0.2194 Y0.4449  
G01 X-0.2119 Y0.4474  
G01 X-0.2049 Y0.4509  
G01 X-0.1985 Y0.4556  
G01 X-0.1930 Y0.4611  
G00 Z0.0500  
G00 X-0.3308 Y0.4611  
G01 Z-0.0030 F10    
G01 X-0.3261 Y0.4675  F20    
G01 X-0.3226 Y0.4745  
G01 X-0.3201 Y0.4820  
G01 X-0.3189 Y0.4898  
G01 X-0.3189 Y0.4976  
G01 X-0.3201 Y0.5054  
G01 X-0.3226 Y0.5129  
G01 X-0.3261 Y0.5199  
G01 X-0.3308 Y0.5263  
G01 X-0.3363 Y0.5318  
G01 X-0.3427 Y0.5365  
G01 X-0.3497 Y0.5400  
G01 X-0.3572 Y0.5425  
G01 X-0.3650 Y0.5437  
G01 X-0.3728 Y0.5437  
G01 X-0.3806 Y0.5425  
G01 X-0.3881 Y0.5400  
G01 X-0.3951 Y0.5365  
G01 X-0.4015 Y0.5318  
G01 X-0.4070 Y0.5263  
G01 X-0.4117 Y0.5199  
G01 X-0.4152 Y0.5129  
G01 X-0.4177 Y0.5054  
G01 X-0.4189 Y0.4976  
G01 X-0.4189 Y0.4898  
G01 X-0.4177 Y0.4820  
G01 X-0.4166 Y0.4786  
G01 X-0.6721 Y0.2230  
G01 X-1.7133 Y0.2230  
G01 X-1.7133 Y0.2333  
G01 X-1.7147 Y0.2404  
G01 X-1.7175 Y0.2471  
G01 X-1.7215 Y0.2531  
G01 X-1.7266 Y0.2582  
G01 X-1.7326 Y0.2622  
G01 X-1.7393 Y0.2650  
G01 X-1.7464 Y0.2664  
G01 X-1.7536 Y0.2664  
G01 X-1.7607 Y0.2650  
G01 X-1.7674 Y0.2622  
G01 X-1.7734 Y0.2582  
G01 X-1.7785 Y0.2531  
G01 X-1.7825 Y0.2471  
G01 X-1.7853 Y0.2404  
G01 X-1.7867 Y0.2333  
G01 X-1.7867 Y0.1667  
G01 X-1.7853 Y0.1596  
G01 X-1.7825 Y0.1529  
G01 X-1.7785 Y0.1469  
G01 X-1.7734 Y0.1418  
G01 X-1.7674 Y0.1378  
G01 X-1.7607 Y0.1350  
G01 X-1.7536 Y0.1336  
G01 X-1.7464 Y0.1336  
G01 X-1.7393 Y0.1350  
G01 X-1.7326 Y0.1378  
G01 X-1.7266 Y0.1418  
G01 X-1.7215 Y0.1469  
G01 X-1.7175 Y0.1529  
G01 X-1.7147 Y0.1596  
G01 X-1.7133 Y0.1667  
G01 X-1.7133 Y0.1770  
G01 X-0.6603 Y0.1770  
G01 X-0.6559 Y0.1779  
G01 X-0.6517 Y0.1796  
G01 X-0.6479 Y0.1821  
G01 X-0.3840 Y0.4460  
G01 X-0.3806 Y0.4449  
G01 X-0.3728 Y0.4437  
G01 X-0.3650 Y0.4437  
G01 X-0.3572 Y0.4449  
G01 X-0.3497 Y0.4474  
G01 X-0.3427 Y0.4509  
G01 X-0.3363 Y0.4556  
G01 X-0.3308 Y0.4611  
G00 Z0.0500  
G00 X-0.4217 Y0.6198  
G01 Z-0.0030 F10    
G01 X-0.4164 Y0.6271  F20    
G01 X-0.4123 Y0.6351  
G01 X-0.4096 Y0.6437  
G01 X-0.4082 Y0.6526  
G01 X-0.4082 Y0.6616  
G01 X-0.4096 Y0.6705  
G01 X-0.4123 Y0.6790  
G01 X-0.4164 Y0.6871  
G01 X-0.4217 Y0.6943  
G01 X-0.4281 Y0.7007  
G01 X-0.4354 Y0.7060  
G01 X-0.4434 Y0.7101  
G01 X-0.4520 Y0.7129  
G01 X-0.4609 Y0.7143  
G01 X-0.4699 Y0.7143  
G01 X-0.4787 Y0.7129  
G01 X-0.4873 Y0.7101  
G01 X-0.4953 Y0.7060  
G01 X-0.5026 Y0.7007  
G01 X-0.5090 Y0.6943  
G01 X-0.5143 Y0.6871  
G01 X-0.5184 Y0.6790  
G01 X-0.5211 Y0.6705  
G01 X-0.5226 Y0.6616  
G01 X-0.5226 Y0.6526  
G01 X-0.5211 Y0.6437  
G01 X-0.5184 Y0.6351  
G01 X-0.5143 Y0.6271  
G01 X-0.5090 Y0.6198  
G01 X-0.5026 Y0.6135  
G01 X-0.4953 Y0.6082  
G01 X-0.4873 Y0.6041  
G01 X-0.4787 Y0.6013  
G01 X-0.4699 Y0.5999  
G01 X-0.4609 Y0.5999  
G01 X-0.4520 Y0.6013  
G01 X-0.4434 Y0.6041  
G01 X-0.4354 Y0.6082  
G01 X-0.4281 Y0.6135  
G01 X-0.4217 Y0.6198  
G00 Z0.0500  
G00 X-0.5910 Y0.6671  
G01 Z-0.0030 F10    
G01 X-0.5857 Y0.6744  F20    
G01 X-0.5816 Y0.6824  
G01 X-0.5789 Y0.6909  
G01 X-0.5774 Y0.6998  
G01 X-0.5774 Y0.7088  
G01 X-0.5789 Y0.7177  
G01 X-0.5816 Y0.7263  
G01 X-0.5857 Y0.7343  
G01 X-0.5910 Y0.7416  
G01 X-0.5974 Y0.7480  
G01 X-0.6047 Y0.7532  
G01 X-0.6127 Y0.7573  
G01 X-0.6213 Y0.7601  
G01 X-0.6301 Y0.7615  
G01 X-0.6391 Y0.7615  
G01 X-0.6480 Y0.7601  
G01 X-0.6566 Y0.7573  
G01 X-0.6646 Y0.7532  
G01 X-0.6719 Y0.7480  
G01 X-0.6783 Y0.7416  
G01 X-0.6836 Y0.7343  
G01 X-0.6877 Y0.7263  
G01 X-0.6904 Y0.7177  
G01 X-0.6918 Y0.7088  
G01 X-0.6918 Y0.6998  
G01 X-0.6904 Y0.6909  
G01 X-0.6877 Y0.6824  
G01 X-0.6836 Y0.6744  
G01 X-0.6783 Y0.6671  
G01 X-0.6719 Y0.6607  
G01 X-0.6646 Y0.6554  
G01 X-0.6566 Y0.6513  
G01 X-0.6480 Y0.6485  
G01 X-0.6391 Y0.6471  
G01 X-0.6301 Y0.6471  
G01 X-0.6213 Y0.6485  
G01 X-0.6127 Y0.6513  
G01 X-0.6047 Y0.6554  
G01 X-0.5974 Y0.6607  
G01 X-0.5910 Y0.6671  
G00 Z0.0500  
G00 X-0.9096 Y0.6705  
G01 Z-0.0030 F10    
G01 X-0.9123 Y0.6790  F20    
G01 X-0.9164 Y0.6871  
G01 X-0.9217 Y0.6943  
G01 X-0.9281 Y0.7007  
G01 X-0.9354 Y0.7060  
G01 X-0.9434 Y0.7101  
G01 X-0.9520 Y0.7129  
G01 X-0.9609 Y0.7143  
G01 X-0.9699 Y0.7143  
G01 X-0.9787 Y0.7129  
G01 X-0.9873 Y0.7101  
G01 X-0.9953 Y0.7060  
G01 X-1.0026 Y0.7007  
G01 X-1.0090 Y0.6943  
G01 X-1.0143 Y0.6871  
G01 X-1.0184 Y0.6790  
G01 X-1.0211 Y0.6705  
G01 X-1.0226 Y0.6616  
G01 X-1.0226 Y0.6526  
G01 X-1.0211 Y0.6437  
G01 X-1.0184 Y0.6351  
G01 X-1.0143 Y0.6271  
G01 X-1.0090 Y0.6198  
G01 X-1.0026 Y0.6135  
G01 X-0.9953 Y0.6082  
G01 X-0.9873 Y0.6041  
G01 X-0.9787 Y0.6013  
G01 X-0.9699 Y0.5999  
G01 X-0.9609 Y0.5999  
G01 X-0.9520 Y0.6013  
G01 X-0.9434 Y0.6041  
G01 X-0.9354 Y0.6082  
G01 X-0.9281 Y0.6135  
G01 X-0.9217 Y0.6198  
G01 X-0.9164 Y0.6271  
G01 X-0.9123 Y0.6351  
G01 X-0.9096 Y0.6437  
G01 X-0.9082 Y0.6526  
G01 X-0.9082 Y0.6616  
G01 X-0.9096 Y0.6705  
G00 Z0.0500  
G00 X-0.9070 Y0.5263  
G01 Z-0.0030 F10    
G01 X-0.9117 Y0.5199  F20    
G01 X-0.9152 Y0.5129  
G01 X-0.9177 Y0.5054  
G01 X-0.9189 Y0.4976  
G01 X-0.9189 Y0.4898  
G01 X-0.9177 Y0.4820  
G01 X-0.9176 Y0.4818  
G01 X-1.0712 Y0.3480  
G01 X-1.7977 Y0.3480  
G01 X-1.8000 Y0.3480  
G01 X-1.8023 Y0.3480  
G01 X-1.8045 Y0.3475  
G01 X-1.8067 Y0.3471  
G01 X-1.8088 Y0.3463  
G01 X-1.8109 Y0.3454  
G01 X-1.8128 Y0.3441  
G01 X-1.8147 Y0.3429  
G01 X-1.8163 Y0.3412  
G01 X-1.8179 Y0.3397  
G01 X-1.8191 Y0.3378  
G01 X-1.8204 Y0.3359  
G01 X-1.8691 Y0.2628  
G01 X-1.8704 Y0.2609  
G01 X-1.8708 Y0.2599  
G01 X-1.8734 Y0.2582  
G01 X-1.8785 Y0.2531  
G01 X-1.8825 Y0.2471  
G01 X-1.8853 Y0.2404  
G01 X-1.8867 Y0.2333  
G01 X-1.8867 Y0.1667  
G01 X-1.8853 Y0.1596  
G01 X-1.8825 Y0.1529  
G01 X-1.8785 Y0.1469  
G01 X-1.8734 Y0.1418  
G01 X-1.8674 Y0.1378  
G01 X-1.8607 Y0.1350  
G01 X-1.8536 Y0.1336  
G01 X-1.8464 Y0.1336  
G01 X-1.8393 Y0.1350  
G01 X-1.8326 Y0.1378  
G01 X-1.8266 Y0.1418  
G01 X-1.8215 Y0.1469  
G01 X-1.8175 Y0.1529  
G01 X-1.8147 Y0.1596  
G01 X-1.8133 Y0.1667  
G01 X-1.8133 Y0.2333  
G01 X-1.8147 Y0.2404  
G01 X-1.8175 Y0.2471  
G01 X-1.8209 Y0.2522  
G01 X-1.7877 Y0.3020  
G01 X-1.0634 Y0.3020  
G01 X-1.0619 Y0.3019  
G01 X-1.0611 Y0.3020  
G01 X-1.0603 Y0.3020  
G01 X-1.0589 Y0.3023  
G01 X-1.0574 Y0.3025  
G01 X-1.0567 Y0.3027  
G01 X-1.0559 Y0.3029  
G01 X-1.0545 Y0.3034  
G01 X-1.0531 Y0.3039  
G01 X-1.0524 Y0.3043  
G01 X-1.0517 Y0.3046  
G01 X-1.0505 Y0.3054  
G01 X-1.0492 Y0.3062  
G01 X-1.0486 Y0.3067  
G01 X-1.0479 Y0.3071  
G01 X-1.0469 Y0.3082  
G01 X-0.8874 Y0.4471  
G01 X-0.8806 Y0.4449  
G01 X-0.8728 Y0.4437  
G01 X-0.8650 Y0.4437  
G01 X-0.8572 Y0.4449  
G01 X-0.8497 Y0.4474  
G01 X-0.8427 Y0.4509  
G01 X-0.8363 Y0.4556  
G01 X-0.8308 Y0.4611  
G01 X-0.8261 Y0.4675  
G01 X-0.8226 Y0.4745  
G01 X-0.8201 Y0.4820  
G01 X-0.8189 Y0.4898  
G01 X-0.8189 Y0.4976  
G01 X-0.8201 Y0.5054  
G01 X-0.8226 Y0.5129  
G01 X-0.8261 Y0.5199  
G01 X-0.8308 Y0.5263  
G01 X-0.8363 Y0.5318  
G01 X-0.8427 Y0.5365  
G01 X-0.8497 Y0.5400  
G01 X-0.8572 Y0.5425  
G01 X-0.8650 Y0.5437  
G01 X-0.8728 Y0.5437  
G01 X-0.8806 Y0.5425  
G01 X-0.8881 Y0.5400  
G01 X-0.8951 Y0.5365  
G01 X-0.9015 Y0.5318  
G01 X-0.9070 Y0.5263  
G00 Z0.0500  
G00 X-1.0910 Y0.6671  
G01 Z-0.0030 F10    
G01 X-1.0857 Y0.6744  F20    
G01 X-1.0816 Y0.6824  
G01 X-1.0789 Y0.6909  
G01 X-1.0774 Y0.6998  
G01 X-1.0774 Y0.7088  
G01 X-1.0789 Y0.7177  
G01 X-1.0816 Y0.7263  
G01 X-1.0857 Y0.7343  
G01 X-1.0910 Y0.7416  
G01 X-1.0974 Y0.7480  
G01 X-1.1047 Y0.7532  
G01 X-1.1127 Y0.7573  
G01 X-1.1213 Y0.7601  
G01 X-1.1301 Y0.7615  
G01 X-1.1391 Y0.7615  
G01 X-1.1480 Y0.7601  
G01 X-1.1566 Y0.7573  
G01 X-1.1646 Y0.7532  
G01 X-1.1719 Y0.7480  
G01 X-1.1783 Y0.7416  
G01 X-1.1836 Y0.7343  
G01 X-1.1877 Y0.7263  
G01 X-1.1904 Y0.7177  
G01 X-1.1918 Y0.7088  
G01 X-1.1918 Y0.6998  
G01 X-1.1904 Y0.6909  
G01 X-1.1877 Y0.6824  
G01 X-1.1836 Y0.6744  
G01 X-1.1783 Y0.6671  
G01 X-1.1719 Y0.6607  
G01 X-1.1646 Y0.6554  
G01 X-1.1566 Y0.6513  
G01 X-1.1480 Y0.6485  
G01 X-1.1391 Y0.6471  
G01 X-1.1301 Y0.6471  
G01 X-1.1213 Y0.6485  
G01 X-1.1127 Y0.6513  
G01 X-1.1047 Y0.6554  
G01 X-1.0974 Y0.6607  
G01 X-1.0910 Y0.6671  
G00 Z0.0500  
G00 X-1.4096 Y0.6705  
G01 Z-0.0030 F10    
G01 X-1.4123 Y0.6790  F20    
G01 X-1.4164 Y0.6871  
G01 X-1.4217 Y0.6943  
G01 X-1.4281 Y0.7007  
G01 X-1.4354 Y0.7060  
G01 X-1.4434 Y0.7101  
G01 X-1.4520 Y0.7129  
G01 X-1.4609 Y0.7143  
G01 X-1.4699 Y0.7143  
G01 X-1.4787 Y0.7129  
G01 X-1.4873 Y0.7101  
G01 X-1.4953 Y0.7060  
G01 X-1.5026 Y0.7007  
G01 X-1.5090 Y0.6943  
G01 X-1.5143 Y0.6871  
G01 X-1.5184 Y0.6790  
G01 X-1.5211 Y0.6705  
G01 X-1.5226 Y0.6616  
G01 X-1.5226 Y0.6526  
G01 X-1.5211 Y0.6437  
G01 X-1.5184 Y0.6351  
G01 X-1.5143 Y0.6271  
G01 X-1.5090 Y0.6198  
G01 X-1.5026 Y0.6135  
G01 X-1.4953 Y0.6082  
G01 X-1.4873 Y0.6041  
G01 X-1.4787 Y0.6013  
G01 X-1.4699 Y0.5999  
G01 X-1.4609 Y0.5999  
G01 X-1.4520 Y0.6013  
G01 X-1.4434 Y0.6041  
G01 X-1.4354 Y0.6082  
G01 X-1.4281 Y0.6135  
G01 X-1.4217 Y0.6198  
G01 X-1.4164 Y0.6271  
G01 X-1.4123 Y0.6351  
G01 X-1.4096 Y0.6437  
G01 X-1.4082 Y0.6526  
G01 X-1.4082 Y0.6616  
G01 X-1.4096 Y0.6705  
G00 Z0.0500  
G00 X-1.4070 Y0.5263  
G01 Z-0.0030 F10    
G01 X-1.4117 Y0.5199  F20    
G01 X-1.4152 Y0.5129  
G01 X-1.4177 Y0.5054  
G01 X-1.4189 Y0.4976  
G01 X-1.4189 Y0.4898  
G01 X-1.4177 Y0.4820  
G01 X-1.4166 Y0.4786  
G01 X-1.4721 Y0.4230  
G01 X-1.9023 Y0.4230  
G01 X-1.9067 Y0.4221  
G01 X-1.9109 Y0.4204  
G01 X-1.9147 Y0.4179  
G01 X-1.9179 Y0.4147  
G01 X-1.9679 Y0.3647  
G01 X-1.9704 Y0.3609  
G01 X-1.9721 Y0.3567  
G01 X-1.9730 Y0.3523  
G01 X-1.9730 Y0.2584  
G01 X-1.9734 Y0.2582  
G01 X-1.9785 Y0.2531  
G01 X-1.9825 Y0.2471  
G01 X-1.9853 Y0.2404  
G01 X-1.9867 Y0.2333  
G01 X-1.9867 Y0.1667  
G01 X-1.9853 Y0.1596  
G01 X-1.9825 Y0.1529  
G01 X-1.9785 Y0.1469  
G01 X-1.9734 Y0.1418  
G01 X-1.9674 Y0.1378  
G01 X-1.9607 Y0.1350  
G01 X-1.9536 Y0.1336  
G01 X-1.9464 Y0.1336  
G01 X-1.9393 Y0.1350  
G01 X-1.9326 Y0.1378  
G01 X-1.9266 Y0.1418  
G01 X-1.9215 Y0.1469  
G01 X-1.9175 Y0.1529  
G01 X-1.9147 Y0.1596  
G01 X-1.9133 Y0.1667  
G01 X-1.9133 Y0.2333  
G01 X-1.9147 Y0.2404  
G01 X-1.9175 Y0.2471  
G01 X-1.9215 Y0.2531  
G01 X-1.9266 Y0.2582  
G01 X-1.9270 Y0.2584  
G01 X-1.9270 Y0.3405  
G01 X-1.8905 Y0.3770  
G01 X-1.4603 Y0.3770  
G01 X-1.4559 Y0.3779  
G01 X-1.4517 Y0.3796  
G01 X-1.4479 Y0.3821  
G01 X-1.3840 Y0.4460  
G01 X-1.3806 Y0.4449  
G01 X-1.3728 Y0.4437  
G01 X-1.3650 Y0.4437  
G01 X-1.3572 Y0.4449  
G01 X-1.3497 Y0.4474  
G01 X-1.3427 Y0.4509  
G01 X-1.3363 Y0.4556  
G01 X-1.3308 Y0.4611  
G01 X-1.3261 Y0.4675  
G01 X-1.3226 Y0.4745  
G01 X-1.3201 Y0.4820  
G01 X-1.3189 Y0.4898  
G01 X-1.3189 Y0.4976  
G01 X-1.3201 Y0.5054  
G01 X-1.3226 Y0.5129  
G01 X-1.3261 Y0.5199  
G01 X-1.3308 Y0.5263  
G01 X-1.3363 Y0.5318  
G01 X-1.3427 Y0.5365  
G01 X-1.3497 Y0.5400  
G01 X-1.3572 Y0.5425  
G01 X-1.3650 Y0.5437  
G01 X-1.3728 Y0.5437  
G01 X-1.3806 Y0.5425  
G01 X-1.3881 Y0.5400  
G01 X-1.3951 Y0.5365  
G01 X-1.4015 Y0.5318  
G01 X-1.4070 Y0.5263  
G00 Z0.0500  
G00 X-1.5910 Y0.6671  
G01 Z-0.0030 F10    
G01 X-1.5857 Y0.6744  F20    
G01 X-1.5816 Y0.6824  
G01 X-1.5789 Y0.6909  
G01 X-1.5774 Y0.6998  
G01 X-1.5774 Y0.7088  
G01 X-1.5789 Y0.7177  
G01 X-1.5816 Y0.7263  
G01 X-1.5857 Y0.7343  
G01 X-1.5910 Y0.7416  
G01 X-1.5974 Y0.7480  
G01 X-1.6047 Y0.7532  
G01 X-1.6127 Y0.7573  
G01 X-1.6213 Y0.7601  
G01 X-1.6301 Y0.7615  
G01 X-1.6391 Y0.7615  
G01 X-1.6480 Y0.7601  
G01 X-1.6566 Y0.7573  
G01 X-1.6646 Y0.7532  
G01 X-1.6719 Y0.7480  
G01 X-1.6783 Y0.7416  
G01 X-1.6836 Y0.7343  
G01 X-1.6877 Y0.7263  
G01 X-1.6904 Y0.7177  
G01 X-1.6918 Y0.7088  
G01 X-1.6918 Y0.6998  
G01 X-1.6904 Y0.6909  
G01 X-1.6877 Y0.6824  
G01 X-1.6836 Y0.6744  
G01 X-1.6783 Y0.6671  
G01 X-1.6719 Y0.6607  
G01 X-1.6646 Y0.6554  
G01 X-1.6566 Y0.6513  
G01 X-1.6480 Y0.6485  
G01 X-1.6391 Y0.6471  
G01 X-1.6301 Y0.6471  
G01 X-1.6213 Y0.6485  
G01 X-1.6127 Y0.6513  
G01 X-1.6047 Y0.6554  
G01 X-1.5974 Y0.6607  
G01 X-1.5910 Y0.6671  
G00 Z0.0500  
G00 X-1.9096 Y0.6705  
G01 Z-0.0030 F10    
G01 X-1.9123 Y0.6790  F20    
G01 X-1.9164 Y0.6871  
G01 X-1.9217 Y0.6943  
G01 X-1.9281 Y0.7007  
G01 X-1.9354 Y0.7060  
G01 X-1.9434 Y0.7101  
G01 X-1.9520 Y0.7129  
G01 X-1.9609 Y0.7143  
G01 X-1.9699 Y0.7143  
G01 X-1.9787 Y0.7129  
G01 X-1.9873 Y0.7101  
G01 X-1.9953 Y0.7060  
G01 X-2.0026 Y0.7007  
G01 X-2.0090 Y0.6943  
G01 X-2.0143 Y0.6871  
G01 X-2.0184 Y0.6790  
G01 X-2.0211 Y0.6705  
G01 X-2.0226 Y0.6616  
G01 X-2.0226 Y0.6526  
G01 X-2.0211 Y0.6437  
G01 X-2.0184 Y0.6351  
G01 X-2.0143 Y0.6271  
G01 X-2.0090 Y0.6198  
G01 X-2.0026 Y0.6135  
G01 X-1.9953 Y0.6082  
G01 X-1.9873 Y0.6041  
G01 X-1.9787 Y0.6013  
G01 X-1.9699 Y0.5999  
G01 X-1.9609 Y0.5999  
G01 X-1.9520 Y0.6013  
G01 X-1.9434 Y0.6041  
G01 X-1.9354 Y0.6082  
G01 X-1.9281 Y0.6135  
G01 X-1.9217 Y0.6198  
G01 X-1.9164 Y0.6271  
G01 X-1.9123 Y0.6351  
G01 X-1.9096 Y0.6437  
G01 X-1.9082 Y0.6526  
G01 X-1.9082 Y0.6616  
G01 X-1.9096 Y0.6705  
G00 Z0.0500  
G00 X-1.9070 Y0.5263  
G01 Z-0.0030 F10    
G01 X-1.9094 Y0.5230  F20    
G01 X-1.9523 Y0.5230  
G01 X-1.9567 Y0.5221  
G01 X-1.9609 Y0.5204  
G01 X-1.9647 Y0.5179  
G01 X-1.9679 Y0.5147  
G01 X-2.0679 Y0.4147  
G01 X-2.0704 Y0.4109  
G01 X-2.0721 Y0.4067  
G01 X-2.0730 Y0.4023  
G01 X-2.0730 Y0.2584  
G01 X-2.0734 Y0.2582  
G01 X-2.0785 Y0.2531  
G01 X-2.0825 Y0.2471  
G01 X-2.0853 Y0.2404  
G01 X-2.0867 Y0.2333  
G01 X-2.0867 Y0.1667  
G01 X-2.0853 Y0.1596  
G01 X-2.0825 Y0.1529  
G01 X-2.0785 Y0.1469  
G01 X-2.0734 Y0.1418  
G01 X-2.0674 Y0.1378  
G01 X-2.0607 Y0.1350  
G01 X-2.0536 Y0.1336  
G01 X-2.0464 Y0.1336  
G01 X-2.0393 Y0.1350  
G01 X-2.0326 Y0.1378  
G01 X-2.0266 Y0.1418  
G01 X-2.0215 Y0.1469  
G01 X-2.0175 Y0.1529  
G01 X-2.0147 Y0.1596  
G01 X-2.0133 Y0.1667  
G01 X-2.0133 Y0.2333  
G01 X-2.0147 Y0.2404  
G01 X-2.0175 Y0.2471  
G01 X-2.0215 Y0.2531  
G01 X-2.0266 Y0.2582  
G01 X-2.0270 Y0.2584  
G01 X-2.0270 Y0.3905  
G01 X-1.9405 Y0.4770  
G01 X-1.9160 Y0.4770  
G01 X-1.9152 Y0.4745  
G01 X-1.9117 Y0.4675  
G01 X-1.9070 Y0.4611  
G01 X-1.9015 Y0.4556  
G01 X-1.8951 Y0.4509  
G01 X-1.8881 Y0.4474  
G01 X-1.8806 Y0.4449  
G01 X-1.8728 Y0.4437  
G01 X-1.8650 Y0.4437  
G01 X-1.8572 Y0.4449  
G01 X-1.8497 Y0.4474  
G01 X-1.8427 Y0.4509  
G01 X-1.8363 Y0.4556  
G01 X-1.8308 Y0.4611  
G01 X-1.8261 Y0.4675  
G01 X-1.8226 Y0.4745  
G01 X-1.8201 Y0.4820  
G01 X-1.8189 Y0.4898  
G01 X-1.8189 Y0.4976  
G01 X-1.8201 Y0.5054  
G01 X-1.8226 Y0.5129  
G01 X-1.8261 Y0.5199  
G01 X-1.8308 Y0.5263  
G01 X-1.8363 Y0.5318  
G01 X-1.8427 Y0.5365  
G01 X-1.8497 Y0.5400  
G01 X-1.8572 Y0.5425  
G01 X-1.8650 Y0.5437  
G01 X-1.8728 Y0.5437  
G01 X-1.8806 Y0.5425  
G01 X-1.8881 Y0.5400  
G01 X-1.8951 Y0.5365  
G01 X-1.9015 Y0.5318  
G01 X-1.9070 Y0.5263  
G00 Z0.0500  
G00 X-2.0910 Y0.6671  
G01 Z-0.0030 F10    
G01 X-2.0857 Y0.6744  F20    
G01 X-2.0816 Y0.6824  
G01 X-2.0789 Y0.6909  
G01 X-2.0774 Y0.6998  
G01 X-2.0774 Y0.7088  
G01 X-2.0789 Y0.7177  
G01 X-2.0816 Y0.7263  
G01 X-2.0857 Y0.7343  
G01 X-2.0910 Y0.7416  
G01 X-2.0974 Y0.7480  
G01 X-2.1047 Y0.7532  
G01 X-2.1127 Y0.7573  
G01 X-2.1213 Y0.7601  
G01 X-2.1301 Y0.7615  
G01 X-2.1391 Y0.7615  
G01 X-2.1480 Y0.7601  
G01 X-2.1566 Y0.7573  
G01 X-2.1646 Y0.7532  
G01 X-2.1719 Y0.7480  
G01 X-2.1783 Y0.7416  
G01 X-2.1836 Y0.7343  
G01 X-2.1877 Y0.7263  
G01 X-2.1904 Y0.7177  
G01 X-2.1918 Y0.7088  
G01 X-2.1918 Y0.6998  
G01 X-2.1904 Y0.6909  
G01 X-2.1877 Y0.6824  
G01 X-2.1836 Y0.6744  
G01 X-2.1783 Y0.6671  
G01 X-2.1719 Y0.6607  
G01 X-2.1646 Y0.6554  
G01 X-2.1566 Y0.6513  
G01 X-2.1480 Y0.6485  
G01 X-2.1391 Y0.6471  
G01 X-2.1301 Y0.6471  
G01 X-2.1213 Y0.6485  
G01 X-2.1127 Y0.6513  
G01 X-2.1047 Y0.6554  
G01 X-2.0974 Y0.6607  
G01 X-2.0910 Y0.6671  
G00 Z0.0500  
G00 X-2.4096 Y0.6705  
G01 Z-0.0030 F10    
G01 X-2.4123 Y0.6790  F20    
G01 X-2.4164 Y0.6871  
G01 X-2.4217 Y0.6943  
G01 X-2.4281 Y0.7007  
G01 X-2.4354 Y0.7060  
G01 X-2.4434 Y0.7101  
G01 X-2.4520 Y0.7129  
G01 X-2.4609 Y0.7143  
G01 X-2.4699 Y0.7143  
G01 X-2.4787 Y0.7129  
G01 X-2.4873 Y0.7101  
G01 X-2.4953 Y0.7060  
G01 X-2.5026 Y0.7007  
G01 X-2.5090 Y0.6943  
G01 X-2.5143 Y0.6871  
G01 X-2.5184 Y0.6790  
G01 X-2.5211 Y0.6705  
G01 X-2.5226 Y0.6616  
G01 X-2.5226 Y0.6526  
G01 X-2.5211 Y0.6437  
G01 X-2.5184 Y0.6351  
G01 X-2.5143 Y0.6271  
G01 X-2.5090 Y0.6198  
G01 X-2.5026 Y0.6135  
G01 X-2.4953 Y0.6082  
G01 X-2.4873 Y0.6041  
G01 X-2.4787 Y0.6013  
G01 X-2.4699 Y0.5999  
G01 X-2.4609 Y0.5999  
G01 X-2.4520 Y0.6013  
G01 X-2.4434 Y0.6041  
G01 X-2.4354 Y0.6082  
G01 X-2.4281 Y0.6135  
G01 X-2.4217 Y0.6198  
G01 X-2.4164 Y0.6271  
G01 X-2.4123 Y0.6351  
G01 X-2.4096 Y0.6437  
G01 X-2.4082 Y0.6526  
G01 X-2.4082 Y0.6616  
G01 X-2.4096 Y0.6705  
G00 Z0.0500  
G00 X-2.4070 Y0.5263  
G01 Z-0.0030 F10    
G01 X-2.4117 Y0.5199  F20    
G01 X-2.4152 Y0.5129  
G01 X-2.4177 Y0.5054  
G01 X-2.4189 Y0.4976  
G01 X-2.4189 Y0.4898  
G01 X-2.4177 Y0.4820  
G01 X-2.4152 Y0.4745  
G01 X-2.4117 Y0.4675  
G01 X-2.4070 Y0.4611  
G01 X-2.4015 Y0.4556  
G01 X-2.3951 Y0.4509  
G01 X-2.3881 Y0.4474  
G01 X-2.3806 Y0.4449  
G01 X-2.3728 Y0.4437  
G01 X-2.3650 Y0.4437  
G01 X-2.3572 Y0.4449  
G01 X-2.3538 Y0.4460  
G01 X-2.2899 Y0.3821  
G01 X-2.2861 Y0.3796  
G01 X-2.2819 Y0.3779  
G01 X-2.2775 Y0.3770  
G01 X-2.2095 Y0.3770  
G01 X-2.1730 Y0.3405  
G01 X-2.1730 Y0.2584  
G01 X-2.1734 Y0.2582  
G01 X-2.1785 Y0.2531  
G01 X-2.1825 Y0.2471  
G01 X-2.1853 Y0.2404  
G01 X-2.1867 Y0.2333  
G01 X-2.1867 Y0.1667  
G01 X-2.1853 Y0.1596  
G01 X-2.1825 Y0.1529  
G01 X-2.1785 Y0.1469  
G01 X-2.1734 Y0.1418  
G01 X-2.1674 Y0.1378  
G01 X-2.1607 Y0.1350  
G01 X-2.1536 Y0.1336  
G01 X-2.1464 Y0.1336  
G01 X-2.1393 Y0.1350  
G01 X-2.1326 Y0.1378  
G01 X-2.1266 Y0.1418  
G01 X-2.1215 Y0.1469  
G01 X-2.1175 Y0.1529  
G01 X-2.1147 Y0.1596  
G01 X-2.1133 Y0.1667  
G01 X-2.1133 Y0.2333  
G01 X-2.1147 Y0.2404  
G01 X-2.1175 Y0.2471  
G01 X-2.1215 Y0.2531  
G01 X-2.1266 Y0.2582  
G01 X-2.1270 Y0.2584  
G01 X-2.1270 Y0.3523  
G01 X-2.1279 Y0.3567  
G01 X-2.1296 Y0.3609  
G01 X-2.1321 Y0.3647  
G01 X-2.1821 Y0.4147  
G01 X-2.1853 Y0.4179  
G01 X-2.1891 Y0.4204  
G01 X-2.1933 Y0.4221  
G01 X-2.1977 Y0.4230  
G01 X-2.2657 Y0.4230  
G01 X-2.3212 Y0.4786  
G01 X-2.3201 Y0.4820  
G01 X-2.3189 Y0.4898  
G01 X-2.3189 Y0.4976  
G01 X-2.3201 Y0.5054  
G01 X-2.3226 Y0.5129  
G01 X-2.3261 Y0.5199  
G01 X-2.3308 Y0.5263  
G01 X-2.3363 Y0.5318  
G01 X-2.3427 Y0.5365  
G01 X-2.3497 Y0.5400  
G01 X-2.3572 Y0.5425  
G01 X-2.3650 Y0.5437  
G01 X-2.3728 Y0.5437  
G01 X-2.3806 Y0.5425  
G01 X-2.3881 Y0.5400  
G01 X-2.3951 Y0.5365  
G01 X-2.4015 Y0.5318  
G01 X-2.4070 Y0.5263  
G00 Z0.0500  
G00 X-2.8630 Y0.5222  
G01 Z-0.0030 F10    
G01 X-2.8841 Y0.5432  F20    
G01 X-2.9159 Y0.5432  
G01 X-2.9370 Y0.5222  
G01 X-2.9370 Y0.5310  
G01 X-2.9353 Y0.5321  
G01 X-2.9321 Y0.5353  
G01 X-2.9296 Y0.5391  
G01 X-2.9279 Y0.5433  
G01 X-2.9270 Y0.5477  
G01 X-2.9270 Y1.1023  
G01 X-2.9279 Y1.1067  
G01 X-2.9296 Y1.1109  
G01 X-2.9321 Y1.1147  
G01 X-2.9353 Y1.1179  
G01 X-2.9370 Y1.1190  
G01 X-2.9370 Y1.1373  
G01 X-2.9159 Y1.1162  
G01 X-2.8940 Y1.1162  
G01 X-2.8730 Y1.0952  
G01 X-2.8730 Y0.5477  
G01 X-2.8721 Y0.5433  
G01 X-2.8704 Y0.5391  
G01 X-2.8679 Y0.5353  
G01 X-2.8647 Y0.5321  
G01 X-2.8630 Y0.5310  
G01 X-2.8630 Y0.5222  
G00 Z0.0500  
G00 X-2.9630 Y0.5237  
G01 Z-0.0030 F10    
G01 X-2.9825 Y0.5432  F20    
G01 X-3.0144 Y0.5432  
G01 X-3.0346 Y0.5230  
G01 X-3.0415 Y0.5230  
G01 X-3.2020 Y0.6606  
G01 X-3.2020 Y1.7804  
G01 X-3.1935 Y1.7817  
G01 X-3.0299 Y1.7817  
G01 X-3.0214 Y1.7733  
G01 X-3.0214 Y1.1862  
G01 X-3.0369 Y1.1707  
G01 X-3.0369 Y1.1388  
G01 X-3.0144 Y1.1162  
G01 X-2.9825 Y1.1162  
G01 X-2.9630 Y1.1357  
G01 X-2.9630 Y1.1190  
G01 X-2.9647 Y1.1179  
G01 X-2.9679 Y1.1147  
G01 X-2.9704 Y1.1109  
G01 X-2.9721 Y1.1067  
G01 X-2.9730 Y1.1023  
G01 X-2.9730 Y0.5477  
G01 X-2.9721 Y0.5433  
G01 X-2.9704 Y0.5391  
G01 X-2.9679 Y0.5353  
G01 X-2.9647 Y0.5321  
G01 X-2.9630 Y0.5310  
G01 X-2.9630 Y0.5237  
G00 Z0.0500  
G00 X-3.0406 Y0.7726  
G01 Z-0.0030 F10    
G01 X-3.0406 Y0.8274  F20    
G01 X-3.0793 Y0.8661  
G01 X-3.1341 Y0.8661  
G01 X-3.1727 Y0.8274  
G01 X-3.1727 Y0.7726  
G01 X-3.1341 Y0.7339  
G01 X-3.0793 Y0.7339  
G01 X-3.0406 Y0.7726  
G00 Z0.0500  
G00 X-2.7594 Y0.7726  
G01 Z-0.0030 F10    
G01 X-2.7207 Y0.7339  F20    
G01 X-2.6659 Y0.7339  
G01 X-2.6273 Y0.7726  
G01 X-2.6273 Y0.8274  
G01 X-2.6659 Y0.8661  
G01 X-2.7207 Y0.8661  
G01 X-2.7594 Y0.8274  
G01 X-2.7594 Y0.7726  
G00 Z0.0500  
G00 X-2.7594 Y1.4226  
G01 Z-0.0030 F10    
G01 X-2.7207 Y1.3839  F20    
G01 X-2.6659 Y1.3839  
G01 X-2.6273 Y1.4226  
G01 X-2.6273 Y1.4774  
G01 X-2.6659 Y1.5161  
G01 X-2.7207 Y1.5161  
G01 X-2.7594 Y1.4774  
G01 X-2.7594 Y1.4226  
G00 Z0.0500  
G00 X-3.0406 Y1.4226  
G01 Z-0.0030 F10    
G01 X-3.0406 Y1.4774  F20    
G01 X-3.0793 Y1.5161  
G01 X-3.1341 Y1.5161  
G01 X-3.1727 Y1.4774  
G01 X-3.1727 Y1.4226  
G01 X-3.1341 Y1.3839  
G01 X-3.0793 Y1.3839  
G01 X-3.0406 Y1.4226  
G00 Z0.0500  
G00 X-3.0406 Y2.0726  
G01 Z-0.0030 F10    
G01 X-3.0406 Y2.1274  F20    
G01 X-3.0793 Y2.1661  
G01 X-3.1341 Y2.1661  
G01 X-3.1727 Y2.1274  
G01 X-3.1727 Y2.0726  
G01 X-3.1341 Y2.0339  
G01 X-3.0793 Y2.0339  
G01 X-3.0406 Y2.0726  
G00 Z0.0500  
G00 X-2.7594 Y2.0726  
G01 Z-0.0030 F10    
G01 X-2.7207 Y2.0339  F20    
G01 X-2.6659 Y2.0339  
G01 X-2.6273 Y2.0726  
G01 X-2.6273 Y2.1274  
G01 X-2.6659 Y2.1661  
G01 X-2.7207 Y2.1661  
G01 X-2.7594 Y2.1274  
G01 X-2.7594 Y2.0726  
G00 Z0.0500  
G00 X-2.5026 Y2.5993  
G01 Z-0.0030 F10    
G01 X-2.4953 Y2.5940  F20    
G01 X-2.4873 Y2.5899  
G01 X-2.4787 Y2.5871  
G01 X-2.4699 Y2.5857  
G01 X-2.4609 Y2.5857  
G01 X-2.4520 Y2.5871  
G01 X-2.4434 Y2.5899  
G01 X-2.4354 Y2.5940  
G01 X-2.4281 Y2.5993  
G01 X-2.4217 Y2.6057  
G01 X-2.4164 Y2.6129  
G01 X-2.4123 Y2.6210  
G01 X-2.4096 Y2.6295  
G01 X-2.4082 Y2.6384  
G01 X-2.4082 Y2.6474  
G01 X-2.4096 Y2.6563  
G01 X-2.4123 Y2.6649  
G01 X-2.4164 Y2.6729  
G01 X-2.4217 Y2.6802  
G01 X-2.4281 Y2.6865  
G01 X-2.4354 Y2.6918  
G01 X-2.4434 Y2.6959  
G01 X-2.4520 Y2.6987  
G01 X-2.4609 Y2.7001  
G01 X-2.4699 Y2.7001  
G01 X-2.4787 Y2.6987  
G01 X-2.4873 Y2.6959  
G01 X-2.4953 Y2.6918  
G01 X-2.5026 Y2.6865  
G01 X-2.5090 Y2.6802  
G01 X-2.5143 Y2.6729  
G01 X-2.5184 Y2.6649  
G01 X-2.5211 Y2.6563  
G01 X-2.5226 Y2.6474  
G01 X-2.5226 Y2.6384  
G01 X-2.5211 Y2.6295  
G01 X-2.5184 Y2.6210  
G01 X-2.5143 Y2.6129  
G01 X-2.5090 Y2.6057  
G01 X-2.5026 Y2.5993  
G00 Z0.0500  
G00 X-2.1918 Y2.6002  
G01 Z-0.0030 F10    
G01 X-2.1918 Y2.5912  F20    
G01 X-2.1904 Y2.5823  
G01 X-2.1877 Y2.5737  
G01 X-2.1836 Y2.5657  
G01 X-2.1783 Y2.5584  
G01 X-2.1719 Y2.5520  
G01 X-2.1646 Y2.5468  
G01 X-2.1566 Y2.5427  
G01 X-2.1480 Y2.5399  
G01 X-2.1391 Y2.5385  
G01 X-2.1301 Y2.5385  
G01 X-2.1213 Y2.5399  
G01 X-2.1127 Y2.5427  
G01 X-2.1047 Y2.5468  
G01 X-2.0974 Y2.5520  
G01 X-2.0910 Y2.5584  
G01 X-2.0857 Y2.5657  
G01 X-2.0816 Y2.5737  
G01 X-2.0789 Y2.5823  
G01 X-2.0774 Y2.5912  
G01 X-2.0774 Y2.6002  
G01 X-2.0789 Y2.6091  
G01 X-2.0816 Y2.6176  
G01 X-2.0857 Y2.6256  
G01 X-2.0910 Y2.6329  
G01 X-2.0974 Y2.6393  
G01 X-2.1047 Y2.6446  
G01 X-2.1127 Y2.6487  
G01 X-2.1213 Y2.6515  
G01 X-2.1301 Y2.6529  
G01 X-2.1391 Y2.6529  
G01 X-2.1480 Y2.6515  
G01 X-2.1566 Y2.6487  
G01 X-2.1646 Y2.6446  
G01 X-2.1719 Y2.6393  
G01 X-2.1783 Y2.6329  
G01 X-2.1836 Y2.6256  
G01 X-2.1877 Y2.6176  
G01 X-2.1904 Y2.6091  
G01 X-2.1918 Y2.6002  
G00 Z0.0500  
G00 X-2.0090 Y2.6057  
G01 Z-0.0030 F10    
G01 X-2.0026 Y2.5993  F20    
G01 X-1.9953 Y2.5940  
G01 X-1.9873 Y2.5899  
G01 X-1.9787 Y2.5871  
G01 X-1.9699 Y2.5857  
G01 X-1.9609 Y2.5857  
G01 X-1.9520 Y2.5871  
G01 X-1.9434 Y2.5899  
G01 X-1.9354 Y2.5940  
G01 X-1.9281 Y2.5993  
G01 X-1.9217 Y2.6057  
G01 X-1.9164 Y2.6129  
G01 X-1.9123 Y2.6210  
G01 X-1.9096 Y2.6295  
G01 X-1.9082 Y2.6384  
G01 X-1.9082 Y2.6474  
G01 X-1.9096 Y2.6563  
G01 X-1.9123 Y2.6649  
G01 X-1.9164 Y2.6729  
G01 X-1.9217 Y2.6802  
G01 X-1.9281 Y2.6865  
G01 X-1.9354 Y2.6918  
G01 X-1.9434 Y2.6959  
G01 X-1.9520 Y2.6987  
G01 X-1.9609 Y2.7001  
G01 X-1.9699 Y2.7001  
G01 X-1.9787 Y2.6987  
G01 X-1.9873 Y2.6959  
G01 X-1.9953 Y2.6918  
G01 X-2.0026 Y2.6865  
G01 X-2.0090 Y2.6802  
G01 X-2.0143 Y2.6729  
G01 X-2.0184 Y2.6649  
G01 X-2.0211 Y2.6563  
G01 X-2.0226 Y2.6474  
G01 X-2.0226 Y2.6384  
G01 X-2.0211 Y2.6295  
G01 X-2.0184 Y2.6210  
G01 X-2.0143 Y2.6129  
G01 X-2.0090 Y2.6057  
G00 Z0.0500  
G00 X-1.6904 Y2.6091  
G01 Z-0.0030 F10    
G01 X-1.6918 Y2.6002  F20    
G01 X-1.6918 Y2.5912  
G01 X-1.6904 Y2.5823  
G01 X-1.6877 Y2.5737  
G01 X-1.6836 Y2.5657  
G01 X-1.6783 Y2.5584  
G01 X-1.6719 Y2.5520  
G01 X-1.6646 Y2.5468  
G01 X-1.6566 Y2.5427  
G01 X-1.6480 Y2.5399  
G01 X-1.6391 Y2.5385  
G01 X-1.6301 Y2.5385  
G01 X-1.6213 Y2.5399  
G01 X-1.6127 Y2.5427  
G01 X-1.6047 Y2.5468  
G01 X-1.5974 Y2.5520  
G01 X-1.5910 Y2.5584  
G01 X-1.5857 Y2.5657  
G01 X-1.5816 Y2.5737  
G01 X-1.5789 Y2.5823  
G01 X-1.5774 Y2.5912  
G01 X-1.5774 Y2.6002  
G01 X-1.5789 Y2.6091  
G01 X-1.5816 Y2.6176  
G01 X-1.5857 Y2.6256  
G01 X-1.5910 Y2.6329  
G01 X-1.5974 Y2.6393  
G01 X-1.6047 Y2.6446  
G01 X-1.6127 Y2.6487  
G01 X-1.6213 Y2.6515  
G01 X-1.6301 Y2.6529  
G01 X-1.6391 Y2.6529  
G01 X-1.6480 Y2.6515  
G01 X-1.6566 Y2.6487  
G01 X-1.6646 Y2.6446  
G01 X-1.6719 Y2.6393  
G01 X-1.6783 Y2.6329  
G01 X-1.6836 Y2.6256  
G01 X-1.6877 Y2.6176  
G01 X-1.6904 Y2.6091  
G00 Z0.0500  
G00 X-1.5143 Y2.6129  
G01 Z-0.0030 F10    
G01 X-1.5090 Y2.6057  F20    
G01 X-1.5026 Y2.5993  
G01 X-1.4953 Y2.5940  
G01 X-1.4873 Y2.5899  
G01 X-1.4787 Y2.5871  
G01 X-1.4699 Y2.5857  
G01 X-1.4609 Y2.5857  
G01 X-1.4520 Y2.5871  
G01 X-1.4434 Y2.5899  
G01 X-1.4354 Y2.5940  
G01 X-1.4281 Y2.5993  
G01 X-1.4217 Y2.6057  
G01 X-1.4164 Y2.6129  
G01 X-1.4123 Y2.6210  
G01 X-1.4096 Y2.6295  
G01 X-1.4082 Y2.6384  
G01 X-1.4082 Y2.6474  
G01 X-1.4096 Y2.6563  
G01 X-1.4123 Y2.6649  
G01 X-1.4164 Y2.6729  
G01 X-1.4217 Y2.6802  
G01 X-1.4281 Y2.6865  
G01 X-1.4354 Y2.6918  
G01 X-1.4434 Y2.6959  
G01 X-1.4520 Y2.6987  
G01 X-1.4609 Y2.7001  
G01 X-1.4699 Y2.7001  
G01 X-1.4787 Y2.6987  
G01 X-1.4873 Y2.6959  
G01 X-1.4953 Y2.6918  
G01 X-1.5026 Y2.6865  
G01 X-1.5090 Y2.6802  
G01 X-1.5143 Y2.6729  
G01 X-1.5184 Y2.6649  
G01 X-1.5211 Y2.6563  
G01 X-1.5226 Y2.6474  
G01 X-1.5226 Y2.6384  
G01 X-1.5211 Y2.6295  
G01 X-1.5184 Y2.6210  
G01 X-1.5143 Y2.6129  
G00 Z0.0500  
G00 X-1.1904 Y2.6091  
G01 Z-0.0030 F10    
G01 X-1.1918 Y2.6002  F20    
G01 X-1.1918 Y2.5912  
G01 X-1.1904 Y2.5823  
G01 X-1.1877 Y2.5737  
G01 X-1.1836 Y2.5657  
G01 X-1.1783 Y2.5584  
G01 X-1.1719 Y2.5520  
G01 X-1.1646 Y2.5468  
G01 X-1.1566 Y2.5427  
G01 X-1.1480 Y2.5399  
G01 X-1.1391 Y2.5385  
G01 X-1.1301 Y2.5385  
G01 X-1.1213 Y2.5399  
G01 X-1.1127 Y2.5427  
G01 X-1.1047 Y2.5468  
G01 X-1.0974 Y2.5520  
G01 X-1.0910 Y2.5584  
G01 X-1.0857 Y2.5657  
G01 X-1.0816 Y2.5737  
G01 X-1.0789 Y2.5823  
G01 X-1.0774 Y2.5912  
G01 X-1.0774 Y2.6002  
G01 X-1.0789 Y2.6091  
G01 X-1.0816 Y2.6176  
G01 X-1.0857 Y2.6256  
G01 X-1.0910 Y2.6329  
G01 X-1.0974 Y2.6393  
G01 X-1.1047 Y2.6446  
G01 X-1.1127 Y2.6487  
G01 X-1.1213 Y2.6515  
G01 X-1.1301 Y2.6529  
G01 X-1.1391 Y2.6529  
G01 X-1.1480 Y2.6515  
G01 X-1.1566 Y2.6487  
G01 X-1.1646 Y2.6446  
G01 X-1.1719 Y2.6393  
G01 X-1.1783 Y2.6329  
G01 X-1.1836 Y2.6256  
G01 X-1.1877 Y2.6176  
G01 X-1.1904 Y2.6091  
G00 Z0.0500  
G00 X-1.0143 Y2.6129  
G01 Z-0.0030 F10    
G01 X-1.0090 Y2.6057  F20    
G01 X-1.0026 Y2.5993  
G01 X-0.9953 Y2.5940  
G01 X-0.9873 Y2.5899  
G01 X-0.9787 Y2.5871  
G01 X-0.9699 Y2.5857  
G01 X-0.9609 Y2.5857  
G01 X-0.9520 Y2.5871  
G01 X-0.9434 Y2.5899  
G01 X-0.9354 Y2.5940  
G01 X-0.9281 Y2.5993  
G01 X-0.9217 Y2.6057  
G01 X-0.9164 Y2.6129  
G01 X-0.9123 Y2.6210  
G01 X-0.9096 Y2.6295  
G01 X-0.9082 Y2.6384  
G01 X-0.9082 Y2.6474  
G01 X-0.9096 Y2.6563  
G01 X-0.9123 Y2.6649  
G01 X-0.9164 Y2.6729  
G01 X-0.9217 Y2.6802  
G01 X-0.9281 Y2.6865  
G01 X-0.9354 Y2.6918  
G01 X-0.9434 Y2.6959  
G01 X-0.9520 Y2.6987  
G01 X-0.9609 Y2.7001  
G01 X-0.9699 Y2.7001  
G01 X-0.9787 Y2.6987  
G01 X-0.9873 Y2.6959  
G01 X-0.9953 Y2.6918  
G01 X-1.0026 Y2.6865  
