(.../pcb-gcode-3.6.2.4/pcb-gcode.ulp)
(Copyright 2005 - 2012 by John Johnson)
(See readme.txt for licensing terms.)
(This file generated from the board:)
(.../atmega_midi_pg800/eagle/vcf_pots.brd)
(Current profile is .../pcb-gcode-3.6.2.4/profiles/mach.pp  )
(This file generated 2/27/17 6:04 PM)
(Settings from pcb-machine.h)
(spindle on time = 0.0000)
(spindle speed = 20000.0000)
(tool change at 0.0000  0.0000  1.5000  )
(feed rate xy = F0     )
(feed rate z  = F20    )
(Z Axis Settings)
(  High     Up        Down     Drill)
(0.2500  	0.0500  	-0.0030 	-0.0710 )
(Settings from pcb-defaults.h)
(isolate min = 0.0030)
(isolate max = 0.0200)
(isolate step = 0.0025)
(Generated bottom outlines, bottom drill, )
(Unit of measure: inch)
( Tool|       Size       |  Min Sub |  Max Sub |   Count )
( T01 | 1.000mm 0.0394in | 0.0000in | 0.0000in |       0 )
( T02 | 1.200mm 0.0472in | 0.0000in | 0.0000in |       0 )
( T03 | 1.700mm 0.0669in | 0.0000in | 0.0000in |       0 )
( T04 | 2.000mm 0.0787in | 0.0000in | 0.0000in |       0 )
(Inch Mode)
G20
(Absolute Coordinates)
G90
S20000
G00 Z0.2500  
G00 X0.0000  Y0.0000  
M03
G04 P0.000000
M05
G00 Z1.5000  
M06 T01  ; 0.0394  
G01 Z0.0000  F20    
M06 
G00 Z0.0500  
M03
G04 P0.000000
G82 X-1.7500 Y0.2000  Z-0.0710 F20    R0.0500  P0.250000
G82 X-1.8500 Y0.2000  
G82 X-1.9500 Y0.2000  
G82 X-2.0500 Y0.2000  
G82 X-2.1500 Y0.2000  
G82 X-2.2500 Y0.2000  
G82 X-2.3500 Y0.2000  
G82 X-2.4500 Y0.2000  
G82 X-2.8016 Y0.5047  
G82 X-2.9000 Y0.5047  
G82 X-2.9984 Y0.5047  
G82 X-2.9984 Y1.1547  
G82 X-2.9000 Y1.1547  
G82 X-2.8016 Y1.1547  
G82 X-2.8016 Y1.8047  
G82 X-2.9000 Y1.8047  
G82 X-2.9984 Y1.8047  
G82 X-3.0000 Y2.6000  
G82 X-3.0000 Y2.7000  
G82 X-2.7000 Y2.7000  
G82 X-2.7000 Y2.6000  
M05
G00 Z1.5000  
G00 X0.0000  Y0.0000  
M06 T02  ; 0.0472  
G01 Z0.0000  F20    
M06 
G00 Z0.0500  
M03
G04 P0.000000
G82 X-0.2311 Y0.4937  Z-0.0710 F20    R0.0500  P0.250000
G82 X-0.3689 Y0.4937  
G82 X-0.7311 Y0.4937  
G82 X-0.8689 Y0.4937  
G82 X-1.2311 Y0.4937  
G82 X-1.3689 Y0.4937  
G82 X-1.7311 Y0.4937  
G82 X-1.8689 Y0.4937  
G82 X-2.2311 Y0.4937  
G82 X-2.3689 Y0.4937  
G82 X-2.2311 Y2.8063  
G82 X-1.7311 Y2.8063  
G82 X-1.2311 Y2.8063  
G82 X-0.7311 Y2.8063  
G82 X-0.2311 Y2.8063  
M05
G00 Z1.5000  
G00 X0.0000  Y0.0000  
M06 T03  ; 0.0669  
G01 Z0.0000  F20    
M06 
G00 Z0.0500  
M03
G04 P0.000000
G82 X-0.1346 Y0.7043  Z-0.0710 F20    R0.0500  P0.250000
G82 X-0.4654 Y0.6571  
G82 X-0.6346 Y0.7043  
G82 X-0.9654 Y0.6571  
G82 X-1.1346 Y0.7043  
G82 X-1.4654 Y0.6571  
G82 X-1.6346 Y0.7043  
G82 X-1.9654 Y0.6571  
G82 X-2.1346 Y0.7043  
G82 X-2.4654 Y0.6571  
G82 X-2.1346 Y2.5957  
G82 X-1.9654 Y2.6429  
G82 X-1.6346 Y2.5957  
G82 X-1.4654 Y2.6429  
G82 X-1.1346 Y2.5957  
G82 X-0.9654 Y2.6429  
G82 X-0.6346 Y2.5957  
G82 X-0.4654 Y2.6429  
G82 X-0.1346 Y2.5957  
G82 X-2.4654 Y2.6429  
M05
G00 Z1.5000  
G00 X0.0000  Y0.0000  
M06 T04  ; 0.0787  
G01 Z0.0000  F20    
M06 
G00 Z0.0500  
M03
G04 P0.000000
G82 X-2.6933 Y0.8000  Z-0.0710 F20    R0.0500  P0.250000
G82 X-3.1067 Y0.8000  
G82 X-3.1067 Y1.4500  
G82 X-2.6933 Y1.4500  
G82 X-2.6933 Y2.1000  
G82 X-3.1067 Y2.1000  
T01 
G00 Z0.2500  
M05
M02
