(.../pcb-gcode-3.6.2.4/pcb-gcode.ulp)
(Copyright 2005 - 2012 by John Johnson)
(See readme.txt for licensing terms.)
(This file generated from the board:)
(.../atmega_midi_pg800/eagle/vco_pots.brd)
(Current profile is .../pcb-gcode-3.6.2.4/profiles/mach.pp  )
(This file generated 2/26/17 1:31 PM)
(Settings from pcb-machine.h)
(spindle on time = 0.0000)
(  Tool Size)
(0.0030  )
(spindle speed = 30000.0000)
(tool change at 0.0000  0.0000  1.5000  )
(feed rate xy = F20    )
(feed rate z  = F10    )
(Z Axis Settings)
(  High     Up        Down     Drill)
(0.2500  	0.0500  	-0.0035 	-0.0710 )
(Settings from pcb-defaults.h)
(isolate min = 0.0040)
(isolate max = 0.0200)
(isolate step = 0.0025)
(Generated bottom outlines, bottom drill, )
(Unit of measure: inch)
(Inch Mode)
G20
(Absolute Coordinates)
G90
S30000
G00 Z0.2500  
G00 X0.0000  Y0.0000  
M03
G04 P0.000000
G00 Z0.0500  
G00 X-0.2828 Y0.2368  
G01 Z-0.0035 F10    
G01 X-0.2800 Y0.2417  F20    
G01 X-0.2785 Y0.2472  
G01 X-0.2785 Y0.4028  
G01 X-0.2800 Y0.4083  
G01 X-0.2828 Y0.4132  
G01 X-0.2865 Y0.4169  
G01 X-0.2865 Y0.4373  
G01 X-0.2669 Y0.4177  
G01 X-0.2363 Y0.4177  
G01 X-0.2146 Y0.4394  
G01 X-0.2146 Y0.4700  
G01 X-0.2301 Y0.4855  
G01 X-0.2301 Y0.9739  
G01 X-0.2146 Y0.9894  
G01 X-0.2146 Y1.0200  
G01 X-0.2301 Y1.0355  
G01 X-0.2301 Y1.5239  
G01 X-0.2146 Y1.5394  
G01 X-0.2146 Y1.5700  
G01 X-0.2285 Y1.5840  
G01 X-0.2285 Y1.6028  
G01 X-0.2300 Y1.6083  
G01 X-0.2328 Y1.6132  
G01 X-0.2368 Y1.6172  
G01 X-0.2785 Y1.6589  
G01 X-0.2785 Y1.8411  
G01 X-0.1434 Y1.9762  
G01 X-0.1406 Y1.9811  
G01 X-0.1391 Y1.9865  
G01 X-0.1391 Y2.1708  
G01 X-0.1252 Y2.1708  
G01 X-0.1231 Y2.1716  
G01 X-0.1216 Y2.1731  
G01 X-0.1208 Y2.1752  
G01 X-0.1208 Y2.2248  
G01 X-0.1216 Y2.2269  
G01 X-0.1231 Y2.2284  
G01 X-0.1252 Y2.2292  
G01 X-0.1391 Y2.2292  
G01 X-0.1391 Y2.5745  
G01 X-0.1348 Y2.5788  
G01 X-0.1312 Y2.5843  
G01 X-0.1287 Y2.5903  
G01 X-0.1274 Y2.5967  
G01 X-0.1274 Y2.6033  
G01 X-0.1287 Y2.6097  
G01 X-0.1312 Y2.6157  
G01 X-0.1348 Y2.6212  
G01 X-0.1391 Y2.6255  
G01 X-0.1391 Y2.7245  
G01 X-0.1348 Y2.7288  
G01 X-0.1312 Y2.7343  
G01 X-0.1287 Y2.7403  
G01 X-0.1274 Y2.7467  
G01 X-0.1274 Y2.7533  
G01 X-0.1287 Y2.7597  
G01 X-0.1312 Y2.7657  
G01 X-0.1348 Y2.7712  
G01 X-0.1395 Y2.7758  
G01 X-0.1449 Y2.7794  
G01 X-0.1509 Y2.7819  
G01 X-0.1574 Y2.7832  
G01 X-0.1639 Y2.7832  
G01 X-0.1703 Y2.7819  
G01 X-0.1764 Y2.7794  
G01 X-0.1818 Y2.7758  
G01 X-0.1864 Y2.7712  
G01 X-0.1901 Y2.7657  
G01 X-0.1926 Y2.7597  
G01 X-0.1938 Y2.7533  
G01 X-0.1938 Y2.7467  
G01 X-0.1926 Y2.7403  
G01 X-0.1901 Y2.7343  
G01 X-0.1864 Y2.7288  
G01 X-0.1821 Y2.7245  
G01 X-0.1821 Y2.6255  
G01 X-0.1864 Y2.6212  
G01 X-0.1901 Y2.6157  
G01 X-0.1926 Y2.6097  
G01 X-0.1938 Y2.6033  
G01 X-0.1938 Y2.5967  
G01 X-0.1926 Y2.5903  
G01 X-0.1901 Y2.5843  
G01 X-0.1864 Y2.5788  
G01 X-0.1821 Y2.5745  
G01 X-0.1821 Y1.9983  
G01 X-0.3132 Y1.8672  
G01 X-0.3172 Y1.8632  
G01 X-0.3200 Y1.8583  
G01 X-0.3215 Y1.8528  
G01 X-0.3215 Y1.6472  
G01 X-0.3200 Y1.6417  
G01 X-0.3172 Y1.6368  
G01 X-0.2715 Y1.5911  
G01 X-0.2715 Y1.5871  
G01 X-0.2886 Y1.5700  
G01 X-0.2886 Y1.5394  
G01 X-0.2731 Y1.5239  
G01 X-0.2731 Y1.0355  
G01 X-0.2886 Y1.0200  
G01 X-0.2886 Y0.9894  
G01 X-0.2731 Y0.9739  
G01 X-0.2731 Y0.4855  
G01 X-0.2865 Y0.4721  
G01 X-0.2865 Y0.4831  
G01 X-0.2828 Y0.4868  
G01 X-0.2800 Y0.4917  
G01 X-0.2785 Y0.4972  
G01 X-0.2785 Y0.5978  
G01 X-0.2784 Y0.5985  
G01 X-0.2785 Y0.6006  
G01 X-0.2785 Y0.6028  
G01 X-0.2787 Y0.6035  
G01 X-0.2787 Y0.6041  
G01 X-0.2794 Y0.6062  
G01 X-0.2800 Y0.6083  
G01 X-0.2803 Y0.6089  
G01 X-0.3285 Y0.7535  
G01 X-0.3285 Y0.9739  
G01 X-0.3130 Y0.9894  
G01 X-0.3130 Y1.0200  
G01 X-0.3347 Y1.0417  
G01 X-0.3653 Y1.0417  
G01 X-0.3865 Y1.0205  
G01 X-0.3865 Y1.0331  
G01 X-0.3828 Y1.0368  
G01 X-0.3800 Y1.0417  
G01 X-0.3785 Y1.0472  
G01 X-0.3785 Y1.0974  
G01 X-0.3292 Y1.2946  
G01 X-0.3285 Y1.2972  
G01 X-0.3285 Y1.2974  
G01 X-0.3285 Y1.2975  
G01 X-0.3285 Y1.3002  
G01 X-0.3285 Y1.5239  
G01 X-0.3130 Y1.5394  
G01 X-0.3130 Y1.5700  
G01 X-0.3347 Y1.5917  
G01 X-0.3653 Y1.5917  
G01 X-0.3870 Y1.5700  
G01 X-0.3870 Y1.5394  
G01 X-0.3715 Y1.5239  
G01 X-0.3715 Y1.3026  
G01 X-0.4208 Y1.1054  
G01 X-0.4215 Y1.1028  
G01 X-0.4215 Y1.1026  
G01 X-0.4215 Y1.1025  
G01 X-0.4215 Y1.0998  
G01 X-0.4215 Y1.0472  
G01 X-0.4200 Y1.0417  
G01 X-0.4172 Y1.0368  
G01 X-0.4135 Y1.0331  
G01 X-0.4135 Y1.0221  
G01 X-0.4269 Y1.0355  
G01 X-0.4269 Y1.5239  
G01 X-0.4114 Y1.5394  
G01 X-0.4114 Y1.5700  
G01 X-0.4285 Y1.5871  
G01 X-0.4285 Y1.6411  
G01 X-0.3828 Y1.6868  
G01 X-0.3800 Y1.6917  
G01 X-0.3785 Y1.6972  
G01 X-0.3785 Y1.8911  
G01 X-0.2222 Y2.0474  
G01 X-0.2193 Y2.0523  
G01 X-0.2179 Y2.0578  
G01 X-0.2179 Y2.5745  
G01 X-0.2136 Y2.5788  
G01 X-0.2099 Y2.5843  
G01 X-0.2074 Y2.5903  
G01 X-0.2062 Y2.5967  
G01 X-0.2062 Y2.6033  
G01 X-0.2074 Y2.6097  
G01 X-0.2099 Y2.6157  
G01 X-0.2136 Y2.6212  
G01 X-0.2179 Y2.6255  
G01 X-0.2179 Y2.7245  
G01 X-0.2136 Y2.7288  
G01 X-0.2099 Y2.7343  
G01 X-0.2074 Y2.7403  
G01 X-0.2062 Y2.7467  
G01 X-0.2062 Y2.7533  
G01 X-0.2074 Y2.7597  
G01 X-0.2099 Y2.7657  
G01 X-0.2136 Y2.7712  
G01 X-0.2182 Y2.7758  
G01 X-0.2236 Y2.7794  
G01 X-0.2297 Y2.7819  
G01 X-0.2361 Y2.7832  
G01 X-0.2422 Y2.7832  
G01 X-0.2825 Y2.8235  
G01 X-0.2874 Y2.8263  
G01 X-0.2928 Y2.8278  
G01 X-0.7376 Y2.8278  
G01 X-0.7396 Y2.8317  
G01 X-0.7441 Y2.8379  
G01 X-0.7495 Y2.8433  
G01 X-0.7557 Y2.8478  
G01 X-0.7625 Y2.8512  
G01 X-0.7697 Y2.8536  
G01 X-0.7773 Y2.8548  
G01 X-0.7849 Y2.8548  
G01 X-0.7925 Y2.8536  
G01 X-0.7997 Y2.8512  
G01 X-0.8065 Y2.8478  
G01 X-0.8127 Y2.8433  
G01 X-0.8181 Y2.8379  
G01 X-0.8226 Y2.8317  
G01 X-0.8246 Y2.8278  
G01 X-1.2376 Y2.8278  
G01 X-1.2396 Y2.8317  
G01 X-1.2441 Y2.8379  
G01 X-1.2495 Y2.8433  
G01 X-1.2557 Y2.8478  
G01 X-1.2625 Y2.8512  
G01 X-1.2697 Y2.8536  
G01 X-1.2773 Y2.8548  
G01 X-1.2849 Y2.8548  
G01 X-1.2925 Y2.8536  
G01 X-1.2997 Y2.8512  
G01 X-1.3065 Y2.8478  
G01 X-1.3127 Y2.8433  
G01 X-1.3181 Y2.8379  
G01 X-1.3226 Y2.8317  
G01 X-1.3246 Y2.8278  
G01 X-2.2376 Y2.8278  
G01 X-2.2396 Y2.8317  
G01 X-2.2441 Y2.8379  
G01 X-2.2495 Y2.8433  
G01 X-2.2557 Y2.8478  
G01 X-2.2625 Y2.8512  
G01 X-2.2697 Y2.8536  
G01 X-2.2773 Y2.8548  
G01 X-2.2849 Y2.8548  
G01 X-2.2925 Y2.8536  
G01 X-2.2997 Y2.8512  
G01 X-2.3065 Y2.8478  
G01 X-2.3127 Y2.8433  
G01 X-2.3181 Y2.8379  
G01 X-2.3226 Y2.8317  
G01 X-2.3246 Y2.8278  
G01 X-2.7376 Y2.8278  
G01 X-2.7396 Y2.8317  
G01 X-2.7441 Y2.8379  
G01 X-2.7495 Y2.8433  
G01 X-2.7557 Y2.8478  
G01 X-2.7625 Y2.8512  
G01 X-2.7697 Y2.8536  
G01 X-2.7773 Y2.8548  
G01 X-2.7849 Y2.8548  
G01 X-2.7925 Y2.8536  
G01 X-2.7997 Y2.8512  
G01 X-2.8065 Y2.8478  
G01 X-2.8127 Y2.8433  
G01 X-2.8181 Y2.8379  
G01 X-2.8226 Y2.8317  
G01 X-2.8260 Y2.8249  
G01 X-2.8272 Y2.8215  
G01 X-3.1028 Y2.8215  
G01 X-3.1083 Y2.8200  
G01 X-3.1132 Y2.8172  
G01 X-3.1172 Y2.8132  
G01 X-3.2512 Y2.6792  
G01 X-3.2748 Y2.6792  
G01 X-3.2769 Y2.6784  
G01 X-3.2784 Y2.6769  
G01 X-3.2792 Y2.6748  
G01 X-3.2792 Y2.6252  
G01 X-3.2784 Y2.6231  
G01 X-3.2769 Y2.6216  
G01 X-3.2748 Y2.6208  
G01 X-3.2252 Y2.6208  
G01 X-3.2231 Y2.6216  
G01 X-3.2216 Y2.6231  
G01 X-3.2208 Y2.6252  
G01 X-3.2208 Y2.6488  
G01 X-3.0911 Y2.7785  
G01 X-2.8209 Y2.7785  
G01 X-2.8181 Y2.7747  
G01 X-2.8127 Y2.7693  
G01 X-2.8065 Y2.7648  
G01 X-2.7997 Y2.7614  
G01 X-2.7925 Y2.7590  
G01 X-2.7849 Y2.7578  
G01 X-2.7773 Y2.7578  
G01 X-2.7697 Y2.7590  
G01 X-2.7625 Y2.7614  
G01 X-2.7557 Y2.7648  
G01 X-2.7495 Y2.7693  
G01 X-2.7441 Y2.7747  
G01 X-2.7396 Y2.7809  
G01 X-2.7376 Y2.7848  
G01 X-2.3246 Y2.7848  
G01 X-2.3226 Y2.7809  
G01 X-2.3181 Y2.7747  
G01 X-2.3127 Y2.7693  
G01 X-2.3065 Y2.7648  
G01 X-2.2997 Y2.7614  
G01 X-2.2925 Y2.7590  
G01 X-2.2849 Y2.7578  
G01 X-2.2773 Y2.7578  
G01 X-2.2697 Y2.7590  
G01 X-2.2625 Y2.7614  
G01 X-2.2557 Y2.7648  
G01 X-2.2495 Y2.7693  
G01 X-2.2441 Y2.7747  
G01 X-2.2396 Y2.7809  
G01 X-2.2376 Y2.7848  
G01 X-1.9569 Y2.7848  
G01 X-1.9567 Y2.7847  
G01 X-1.9513 Y2.7832  
G01 X-1.9456 Y2.7832  
G01 X-1.9401 Y2.7847  
G01 X-1.9399 Y2.7848  
G01 X-1.3246 Y2.7848  
G01 X-1.3226 Y2.7809  
G01 X-1.3181 Y2.7747  
G01 X-1.3127 Y2.7693  
G01 X-1.3065 Y2.7648  
G01 X-1.2997 Y2.7614  
G01 X-1.2925 Y2.7590  
G01 X-1.2849 Y2.7578  
G01 X-1.2773 Y2.7578  
G01 X-1.2697 Y2.7590  
G01 X-1.2625 Y2.7614  
G01 X-1.2557 Y2.7648  
G01 X-1.2495 Y2.7693  
G01 X-1.2441 Y2.7747  
G01 X-1.2396 Y2.7809  
G01 X-1.2376 Y2.7848  
G01 X-0.8246 Y2.7848  
G01 X-0.8226 Y2.7809  
G01 X-0.8181 Y2.7747  
G01 X-0.8127 Y2.7693  
G01 X-0.8065 Y2.7648  
G01 X-0.7997 Y2.7614  
G01 X-0.7925 Y2.7590  
G01 X-0.7849 Y2.7578  
G01 X-0.7773 Y2.7578  
G01 X-0.7697 Y2.7590  
G01 X-0.7625 Y2.7614  
G01 X-0.7557 Y2.7648  
G01 X-0.7495 Y2.7693  
G01 X-0.7441 Y2.7747  
G01 X-0.7396 Y2.7809  
G01 X-0.7376 Y2.7848  
G01 X-0.3046 Y2.7848  
G01 X-0.2726 Y2.7528  
G01 X-0.2726 Y2.7467  
G01 X-0.2713 Y2.7403  
G01 X-0.2688 Y2.7343  
G01 X-0.2652 Y2.7288  
G01 X-0.2609 Y2.7245  
G01 X-0.2609 Y2.6255  
G01 X-0.2652 Y2.6212  
G01 X-0.2688 Y2.6157  
G01 X-0.2713 Y2.6097  
G01 X-0.2726 Y2.6033  
G01 X-0.2726 Y2.5967  
G01 X-0.2713 Y2.5903  
G01 X-0.2688 Y2.5843  
G01 X-0.2652 Y2.5788  
G01 X-0.2609 Y2.5745  
G01 X-0.2609 Y2.1215  
G01 X-1.7528 Y2.1215  
G01 X-1.7583 Y2.1200  
G01 X-1.7632 Y2.1172  
G01 X-1.7672 Y2.1132  
G01 X-1.9656 Y1.9148  
G01 X-1.9685 Y1.9099  
G01 X-1.9699 Y1.9044  
G01 X-1.9699 Y1.5855  
G01 X-1.9854 Y1.5700  
G01 X-1.9854 Y1.5394  
G01 X-1.9699 Y1.5239  
G01 X-1.9699 Y1.0355  
G01 X-1.9854 Y1.0200  
G01 X-1.9854 Y0.9894  
G01 X-1.9699 Y0.9739  
G01 X-1.9699 Y0.4855  
G01 X-1.9854 Y0.4700  
G01 X-1.9854 Y0.4394  
G01 X-1.9637 Y0.4177  
G01 X-1.9331 Y0.4177  
G01 X-1.9135 Y0.4373  
G01 X-1.9135 Y0.4169  
G01 X-2.1589 Y0.1715  
G01 X-2.3145 Y0.1715  
G01 X-2.3145 Y0.1835  
G01 X-2.3159 Y0.1904  
G01 X-2.3185 Y0.1968  
G01 X-2.3224 Y0.2026  
G01 X-2.3274 Y0.2076  
G01 X-2.3332 Y0.2115  
G01 X-2.3396 Y0.2141  
G01 X-2.3465 Y0.2155  
G01 X-2.3535 Y0.2155  
G01 X-2.3604 Y0.2141  
G01 X-2.3668 Y0.2115  
G01 X-2.3726 Y0.2076  
G01 X-2.3776 Y0.2026  
G01 X-2.3815 Y0.1968  
G01 X-2.3841 Y0.1904  
G01 X-2.3855 Y0.1835  
G01 X-2.3855 Y0.1165  
G01 X-2.3841 Y0.1096  
G01 X-2.3815 Y0.1032  
G01 X-2.3776 Y0.0974  
G01 X-2.3726 Y0.0924  
G01 X-2.3668 Y0.0885  
G01 X-2.3604 Y0.0859  
G01 X-2.3535 Y0.0845  
G01 X-2.3465 Y0.0845  
G01 X-2.3396 Y0.0859  
G01 X-2.3332 Y0.0885  
G01 X-2.3274 Y0.0924  
G01 X-2.3224 Y0.0974  
G01 X-2.3185 Y0.1032  
G01 X-2.3159 Y0.1096  
G01 X-2.3145 Y0.1165  
G01 X-2.3145 Y0.1285  
G01 X-2.1472 Y0.1285  
G01 X-2.1417 Y0.1300  
G01 X-2.1368 Y0.1328  
G01 X-2.1328 Y0.1368  
G01 X-1.8828 Y0.3868  
G01 X-1.8800 Y0.3917  
G01 X-1.8785 Y0.3972  
G01 X-1.8785 Y0.4028  
G01 X-1.8800 Y0.4083  
G01 X-1.8828 Y0.4132  
G01 X-1.8865 Y0.4169  
G01 X-1.8865 Y0.4389  
G01 X-1.8715 Y0.4239  
G01 X-1.8715 Y0.3472  
G01 X-1.8700 Y0.3417  
G01 X-1.8672 Y0.3368  
G01 X-1.6672 Y0.1368  
G01 X-1.6632 Y0.1328  
G01 X-1.6583 Y0.1300  
G01 X-1.6528 Y0.1285  
G01 X-1.4355 Y0.1285  
G01 X-1.4355 Y0.1165  
G01 X-1.4341 Y0.1096  
G01 X-1.4315 Y0.1032  
G01 X-1.4276 Y0.0974  
G01 X-1.4226 Y0.0924  
G01 X-1.4168 Y0.0885  
G01 X-1.4104 Y0.0859  
G01 X-1.4035 Y0.0845  
G01 X-1.3965 Y0.0845  
G01 X-1.3896 Y0.0859  
G01 X-1.3832 Y0.0885  
G01 X-1.3774 Y0.0924  
G01 X-1.3724 Y0.0974  
G01 X-1.3685 Y0.1032  
G01 X-1.3659 Y0.1096  
G01 X-1.3645 Y0.1165  
G01 X-1.3645 Y0.1835  
G01 X-1.3659 Y0.1904  
G01 X-1.3685 Y0.1968  
G01 X-1.3724 Y0.2026  
G01 X-1.3774 Y0.2076  
G01 X-1.3832 Y0.2115  
G01 X-1.3896 Y0.2141  
G01 X-1.3965 Y0.2155  
G01 X-1.4035 Y0.2155  
G01 X-1.4104 Y0.2141  
G01 X-1.4168 Y0.2115  
G01 X-1.4226 Y0.2076  
G01 X-1.4276 Y0.2026  
G01 X-1.4315 Y0.1968  
G01 X-1.4341 Y0.1904  
G01 X-1.4355 Y0.1835  
G01 X-1.4355 Y0.1715  
G01 X-1.6411 Y0.1715  
G01 X-1.8285 Y0.3589  
G01 X-1.8285 Y0.4239  
G01 X-1.8135 Y0.4389  
G01 X-1.8135 Y0.4169  
G01 X-1.8172 Y0.4132  
G01 X-1.8200 Y0.4083  
G01 X-1.8215 Y0.4028  
G01 X-1.8215 Y0.3972  
G01 X-1.8200 Y0.3917  
G01 X-1.8172 Y0.3868  
G01 X-1.7172 Y0.2868  
G01 X-1.7132 Y0.2828  
G01 X-1.7083 Y0.2800  
G01 X-1.7028 Y0.2785  
G01 X-1.3589 Y0.2785  
G01 X-1.3215 Y0.2411  
G01 X-1.3215 Y0.2083  
G01 X-1.3226 Y0.2076  
G01 X-1.3276 Y0.2026  
G01 X-1.3315 Y0.1968  
G01 X-1.3341 Y0.1904  
G01 X-1.3355 Y0.1835  
G01 X-1.3355 Y0.1165  
G01 X-1.3341 Y0.1096  
G01 X-1.3315 Y0.1032  
G01 X-1.3276 Y0.0974  
G01 X-1.3226 Y0.0924  
G01 X-1.3168 Y0.0885  
G01 X-1.3104 Y0.0859  
G01 X-1.3035 Y0.0845  
G01 X-1.2965 Y0.0845  
G01 X-1.2896 Y0.0859  
G01 X-1.2832 Y0.0885  
G01 X-1.2774 Y0.0924  
G01 X-1.2724 Y0.0974  
G01 X-1.2685 Y0.1032  
G01 X-1.2659 Y0.1096  
G01 X-1.2645 Y0.1165  
G01 X-1.2645 Y0.1835  
G01 X-1.2659 Y0.1904  
G01 X-1.2685 Y0.1968  
G01 X-1.2724 Y0.2026  
G01 X-1.2774 Y0.2076  
G01 X-1.2785 Y0.2083  
G01 X-1.2785 Y0.2528  
G01 X-1.2800 Y0.2583  
G01 X-1.2828 Y0.2632  
G01 X-1.2868 Y0.2672  
G01 X-1.3368 Y0.3172  
G01 X-1.3417 Y0.3200  
G01 X-1.3472 Y0.3215  
G01 X-1.6911 Y0.3215  
G01 X-1.7865 Y0.4169  
G01 X-1.7865 Y0.4373  
G01 X-1.7669 Y0.4177  
G01 X-1.7363 Y0.4177  
G01 X-1.7146 Y0.4394  
G01 X-1.7146 Y0.4700  
G01 X-1.7301 Y0.4855  
G01 X-1.7301 Y0.9739  
G01 X-1.7255 Y0.9785  
G01 X-1.3182 Y0.9785  
G01 X-1.3026 Y0.9690  
G01 X-1.3026 Y0.5372  
G01 X-1.3065 Y0.5352  
G01 X-1.3127 Y0.5307  
G01 X-1.3181 Y0.5253  
G01 X-1.3226 Y0.5191  
G01 X-1.3260 Y0.5123  
G01 X-1.3284 Y0.5051  
G01 X-1.3296 Y0.4975  
G01 X-1.3296 Y0.4899  
G01 X-1.3284 Y0.4823  
G01 X-1.3260 Y0.4751  
G01 X-1.3226 Y0.4683  
G01 X-1.3181 Y0.4621  
G01 X-1.3127 Y0.4567  
G01 X-1.3065 Y0.4522  
G01 X-1.2997 Y0.4488  
G01 X-1.2925 Y0.4464  
G01 X-1.2849 Y0.4452  
G01 X-1.2773 Y0.4452  
G01 X-1.2697 Y0.4464  
G01 X-1.2625 Y0.4488  
G01 X-1.2557 Y0.4522  
G01 X-1.2495 Y0.4567  
G01 X-1.2441 Y0.4621  
G01 X-1.2396 Y0.4683  
G01 X-1.2362 Y0.4751  
G01 X-1.2338 Y0.4823  
G01 X-1.2326 Y0.4899  
G01 X-1.2326 Y0.4975  
G01 X-1.2338 Y0.5051  
G01 X-1.2362 Y0.5123  
G01 X-1.2396 Y0.5191  
G01 X-1.2441 Y0.5253  
G01 X-1.2495 Y0.5307  
G01 X-1.2557 Y0.5352  
G01 X-1.2596 Y0.5372  
G01 X-1.2596 Y0.9785  
G01 X-1.0089 Y0.9785  
G01 X-0.8026 Y0.7722  
G01 X-0.8026 Y0.5372  
G01 X-0.8065 Y0.5352  
G01 X-0.8127 Y0.5307  
G01 X-0.8181 Y0.5253  
G01 X-0.8226 Y0.5191  
G01 X-0.8260 Y0.5123  
G01 X-0.8284 Y0.5051  
G01 X-0.8296 Y0.4975  
G01 X-0.8296 Y0.4899  
G01 X-0.8284 Y0.4823  
G01 X-0.8260 Y0.4751  
G01 X-0.8226 Y0.4683  
G01 X-0.8181 Y0.4621  
G01 X-0.8127 Y0.4567  
G01 X-0.8065 Y0.4522  
G01 X-0.7997 Y0.4488  
G01 X-0.7925 Y0.4464  
G01 X-0.7849 Y0.4452  
G01 X-0.7773 Y0.4452  
G01 X-0.7697 Y0.4464  
G01 X-0.7625 Y0.4488  
G01 X-0.7557 Y0.4522  
G01 X-0.7495 Y0.4567  
G01 X-0.7441 Y0.4621  
G01 X-0.7396 Y0.4683  
G01 X-0.7362 Y0.4751  
G01 X-0.7338 Y0.4823  
G01 X-0.7326 Y0.4899  
G01 X-0.7326 Y0.4975  
G01 X-0.7338 Y0.5051  
G01 X-0.7362 Y0.5123  
G01 X-0.7396 Y0.5191  
G01 X-0.7441 Y0.5253  
G01 X-0.7495 Y0.5307  
G01 X-0.7557 Y0.5352  
G01 X-0.7596 Y0.5372  
G01 X-0.7596 Y0.7839  
G01 X-0.7611 Y0.7894  
G01 X-0.7639 Y0.7943  
G01 X-0.9828 Y1.0132  
G01 X-0.9868 Y1.0172  
G01 X-0.9917 Y1.0200  
G01 X-0.9972 Y1.0215  
G01 X-1.3120 Y1.0215  
G01 X-1.3146 Y1.0216  
G01 X-1.3148 Y1.0215  
G01 X-1.7160 Y1.0215  
G01 X-1.7301 Y1.0355  
G01 X-1.7301 Y1.5239  
G01 X-1.7255 Y1.5285  
G01 X-1.4972 Y1.5285  
G01 X-1.4917 Y1.5300  
G01 X-1.4868 Y1.5328  
G01 X-1.4828 Y1.5368  
G01 X-1.0828 Y1.9368  
G01 X-1.0800 Y1.9417  
G01 X-1.0785 Y1.9472  
G01 X-1.0785 Y1.9708  
G01 X-1.0752 Y1.9708  
G01 X-1.0731 Y1.9716  
G01 X-1.0716 Y1.9731  
G01 X-1.0708 Y1.9752  
G01 X-1.0708 Y2.0248  
G01 X-1.0716 Y2.0269  
G01 X-1.0731 Y2.0284  
G01 X-1.0752 Y2.0292  
G01 X-1.1248 Y2.0292  
G01 X-1.1269 Y2.0284  
G01 X-1.1284 Y2.0269  
G01 X-1.1292 Y2.0248  
G01 X-1.1292 Y1.9752  
G01 X-1.1284 Y1.9731  
G01 X-1.1269 Y1.9716  
G01 X-1.1248 Y1.9708  
G01 X-1.1215 Y1.9708  
G01 X-1.1215 Y1.9589  
G01 X-1.5089 Y1.5715  
G01 X-1.7160 Y1.5715  
G01 X-1.7363 Y1.5917  
G01 X-1.7669 Y1.5917  
G01 X-1.7886 Y1.5700  
G01 X-1.7886 Y1.5394  
G01 X-1.7731 Y1.5239  
G01 X-1.7731 Y1.0355  
G01 X-1.7886 Y1.0200  
G01 X-1.7886 Y0.9894  
G01 X-1.7731 Y0.9739  
G01 X-1.7731 Y0.4855  
G01 X-1.7865 Y0.4721  
G01 X-1.7865 Y0.4831  
G01 X-1.7828 Y0.4868  
G01 X-1.7800 Y0.4917  
G01 X-1.7785 Y0.4972  
G01 X-1.7785 Y0.8028  
G01 X-1.7800 Y0.8083  
G01 X-1.7828 Y0.8132  
G01 X-1.8285 Y0.8589  
G01 X-1.8285 Y0.9739  
G01 X-1.8130 Y0.9894  
G01 X-1.8130 Y1.0200  
G01 X-1.8347 Y1.0417  
G01 X-1.8653 Y1.0417  
G01 X-1.8865 Y1.0205  
G01 X-1.8865 Y1.0331  
G01 X-1.8828 Y1.0368  
G01 X-1.8800 Y1.0417  
G01 X-1.8785 Y1.0472  
G01 X-1.8785 Y1.3911  
G01 X-1.8328 Y1.4368  
G01 X-1.8300 Y1.4417  
G01 X-1.8285 Y1.4472  
G01 X-1.8285 Y1.5239  
G01 X-1.8130 Y1.5394  
G01 X-1.8130 Y1.5700  
G01 X-1.8347 Y1.5917  
G01 X-1.8653 Y1.5917  
G01 X-1.8870 Y1.5700  
G01 X-1.8870 Y1.5394  
G01 X-1.8715 Y1.5239  
G01 X-1.8715 Y1.4589  
G01 X-1.9132 Y1.4172  
G01 X-1.9172 Y1.4132  
G01 X-1.9200 Y1.4083  
G01 X-1.9215 Y1.4028  
G01 X-1.9215 Y1.0472  
G01 X-1.9200 Y1.0417  
G01 X-1.9172 Y1.0368  
G01 X-1.9135 Y1.0331  
G01 X-1.9135 Y1.0221  
G01 X-1.9269 Y1.0355  
G01 X-1.9269 Y1.5239  
G01 X-1.9114 Y1.5394  
G01 X-1.9114 Y1.5700  
G01 X-1.9269 Y1.5855  
G01 X-1.9269 Y1.8927  
G01 X-1.7411 Y2.0785  
G01 X-0.2609 Y2.0785  
G01 X-0.2609 Y2.0695  
G01 X-0.4132 Y1.9172  
G01 X-0.4172 Y1.9132  
G01 X-0.4200 Y1.9083  
G01 X-0.4215 Y1.9028  
G01 X-0.4215 Y1.7089  
G01 X-0.4632 Y1.6672  
G01 X-0.4672 Y1.6632  
G01 X-0.4700 Y1.6583  
G01 X-0.4715 Y1.6528  
G01 X-0.4715 Y1.5840  
G01 X-0.4854 Y1.5700  
G01 X-0.4854 Y1.5394  
G01 X-0.4699 Y1.5239  
G01 X-0.4699 Y1.0355  
G01 X-0.4854 Y1.0200  
G01 X-0.4854 Y0.9894  
G01 X-0.4699 Y0.9739  
G01 X-0.4699 Y0.4855  
G01 X-0.4854 Y0.4700  
G01 X-0.4854 Y0.4394  
G01 X-0.4637 Y0.4177  
G01 X-0.4331 Y0.4177  
G01 X-0.4135 Y0.4373  
G01 X-0.4135 Y0.4168  
G01 X-0.4163 Y0.4143  
G01 X-0.4615 Y0.3465  
G01 X-0.8984 Y0.3465  
G01 X-0.8996 Y0.3467  
G01 X-0.9012 Y0.3465  
G01 X-0.9028 Y0.3465  
G01 X-0.9040 Y0.3462  
G01 X-0.9052 Y0.3461  
G01 X-0.9067 Y0.3455  
G01 X-0.9083 Y0.3450  
G01 X-0.9093 Y0.3444  
G01 X-0.9105 Y0.3440  
G01 X-0.9118 Y0.3430  
G01 X-0.9132 Y0.3422  
G01 X-0.9141 Y0.3414  
G01 X-0.9150 Y0.3406  
G01 X-0.9160 Y0.3394  
G01 X-0.9172 Y0.3382  
G01 X-0.9178 Y0.3372  
G01 X-1.0160 Y0.2144  
G01 X-1.0172 Y0.2132  
G01 X-1.0178 Y0.2122  
G01 X-1.0186 Y0.2112  
G01 X-1.0191 Y0.2099  
G01 X-1.0226 Y0.2076  
G01 X-1.0276 Y0.2026  
G01 X-1.0315 Y0.1968  
G01 X-1.0341 Y0.1904  
G01 X-1.0355 Y0.1835  
G01 X-1.0355 Y0.1165  
G01 X-1.0341 Y0.1096  
G01 X-1.0315 Y0.1032  
G01 X-1.0276 Y0.0974  
G01 X-1.0226 Y0.0924  
G01 X-1.0168 Y0.0885  
G01 X-1.0104 Y0.0859  
G01 X-1.0035 Y0.0845  
G01 X-0.9965 Y0.0845  
G01 X-0.9896 Y0.0859  
G01 X-0.9832 Y0.0885  
G01 X-0.9774 Y0.0924  
G01 X-0.9724 Y0.0974  
G01 X-0.9685 Y0.1032  
G01 X-0.9659 Y0.1096  
G01 X-0.9645 Y0.1165  
G01 X-0.9645 Y0.1835  
G01 X-0.9659 Y0.1904  
G01 X-0.9685 Y0.1968  
G01 X-0.9715 Y0.2012  
G01 X-0.8897 Y0.3035  
G01 X-0.4507 Y0.3035  
G01 X-0.4486 Y0.3034  
G01 X-0.4479 Y0.3035  
G01 X-0.4472 Y0.3035  
G01 X-0.4451 Y0.3041  
G01 X-0.4430 Y0.3045  
G01 X-0.4424 Y0.3048  
G01 X-0.4417 Y0.3050  
G01 X-0.4398 Y0.3060  
G01 X-0.4379 Y0.3070  
G01 X-0.4374 Y0.3074  
G01 X-0.4368 Y0.3078  
G01 X-0.4353 Y0.3093  
G01 X-0.4337 Y0.3107  
G01 X-0.4333 Y0.3113  
G01 X-0.4328 Y0.3118  
G01 X-0.4317 Y0.3137  
G01 X-0.3805 Y0.3904  
G01 X-0.3787 Y0.3958  
G01 X-0.3784 Y0.4014  
G01 X-0.3795 Y0.4070  
G01 X-0.3820 Y0.4121  
G01 X-0.3857 Y0.4163  
G01 X-0.3865 Y0.4168  
G01 X-0.3865 Y0.4389  
G01 X-0.3715 Y0.4239  
G01 X-0.3715 Y0.3089  
G01 X-0.4089 Y0.2715  
G01 X-0.8528 Y0.2715  
G01 X-0.8583 Y0.2700  
G01 X-0.8632 Y0.2672  
G01 X-0.9132 Y0.2172  
G01 X-0.9172 Y0.2132  
G01 X-0.9191 Y0.2099  
G01 X-0.9226 Y0.2076  
G01 X-0.9276 Y0.2026  
G01 X-0.9315 Y0.1968  
G01 X-0.9341 Y0.1904  
G01 X-0.9355 Y0.1835  
G01 X-0.9355 Y0.1165  
G01 X-0.9341 Y0.1096  
G01 X-0.9315 Y0.1032  
G01 X-0.9276 Y0.0974  
G01 X-0.9226 Y0.0924  
G01 X-0.9168 Y0.0885  
G01 X-0.9104 Y0.0859  
G01 X-0.9035 Y0.0845  
G01 X-0.8965 Y0.0845  
G01 X-0.8896 Y0.0859  
G01 X-0.8832 Y0.0885  
G01 X-0.8774 Y0.0924  
G01 X-0.8724 Y0.0974  
G01 X-0.8685 Y0.1032  
G01 X-0.8659 Y0.1096  
G01 X-0.8645 Y0.1165  
G01 X-0.8645 Y0.1835  
G01 X-0.8659 Y0.1904  
G01 X-0.8685 Y0.1968  
G01 X-0.8702 Y0.1994  
G01 X-0.8411 Y0.2285  
G01 X-0.3972 Y0.2285  
G01 X-0.3917 Y0.2300  
G01 X-0.3868 Y0.2328  
G01 X-0.3828 Y0.2368  
G01 X-0.3328 Y0.2868  
G01 X-0.3300 Y0.2917  
G01 X-0.3285 Y0.2972  
G01 X-0.3285 Y0.4239  
G01 X-0.3135 Y0.4389  
G01 X-0.3135 Y0.4169  
G01 X-0.3172 Y0.4132  
G01 X-0.3200 Y0.4083  
G01 X-0.3215 Y0.4028  
G01 X-0.3215 Y0.2589  
G01 X-0.4089 Y0.1715  
G01 X-0.7645 Y0.1715  
G01 X-0.7645 Y0.1835  
G01 X-0.7659 Y0.1904  
G01 X-0.7685 Y0.1968  
G01 X-0.7724 Y0.2026  
G01 X-0.7774 Y0.2076  
G01 X-0.7832 Y0.2115  
G01 X-0.7896 Y0.2141  
G01 X-0.7965 Y0.2155  
G01 X-0.8035 Y0.2155  
G01 X-0.8104 Y0.2141  
G01 X-0.8168 Y0.2115  
G01 X-0.8226 Y0.2076  
G01 X-0.8276 Y0.2026  
G01 X-0.8315 Y0.1968  
G01 X-0.8341 Y0.1904  
G01 X-0.8355 Y0.1835  
G01 X-0.8355 Y0.1165  
G01 X-0.8341 Y0.1096  
G01 X-0.8315 Y0.1032  
G01 X-0.8276 Y0.0974  
G01 X-0.8226 Y0.0924  
G01 X-0.8168 Y0.0885  
G01 X-0.8104 Y0.0859  
G01 X-0.8035 Y0.0845  
G01 X-0.7965 Y0.0845  
G01 X-0.7896 Y0.0859  
G01 X-0.7832 Y0.0885  
G01 X-0.7774 Y0.0924  
G01 X-0.7724 Y0.0974  
G01 X-0.7685 Y0.1032  
G01 X-0.7659 Y0.1096  
G01 X-0.7645 Y0.1165  
G01 X-0.7645 Y0.1285  
G01 X-0.3972 Y0.1285  
G01 X-0.3917 Y0.1300  
G01 X-0.3868 Y0.1328  
G01 X-0.2868 Y0.2328  
G01 X-0.2828 Y0.2368  
G00 Z0.0500  
G00 X-0.3135 Y0.4705  
G01 Z-0.0035 F10    
G01 X-0.3347 Y0.4917  F20    
G01 X-0.3653 Y0.4917  
G01 X-0.3865 Y0.4705  
G01 X-0.3865 Y0.4831  
G01 X-0.3828 Y0.4868  
G01 X-0.3800 Y0.4917  
G01 X-0.3785 Y0.4972  
G01 X-0.3785 Y0.9528  
G01 X-0.3800 Y0.9583  
G01 X-0.3828 Y0.9632  
G01 X-0.3865 Y0.9669  
G01 X-0.3865 Y0.9889  
G01 X-0.3715 Y0.9739  
G01 X-0.3715 Y0.7522  
G01 X-0.3716 Y0.7515  
G01 X-0.3715 Y0.7494  
G01 X-0.3715 Y0.7472  
G01 X-0.3713 Y0.7465  
G01 X-0.3713 Y0.7459  
G01 X-0.3706 Y0.7438  
G01 X-0.3700 Y0.7417  
G01 X-0.3697 Y0.7411  
G01 X-0.3215 Y0.5965  
G01 X-0.3215 Y0.4972  
G01 X-0.3200 Y0.4917  
G01 X-0.3172 Y0.4868  
G01 X-0.3135 Y0.4831  
G01 X-0.3135 Y0.4705  
G00 Z0.0500  
G00 X-0.4135 Y0.4721  
G01 Z-0.0035 F10    
G01 X-0.4269 Y0.4855  F20    
G01 X-0.4269 Y0.9739  
G01 X-0.4135 Y0.9873  
G01 X-0.4135 Y0.9669  
G01 X-0.4172 Y0.9632  
G01 X-0.4200 Y0.9583  
G01 X-0.4215 Y0.9528  
G01 X-0.4215 Y0.4972  
G01 X-0.4200 Y0.4917  
G01 X-0.4172 Y0.4868  
G01 X-0.4135 Y0.4831  
G01 X-0.4135 Y0.4721  
G00 Z0.0500  
G00 X-0.4921 Y0.7233  
G01 Z-0.0035 F10    
G01 X-0.4921 Y0.7767  F20    
G01 X-0.5300 Y0.8146  
G01 X-0.5834 Y0.8146  
G01 X-0.6212 Y0.7767  
G01 X-0.6212 Y0.7233  
G01 X-0.5834 Y0.6854  
G01 X-0.5300 Y0.6854  
G01 X-0.4921 Y0.7233  
G00 Z0.0500  
G00 X-0.6330 Y0.7257  
G01 Z-0.0035 F10    
G01 X-0.6370 Y0.7335  F20    
G01 X-0.6422 Y0.7406  
G01 X-0.6484 Y0.7468  
G01 X-0.6555 Y0.7520  
G01 X-0.6633 Y0.7559  
G01 X-0.6716 Y0.7587  
G01 X-0.6803 Y0.7600  
G01 X-0.6890 Y0.7600  
G01 X-0.6977 Y0.7587  
G01 X-0.7060 Y0.7559  
G01 X-0.7138 Y0.7520  
G01 X-0.7209 Y0.7468  
G01 X-0.7271 Y0.7406  
G01 X-0.7323 Y0.7335  
G01 X-0.7363 Y0.7257  
G01 X-0.7390 Y0.7174  
G01 X-0.7403 Y0.7087  
G01 X-0.7403 Y0.6999  
G01 X-0.7390 Y0.6913  
G01 X-0.7363 Y0.6830  
G01 X-0.7323 Y0.6751  
G01 X-0.7271 Y0.6680  
G01 X-0.7209 Y0.6618  
G01 X-0.7138 Y0.6567  
G01 X-0.7060 Y0.6527  
G01 X-0.6977 Y0.6500  
G01 X-0.6890 Y0.6486  
G01 X-0.6803 Y0.6486  
G01 X-0.6716 Y0.6500  
G01 X-0.6633 Y0.6527  
G01 X-0.6555 Y0.6567  
G01 X-0.6484 Y0.6618  
G01 X-0.6422 Y0.6680  
G01 X-0.6370 Y0.6751  
G01 X-0.6330 Y0.6830  
G01 X-0.6303 Y0.6913  
G01 X-0.6289 Y0.6999  
G01 X-0.6289 Y0.7087  
G01 X-0.6303 Y0.7174  
G01 X-0.6330 Y0.7257  
G00 Z0.0500  
G00 X-0.9791 Y0.6996  
G01 Z-0.0035 F10    
G01 X-0.9862 Y0.7047  F20    
G01 X-0.9940 Y0.7087  
G01 X-1.0023 Y0.7114  
G01 X-1.0110 Y0.7128  
G01 X-1.0197 Y0.7128  
G01 X-1.0284 Y0.7114  
G01 X-1.0367 Y0.7087  
G01 X-1.0445 Y0.7047  
G01 X-1.0516 Y0.6996  
G01 X-1.0578 Y0.6934  
G01 X-1.0630 Y0.6863  
G01 X-1.0670 Y0.6785  
G01 X-1.0697 Y0.6701  
G01 X-1.0711 Y0.6615  
G01 X-1.0711 Y0.6527  
G01 X-1.0697 Y0.6440  
G01 X-1.0670 Y0.6357  
G01 X-1.0630 Y0.6279  
G01 X-1.0578 Y0.6208  
G01 X-1.0516 Y0.6146  
G01 X-1.0445 Y0.6095  
G01 X-1.0367 Y0.6055  
G01 X-1.0284 Y0.6028  
G01 X-1.0197 Y0.6014  
G01 X-1.0110 Y0.6014  
G01 X-1.0023 Y0.6028  
G01 X-0.9940 Y0.6055  
G01 X-0.9862 Y0.6095  
G01 X-0.9791 Y0.6146  
G01 X-0.9729 Y0.6208  
G01 X-0.9677 Y0.6279  
G01 X-0.9637 Y0.6357  
G01 X-0.9610 Y0.6440  
G01 X-0.9597 Y0.6527  
G01 X-0.9597 Y0.6615  
G01 X-0.9610 Y0.6701  
G01 X-0.9637 Y0.6785  
G01 X-0.9677 Y0.6863  
G01 X-0.9729 Y0.6934  
G01 X-0.9791 Y0.6996  
G00 Z0.0500  
G00 X-1.1289 Y0.6999  
G01 Z-0.0035 F10    
G01 X-1.1289 Y0.7087  F20    
G01 X-1.1303 Y0.7174  
G01 X-1.1330 Y0.7257  
G01 X-1.1370 Y0.7335  
G01 X-1.1422 Y0.7406  
G01 X-1.1484 Y0.7468  
G01 X-1.1555 Y0.7520  
G01 X-1.1633 Y0.7559  
G01 X-1.1716 Y0.7587  
G01 X-1.1803 Y0.7600  
G01 X-1.1890 Y0.7600  
G01 X-1.1977 Y0.7587  
G01 X-1.2060 Y0.7559  
G01 X-1.2138 Y0.7520  
G01 X-1.2209 Y0.7468  
G01 X-1.2271 Y0.7406  
G01 X-1.2323 Y0.7335  
G01 X-1.2363 Y0.7257  
G01 X-1.2390 Y0.7174  
G01 X-1.2403 Y0.7087  
G01 X-1.2403 Y0.6999  
G01 X-1.2390 Y0.6913  
G01 X-1.2363 Y0.6830  
G01 X-1.2323 Y0.6751  
G01 X-1.2271 Y0.6680  
G01 X-1.2209 Y0.6618  
G01 X-1.2138 Y0.6567  
G01 X-1.2060 Y0.6527  
G01 X-1.1977 Y0.6500  
G01 X-1.1890 Y0.6486  
G01 X-1.1803 Y0.6486  
G01 X-1.1716 Y0.6500  
G01 X-1.1633 Y0.6527  
G01 X-1.1555 Y0.6567  
G01 X-1.1484 Y0.6618  
G01 X-1.1422 Y0.6680  
G01 X-1.1370 Y0.6751  
G01 X-1.1330 Y0.6830  
G01 X-1.1303 Y0.6913  
G01 X-1.1289 Y0.6999  
G00 Z0.0500  
G00 X-0.9559 Y0.5253  
G01 Z-0.0035 F10    
G01 X-0.9604 Y0.5191  F20    
G01 X-0.9638 Y0.5123  
G01 X-0.9662 Y0.5051  
G01 X-0.9674 Y0.4975  
G01 X-0.9674 Y0.4899  
G01 X-0.9662 Y0.4823  
G01 X-0.9638 Y0.4751  
G01 X-0.9637 Y0.4748  
G01 X-1.0157 Y0.4147  
G01 X-1.1132 Y0.3172  
G01 X-1.1172 Y0.3132  
G01 X-1.1200 Y0.3083  
G01 X-1.1215 Y0.3028  
G01 X-1.1215 Y0.2083  
G01 X-1.1226 Y0.2076  
G01 X-1.1276 Y0.2026  
G01 X-1.1315 Y0.1968  
G01 X-1.1341 Y0.1904  
G01 X-1.1355 Y0.1835  
G01 X-1.1355 Y0.1165  
G01 X-1.1341 Y0.1096  
G01 X-1.1315 Y0.1032  
G01 X-1.1276 Y0.0974  
G01 X-1.1226 Y0.0924  
G01 X-1.1168 Y0.0885  
G01 X-1.1104 Y0.0859  
G01 X-1.1035 Y0.0845  
G01 X-1.0965 Y0.0845  
G01 X-1.0896 Y0.0859  
G01 X-1.0832 Y0.0885  
G01 X-1.0774 Y0.0924  
G01 X-1.0724 Y0.0974  
G01 X-1.0685 Y0.1032  
G01 X-1.0659 Y0.1096  
G01 X-1.0645 Y0.1165  
G01 X-1.0645 Y0.1835  
G01 X-1.0659 Y0.1904  
G01 X-1.0685 Y0.1968  
G01 X-1.0724 Y0.2026  
G01 X-1.0774 Y0.2076  
G01 X-1.0785 Y0.2083  
G01 X-1.0785 Y0.2911  
G01 X-0.9862 Y0.3833  
G01 X-0.9856 Y0.3838  
G01 X-0.9843 Y0.3853  
G01 X-0.9828 Y0.3868  
G01 X-0.9824 Y0.3875  
G01 X-0.9312 Y0.4467  
G01 X-0.9303 Y0.4464  
G01 X-0.9227 Y0.4452  
G01 X-0.9151 Y0.4452  
G01 X-0.9075 Y0.4464  
G01 X-0.9003 Y0.4488  
G01 X-0.8935 Y0.4522  
G01 X-0.8873 Y0.4567  
G01 X-0.8819 Y0.4621  
G01 X-0.8774 Y0.4683  
G01 X-0.8740 Y0.4751  
G01 X-0.8716 Y0.4823  
G01 X-0.8704 Y0.4899  
G01 X-0.8704 Y0.4975  
G01 X-0.8716 Y0.5051  
G01 X-0.8740 Y0.5123  
G01 X-0.8774 Y0.5191  
G01 X-0.8819 Y0.5253  
G01 X-0.8873 Y0.5307  
G01 X-0.8935 Y0.5352  
G01 X-0.9003 Y0.5386  
G01 X-0.9075 Y0.5410  
G01 X-0.9151 Y0.5422  
G01 X-0.9227 Y0.5422  
G01 X-0.9303 Y0.5410  
G01 X-0.9375 Y0.5386  
G01 X-0.9443 Y0.5352  
G01 X-0.9505 Y0.5307  
G01 X-0.9559 Y0.5253  
G00 Z0.0500  
G00 X-1.3819 Y0.5253  
G01 Z-0.0035 F10    
G01 X-1.3873 Y0.5307  F20    
G01 X-1.3935 Y0.5352  
G01 X-1.4003 Y0.5386  
G01 X-1.4075 Y0.5410  
G01 X-1.4151 Y0.5422  
G01 X-1.4227 Y0.5422  
G01 X-1.4303 Y0.5410  
G01 X-1.4375 Y0.5386  
G01 X-1.4443 Y0.5352  
G01 X-1.4505 Y0.5307  
G01 X-1.4559 Y0.5253  
G01 X-1.4604 Y0.5191  
G01 X-1.4638 Y0.5123  
G01 X-1.4662 Y0.5051  
G01 X-1.4674 Y0.4975  
G01 X-1.4674 Y0.4899  
G01 X-1.4662 Y0.4823  
G01 X-1.4638 Y0.4751  
G01 X-1.4604 Y0.4683  
G01 X-1.4559 Y0.4621  
G01 X-1.4505 Y0.4567  
G01 X-1.4443 Y0.4522  
G01 X-1.4375 Y0.4488  
G01 X-1.4303 Y0.4464  
G01 X-1.4262 Y0.4457  
G01 X-1.2215 Y0.2411  
G01 X-1.2215 Y0.2083  
G01 X-1.2226 Y0.2076  
G01 X-1.2276 Y0.2026  
G01 X-1.2315 Y0.1968  
G01 X-1.2341 Y0.1904  
G01 X-1.2355 Y0.1835  
G01 X-1.2355 Y0.1165  
G01 X-1.2341 Y0.1096  
G01 X-1.2315 Y0.1032  
G01 X-1.2276 Y0.0974  
G01 X-1.2226 Y0.0924  
G01 X-1.2168 Y0.0885  
G01 X-1.2104 Y0.0859  
G01 X-1.2035 Y0.0845  
G01 X-1.1965 Y0.0845  
G01 X-1.1896 Y0.0859  
G01 X-1.1832 Y0.0885  
G01 X-1.1774 Y0.0924  
G01 X-1.1724 Y0.0974  
G01 X-1.1685 Y0.1032  
G01 X-1.1659 Y0.1096  
G01 X-1.1645 Y0.1165  
G01 X-1.1645 Y0.1835  
G01 X-1.1659 Y0.1904  
G01 X-1.1685 Y0.1968  
G01 X-1.1724 Y0.2026  
G01 X-1.1774 Y0.2076  
G01 X-1.1785 Y0.2083  
G01 X-1.1785 Y0.2528  
G01 X-1.1800 Y0.2583  
G01 X-1.1828 Y0.2632  
G01 X-1.1868 Y0.2672  
G01 X-1.3818 Y0.4622  
G01 X-1.3774 Y0.4683  
G01 X-1.3740 Y0.4751  
G01 X-1.3716 Y0.4823  
G01 X-1.3704 Y0.4899  
G01 X-1.3704 Y0.4975  
G01 X-1.3716 Y0.5051  
G01 X-1.3740 Y0.5123  
G01 X-1.3774 Y0.5191  
G01 X-1.3819 Y0.5253  
G00 Z0.0500  
G00 X-1.4729 Y0.6208  
G01 Z-0.0035 F10    
G01 X-1.4677 Y0.6279  F20    
G01 X-1.4637 Y0.6357  
G01 X-1.4610 Y0.6440  
G01 X-1.4597 Y0.6527  
G01 X-1.4597 Y0.6615  
G01 X-1.4610 Y0.6701  
G01 X-1.4637 Y0.6785  
G01 X-1.4677 Y0.6863  
G01 X-1.4729 Y0.6934  
G01 X-1.4791 Y0.6996  
G01 X-1.4862 Y0.7047  
G01 X-1.4940 Y0.7087  
G01 X-1.5023 Y0.7114  
G01 X-1.5110 Y0.7128  
G01 X-1.5197 Y0.7128  
G01 X-1.5284 Y0.7114  
G01 X-1.5367 Y0.7087  
G01 X-1.5445 Y0.7047  
G01 X-1.5516 Y0.6996  
G01 X-1.5578 Y0.6934  
G01 X-1.5630 Y0.6863  
G01 X-1.5670 Y0.6785  
G01 X-1.5697 Y0.6701  
G01 X-1.5711 Y0.6615  
G01 X-1.5711 Y0.6527  
G01 X-1.5697 Y0.6440  
G01 X-1.5670 Y0.6357  
G01 X-1.5630 Y0.6279  
G01 X-1.5578 Y0.6208  
G01 X-1.5516 Y0.6146  
G01 X-1.5445 Y0.6095  
G01 X-1.5367 Y0.6055  
G01 X-1.5284 Y0.6028  
G01 X-1.5197 Y0.6014  
G01 X-1.5110 Y0.6014  
G01 X-1.5023 Y0.6028  
G01 X-1.4940 Y0.6055  
G01 X-1.4862 Y0.6095  
G01 X-1.4791 Y0.6146  
G01 X-1.4729 Y0.6208  
G00 Z0.0500  
G00 X-1.5788 Y0.7233  
G01 Z-0.0035 F10    
G01 X-1.5788 Y0.7767  F20    
G01 X-1.6166 Y0.8146  
G01 X-1.6700 Y0.8146  
G01 X-1.7079 Y0.7767  
G01 X-1.7079 Y0.7233  
G01 X-1.6700 Y0.6854  
G01 X-1.6166 Y0.6854  
G01 X-1.5788 Y0.7233  
G00 Z0.0500  
G00 X-1.8215 Y0.7911  
G01 Z-0.0035 F10    
G01 X-1.8215 Y0.4972  F20    
G01 X-1.8200 Y0.4917  
G01 X-1.8172 Y0.4868  
G01 X-1.8135 Y0.4831  
G01 X-1.8135 Y0.4705  
G01 X-1.8347 Y0.4917  
G01 X-1.8653 Y0.4917  
G01 X-1.8865 Y0.4705  
G01 X-1.8865 Y0.4831  
G01 X-1.8828 Y0.4868  
G01 X-1.8800 Y0.4917  
G01 X-1.8785 Y0.4972  
G01 X-1.8785 Y0.9528  
G01 X-1.8800 Y0.9583  
G01 X-1.8828 Y0.9632  
G01 X-1.8865 Y0.9669  
G01 X-1.8865 Y0.9889  
G01 X-1.8715 Y0.9739  
G01 X-1.8715 Y0.8472  
G01 X-1.8700 Y0.8417  
G01 X-1.8672 Y0.8368  
G01 X-1.8215 Y0.7911  
G00 Z0.0500  
G00 X-1.9921 Y0.7767  
G01 Z-0.0035 F10    
G01 X-2.0300 Y0.8146  F20    
G01 X-2.0834 Y0.8146  
G01 X-2.1212 Y0.7767  
G01 X-2.1212 Y0.7233  
G01 X-2.0834 Y0.6854  
G01 X-2.0300 Y0.6854  
G01 X-1.9921 Y0.7233  
G01 X-1.9921 Y0.7767  
G00 Z0.0500  
G00 X-2.1484 Y0.7468  
G01 Z-0.0035 F10    
G01 X-2.1555 Y0.7520  F20    
G01 X-2.1633 Y0.7559  
G01 X-2.1716 Y0.7587  
G01 X-2.1803 Y0.7600  
G01 X-2.1890 Y0.7600  
G01 X-2.1977 Y0.7587  
G01 X-2.2060 Y0.7559  
G01 X-2.2138 Y0.7520  
G01 X-2.2209 Y0.7468  
G01 X-2.2271 Y0.7406  
G01 X-2.2323 Y0.7335  
G01 X-2.2363 Y0.7257  
G01 X-2.2390 Y0.7174  
G01 X-2.2403 Y0.7087  
G01 X-2.2403 Y0.6999  
G01 X-2.2390 Y0.6913  
G01 X-2.2363 Y0.6830  
G01 X-2.2323 Y0.6751  
G01 X-2.2271 Y0.6680  
G01 X-2.2209 Y0.6618  
G01 X-2.2138 Y0.6567  
G01 X-2.2060 Y0.6527  
G01 X-2.1977 Y0.6500  
G01 X-2.1890 Y0.6486  
G01 X-2.1803 Y0.6486  
G01 X-2.1716 Y0.6500  
G01 X-2.1633 Y0.6527  
G01 X-2.1555 Y0.6567  
G01 X-2.1484 Y0.6618  
G01 X-2.1422 Y0.6680  
G01 X-2.1370 Y0.6751  
G01 X-2.1330 Y0.6830  
G01 X-2.1303 Y0.6913  
G01 X-2.1289 Y0.6999  
G01 X-2.1289 Y0.7087  
G01 X-2.1303 Y0.7174  
G01 X-2.1330 Y0.7257  
G01 X-2.1370 Y0.7335  
G01 X-2.1422 Y0.7406  
G01 X-2.1484 Y0.7468  
G00 Z0.0500  
G00 X-2.2495 Y0.5307  
G01 Z-0.0035 F10    
G01 X-2.2557 Y0.5352  F20    
G01 X-2.2596 Y0.5372  
G01 X-2.2596 Y0.9933  
G01 X-2.2595 Y0.9956  
G01 X-2.2596 Y0.9962  
G01 X-2.2596 Y2.0100  
G01 X-2.0911 Y2.1785  
G01 X-1.1292 Y2.1785  
G01 X-1.1292 Y2.1752  
G01 X-1.1284 Y2.1731  
G01 X-1.1269 Y2.1716  
G01 X-1.1248 Y2.1708  
G01 X-1.0752 Y2.1708  
G01 X-1.0731 Y2.1716  
G01 X-1.0716 Y2.1731  
G01 X-1.0708 Y2.1752  
G01 X-1.0708 Y2.1785  
G01 X-0.3792 Y2.1785  
G01 X-0.3792 Y2.1752  
G01 X-0.3784 Y2.1731  
G01 X-0.3769 Y2.1716  
G01 X-0.3748 Y2.1708  
G01 X-0.3252 Y2.1708  
G01 X-0.3231 Y2.1716  
G01 X-0.3216 Y2.1731  
G01 X-0.3208 Y2.1752  
G01 X-0.3208 Y2.2248  
G01 X-0.3216 Y2.2269  
G01 X-0.3231 Y2.2284  
G01 X-0.3252 Y2.2292  
G01 X-0.3748 Y2.2292  
G01 X-0.3769 Y2.2284  
G01 X-0.3784 Y2.2269  
G01 X-0.3792 Y2.2248  
G01 X-0.3792 Y2.2215  
G01 X-1.0708 Y2.2215  
G01 X-1.0708 Y2.2248  
G01 X-1.0716 Y2.2269  
G01 X-1.0731 Y2.2284  
G01 X-1.0752 Y2.2292  
G01 X-1.1248 Y2.2292  
G01 X-1.1269 Y2.2284  
G01 X-1.1284 Y2.2269  
G01 X-1.1292 Y2.2248  
G01 X-1.1292 Y2.2215  
G01 X-2.1028 Y2.2215  
G01 X-2.1083 Y2.2200  
G01 X-2.1132 Y2.2172  
G01 X-2.1172 Y2.2132  
G01 X-2.2983 Y2.0321  
G01 X-2.3011 Y2.0272  
G01 X-2.3026 Y2.0217  
G01 X-2.3026 Y1.0165  
G01 X-2.3966 Y1.0214  
G01 X-2.3972 Y1.0215  
G01 X-2.3994 Y1.0215  
G01 X-2.4017 Y1.0216  
G01 X-2.4023 Y1.0215  
G01 X-2.7747 Y1.0215  
G01 X-2.9516 Y1.0261  
G01 X-2.9519 Y1.0262  
G01 X-2.9544 Y1.0262  
G01 X-2.9570 Y1.0263  
G01 X-2.9573 Y1.0262  
G01 X-3.2208 Y1.0262  
G01 X-3.2301 Y1.0355  
G01 X-3.2301 Y1.5239  
G01 X-3.2146 Y1.5394  
G01 X-3.2146 Y1.5700  
G01 X-3.2301 Y1.5855  
G01 X-3.2301 Y2.0739  
G01 X-3.2146 Y2.0894  
G01 X-3.2146 Y2.1200  
G01 X-3.2363 Y2.1417  
G01 X-3.2669 Y2.1417  
G01 X-3.2886 Y2.1200  
G01 X-3.2886 Y2.0894  
G01 X-3.2731 Y2.0739  
G01 X-3.2731 Y1.5855  
G01 X-3.2886 Y1.5700  
G01 X-3.2886 Y1.5394  
G01 X-3.2731 Y1.5239  
G01 X-3.2731 Y1.0355  
G01 X-3.2886 Y1.0200  
G01 X-3.2886 Y0.9894  
G01 X-3.2731 Y0.9739  
G01 X-3.2731 Y0.4855  
G01 X-3.2865 Y0.4721  
G01 X-3.2865 Y0.4831  
G01 X-3.2828 Y0.4868  
G01 X-3.2800 Y0.4917  
G01 X-3.2785 Y0.4972  
G01 X-3.2785 Y0.6028  
G01 X-3.2800 Y0.6083  
G01 X-3.2828 Y0.6132  
G01 X-3.2868 Y0.6172  
G01 X-3.3285 Y0.6589  
G01 X-3.3285 Y0.9739  
G01 X-3.3130 Y0.9894  
G01 X-3.3130 Y1.0200  
G01 X-3.3347 Y1.0417  
G01 X-3.3653 Y1.0417  
G01 X-3.3865 Y1.0205  
G01 X-3.3865 Y1.0331  
G01 X-3.3828 Y1.0368  
G01 X-3.3800 Y1.0417  
G01 X-3.3785 Y1.0472  
G01 X-3.3785 Y1.2979  
G01 X-3.3354 Y1.5177  
G01 X-3.3347 Y1.5177  
G01 X-3.3130 Y1.5394  
G01 X-3.3130 Y1.5700  
G01 X-3.3347 Y1.5917  
G01 X-3.3653 Y1.5917  
G01 X-3.3870 Y1.5700  
G01 X-3.3870 Y1.5394  
G01 X-3.3769 Y1.5293  
G01 X-3.4210 Y1.3049  
G01 X-3.4215 Y1.3028  
G01 X-3.4215 Y1.3021  
G01 X-3.4216 Y1.3014  
G01 X-3.4215 Y1.2993  
G01 X-3.4215 Y1.0472  
G01 X-3.4200 Y1.0417  
G01 X-3.4172 Y1.0368  
G01 X-3.4135 Y1.0331  
G01 X-3.4135 Y1.0221  
G01 X-3.4269 Y1.0355  
G01 X-3.4269 Y1.5239  
G01 X-3.4114 Y1.5394  
G01 X-3.4114 Y1.5700  
G01 X-3.4269 Y1.5855  
G01 X-3.4269 Y2.0739  
G01 X-3.4114 Y2.0894  
G01 X-3.4114 Y2.1200  
G01 X-3.4269 Y2.1355  
G01 X-3.4269 Y2.6208  
G01 X-3.4252 Y2.6208  
G01 X-3.4231 Y2.6216  
G01 X-3.4216 Y2.6231  
G01 X-3.4208 Y2.6252  
G01 X-3.4208 Y2.6748  
G01 X-3.4216 Y2.6769  
G01 X-3.4231 Y2.6784  
G01 X-3.4252 Y2.6792  
G01 X-3.4748 Y2.6792  
G01 X-3.4769 Y2.6784  
G01 X-3.4784 Y2.6769  
G01 X-3.4792 Y2.6748  
G01 X-3.4792 Y2.6252  
G01 X-3.4784 Y2.6231  
G01 X-3.4769 Y2.6216  
G01 X-3.4748 Y2.6208  
G01 X-3.4699 Y2.6208  
G01 X-3.4699 Y2.1355  
G01 X-3.4854 Y2.1200  
G01 X-3.4854 Y2.0894  
G01 X-3.4699 Y2.0739  
G01 X-3.4699 Y1.5855  
G01 X-3.4854 Y1.5700  
G01 X-3.4854 Y1.5394  
G01 X-3.4699 Y1.5239  
G01 X-3.4699 Y1.0355  
G01 X-3.4854 Y1.0200  
G01 X-3.4854 Y0.9894  
G01 X-3.4699 Y0.9739  
G01 X-3.4699 Y0.4855  
G01 X-3.4854 Y0.4700  
G01 X-3.4854 Y0.4394  
G01 X-3.4637 Y0.4177  
G01 X-3.4331 Y0.4177  
G01 X-3.4135 Y0.4373  
G01 X-3.4135 Y0.4169  
G01 X-3.4172 Y0.4132  
G01 X-3.4200 Y0.4083  
G01 X-3.4215 Y0.4028  
G01 X-3.4215 Y0.2472  
G01 X-3.4200 Y0.2417  
G01 X-3.4172 Y0.2368  
G01 X-3.4132 Y0.2328  
G01 X-3.4083 Y0.2300  
G01 X-3.4028 Y0.2285  
G01 X-2.9089 Y0.2285  
G01 X-2.8798 Y0.1994  
G01 X-2.8815 Y0.1968  
G01 X-2.8841 Y0.1904  
G01 X-2.8855 Y0.1835  
G01 X-2.8855 Y0.1165  
G01 X-2.8841 Y0.1096  
G01 X-2.8815 Y0.1032  
G01 X-2.8776 Y0.0974  
G01 X-2.8726 Y0.0924  
G01 X-2.8668 Y0.0885  
G01 X-2.8604 Y0.0859  
G01 X-2.8535 Y0.0845  
G01 X-2.8465 Y0.0845  
G01 X-2.8396 Y0.0859  
G01 X-2.8332 Y0.0885  
G01 X-2.8274 Y0.0924  
G01 X-2.8224 Y0.0974  
G01 X-2.8185 Y0.1032  
G01 X-2.8159 Y0.1096  
G01 X-2.8145 Y0.1165  
G01 X-2.8145 Y0.1835  
G01 X-2.8159 Y0.1904  
G01 X-2.8185 Y0.1968  
G01 X-2.8224 Y0.2026  
G01 X-2.8274 Y0.2076  
G01 X-2.8309 Y0.2099  
G01 X-2.8328 Y0.2132  
G01 X-2.8368 Y0.2172  
G01 X-2.8868 Y0.2672  
G01 X-2.8917 Y0.2700  
G01 X-2.8972 Y0.2715  
G01 X-3.3785 Y0.2715  
G01 X-3.3785 Y0.4028  
G01 X-3.3800 Y0.4083  
G01 X-3.3828 Y0.4132  
G01 X-3.3865 Y0.4169  
G01 X-3.3865 Y0.4389  
G01 X-3.3715 Y0.4239  
G01 X-3.3715 Y0.2972  
G01 X-3.3700 Y0.2917  
G01 X-3.3672 Y0.2868  
G01 X-3.3632 Y0.2828  
G01 X-3.3583 Y0.2800  
G01 X-3.3528 Y0.2785  
G01 X-2.8589 Y0.2785  
G01 X-2.7798 Y0.1994  
G01 X-2.7815 Y0.1968  
G01 X-2.7841 Y0.1904  
G01 X-2.7855 Y0.1835  
G01 X-2.7855 Y0.1165  
G01 X-2.7841 Y0.1096  
G01 X-2.7815 Y0.1032  
G01 X-2.7776 Y0.0974  
G01 X-2.7726 Y0.0924  
G01 X-2.7668 Y0.0885  
G01 X-2.7604 Y0.0859  
G01 X-2.7535 Y0.0845  
G01 X-2.7465 Y0.0845  
G01 X-2.7396 Y0.0859  
G01 X-2.7332 Y0.0885  
G01 X-2.7274 Y0.0924  
G01 X-2.7224 Y0.0974  
G01 X-2.7185 Y0.1032  
G01 X-2.7159 Y0.1096  
G01 X-2.7145 Y0.1165  
G01 X-2.7145 Y0.1835  
G01 X-2.7159 Y0.1904  
G01 X-2.7185 Y0.1968  
G01 X-2.7224 Y0.2026  
G01 X-2.7274 Y0.2076  
G01 X-2.7309 Y0.2099  
G01 X-2.7328 Y0.2132  
G01 X-2.7368 Y0.2172  
G01 X-2.8368 Y0.3172  
G01 X-2.8417 Y0.3200  
G01 X-2.8472 Y0.3215  
G01 X-3.3285 Y0.3215  
G01 X-3.3285 Y0.4239  
G01 X-3.3135 Y0.4389  
G01 X-3.3135 Y0.4169  
G01 X-3.3172 Y0.4132  
G01 X-3.3200 Y0.4083  
G01 X-3.3215 Y0.4028  
G01 X-3.3215 Y0.3972  
G01 X-3.3200 Y0.3917  
G01 X-3.3172 Y0.3868  
G01 X-3.2632 Y0.3328  
G01 X-3.2583 Y0.3300  
G01 X-3.2528 Y0.3285  
G01 X-2.7589 Y0.3285  
G01 X-2.6715 Y0.2411  
G01 X-2.6715 Y0.2083  
G01 X-2.6726 Y0.2076  
G01 X-2.6776 Y0.2026  
G01 X-2.6815 Y0.1968  
G01 X-2.6841 Y0.1904  
G01 X-2.6855 Y0.1835  
G01 X-2.6855 Y0.1165  
G01 X-2.6841 Y0.1096  
G01 X-2.6815 Y0.1032  
G01 X-2.6776 Y0.0974  
G01 X-2.6726 Y0.0924  
G01 X-2.6668 Y0.0885  
G01 X-2.6604 Y0.0859  
G01 X-2.6535 Y0.0845  
G01 X-2.6465 Y0.0845  
G01 X-2.6396 Y0.0859  
G01 X-2.6332 Y0.0885  
G01 X-2.6274 Y0.0924  
G01 X-2.6224 Y0.0974  
G01 X-2.6185 Y0.1032  
G01 X-2.6159 Y0.1096  
G01 X-2.6145 Y0.1165  
G01 X-2.6145 Y0.1835  
G01 X-2.6159 Y0.1904  
G01 X-2.6185 Y0.1968  
G01 X-2.6224 Y0.2026  
G01 X-2.6274 Y0.2076  
G01 X-2.6285 Y0.2083  
G01 X-2.6285 Y0.2528  
G01 X-2.6300 Y0.2583  
G01 X-2.6328 Y0.2632  
G01 X-2.7328 Y0.3632  
G01 X-2.7368 Y0.3672  
G01 X-2.7417 Y0.3700  
G01 X-2.7472 Y0.3715  
G01 X-3.2411 Y0.3715  
G01 X-3.2865 Y0.4169  
G01 X-3.2865 Y0.4373  
G01 X-3.2669 Y0.4177  
G01 X-3.2363 Y0.4177  
G01 X-3.2146 Y0.4394  
G01 X-3.2146 Y0.4700  
G01 X-3.2301 Y0.4855  
G01 X-3.2301 Y0.9739  
G01 X-3.2208 Y0.9832  
G01 X-2.9550 Y0.9832  
G01 X-2.7965 Y0.9791  
G01 X-2.7965 Y0.5397  
G01 X-2.7997 Y0.5386  
G01 X-2.8065 Y0.5352  
G01 X-2.8127 Y0.5307  
G01 X-2.8181 Y0.5253  
G01 X-2.8226 Y0.5191  
G01 X-2.8260 Y0.5123  
G01 X-2.8284 Y0.5051  
G01 X-2.8296 Y0.4975  
G01 X-2.8296 Y0.4899  
G01 X-2.8284 Y0.4823  
G01 X-2.8260 Y0.4751  
G01 X-2.8226 Y0.4683  
G01 X-2.8181 Y0.4621  
G01 X-2.8127 Y0.4567  
G01 X-2.8065 Y0.4522  
G01 X-2.7997 Y0.4488  
G01 X-2.7925 Y0.4464  
G01 X-2.7849 Y0.4452  
G01 X-2.7773 Y0.4452  
G01 X-2.7697 Y0.4464  
G01 X-2.7625 Y0.4488  
G01 X-2.7557 Y0.4522  
G01 X-2.7495 Y0.4567  
G01 X-2.7441 Y0.4621  
G01 X-2.7396 Y0.4683  
G01 X-2.7362 Y0.4751  
G01 X-2.7338 Y0.4823  
G01 X-2.7326 Y0.4899  
G01 X-2.7326 Y0.4975  
G01 X-2.7338 Y0.5051  
G01 X-2.7362 Y0.5123  
G01 X-2.7396 Y0.5191  
G01 X-2.7441 Y0.5253  
G01 X-2.7495 Y0.5307  
G01 X-2.7535 Y0.5336  
G01 X-2.7535 Y0.9785  
G01 X-2.4006 Y0.9785  
G01 X-2.3026 Y0.9735  
G01 X-2.3026 Y0.5372  
G01 X-2.3065 Y0.5352  
G01 X-2.3127 Y0.5307  
G01 X-2.3181 Y0.5253  
G01 X-2.3226 Y0.5191  
G01 X-2.3260 Y0.5123  
G01 X-2.3284 Y0.5051  
G01 X-2.3296 Y0.4975  
G01 X-2.3296 Y0.4899  
G01 X-2.3284 Y0.4823  
G01 X-2.3260 Y0.4751  
G01 X-2.3226 Y0.4683  
G01 X-2.3181 Y0.4621  
G01 X-2.3127 Y0.4567  
G01 X-2.3065 Y0.4522  
G01 X-2.2997 Y0.4488  
G01 X-2.2925 Y0.4464  
G01 X-2.2849 Y0.4452  
G01 X-2.2773 Y0.4452  
G01 X-2.2697 Y0.4464  
G01 X-2.2625 Y0.4488  
G01 X-2.2557 Y0.4522  
G01 X-2.2495 Y0.4567  
G01 X-2.2441 Y0.4621  
G01 X-2.2396 Y0.4683  
G01 X-2.2362 Y0.4751  
G01 X-2.2338 Y0.4823  
G01 X-2.2326 Y0.4899  
G01 X-2.2326 Y0.4975  
G01 X-2.2338 Y0.5051  
G01 X-2.2362 Y0.5123  
G01 X-2.2396 Y0.5191  
G01 X-2.2441 Y0.5253  
G01 X-2.2495 Y0.5307  
G00 Z0.0500  
G00 X-2.3873 Y0.5307  
G01 Z-0.0035 F10    
G01 X-2.3935 Y0.5352  F20    
G01 X-2.4003 Y0.5386  
G01 X-2.4075 Y0.5410  
G01 X-2.4151 Y0.5422  
G01 X-2.4227 Y0.5422  
G01 X-2.4303 Y0.5410  
G01 X-2.4375 Y0.5386  
G01 X-2.4443 Y0.5352  
G01 X-2.4505 Y0.5307  
G01 X-2.4559 Y0.5253  
G01 X-2.4604 Y0.5191  
G01 X-2.4638 Y0.5123  
G01 X-2.4662 Y0.5051  
G01 X-2.4674 Y0.4975  
G01 X-2.4674 Y0.4899  
G01 X-2.4662 Y0.4823  
G01 X-2.4638 Y0.4751  
G01 X-2.4604 Y0.4683  
G01 X-2.4559 Y0.4621  
G01 X-2.4505 Y0.4567  
G01 X-2.4443 Y0.4522  
G01 X-2.4404 Y0.4502  
G01 X-2.4404 Y0.3400  
G01 X-2.4632 Y0.3172  
G01 X-2.4672 Y0.3132  
G01 X-2.4700 Y0.3083  
G01 X-2.4715 Y0.3028  
G01 X-2.4715 Y0.2083  
G01 X-2.4726 Y0.2076  
G01 X-2.4776 Y0.2026  
G01 X-2.4815 Y0.1968  
G01 X-2.4841 Y0.1904  
G01 X-2.4855 Y0.1835  
G01 X-2.4855 Y0.1165  
G01 X-2.4841 Y0.1096  
G01 X-2.4815 Y0.1032  
G01 X-2.4776 Y0.0974  
G01 X-2.4726 Y0.0924  
G01 X-2.4668 Y0.0885  
G01 X-2.4604 Y0.0859  
G01 X-2.4535 Y0.0845  
G01 X-2.4465 Y0.0845  
G01 X-2.4396 Y0.0859  
G01 X-2.4332 Y0.0885  
G01 X-2.4274 Y0.0924  
G01 X-2.4224 Y0.0974  
G01 X-2.4185 Y0.1032  
G01 X-2.4159 Y0.1096  
G01 X-2.4145 Y0.1165  
G01 X-2.4145 Y0.1835  
G01 X-2.4159 Y0.1904  
G01 X-2.4185 Y0.1968  
G01 X-2.4224 Y0.2026  
G01 X-2.4274 Y0.2076  
G01 X-2.4285 Y0.2083  
G01 X-2.4285 Y0.2911  
G01 X-2.4017 Y0.3179  
G01 X-2.3989 Y0.3228  
G01 X-2.3974 Y0.3283  
G01 X-2.3974 Y0.4502  
G01 X-2.3935 Y0.4522  
G01 X-2.3873 Y0.4567  
G01 X-2.3819 Y0.4621  
G01 X-2.3774 Y0.4683  
G01 X-2.3740 Y0.4751  
G01 X-2.3716 Y0.4823  
G01 X-2.3704 Y0.4899  
G01 X-2.3704 Y0.4975  
G01 X-2.3716 Y0.5051  
G01 X-2.3740 Y0.5123  
G01 X-2.3774 Y0.5191  
G01 X-2.3819 Y0.5253  
G01 X-2.3873 Y0.5307  
G00 Z0.0500  
G00 X-2.4729 Y0.6208  
G01 Z-0.0035 F10    
G01 X-2.4677 Y0.6279  F20    
G01 X-2.4637 Y0.6357  
G01 X-2.4610 Y0.6440  
G01 X-2.4597 Y0.6527  
G01 X-2.4597 Y0.6615  
G01 X-2.4610 Y0.6701  
G01 X-2.4637 Y0.6785  
G01 X-2.4677 Y0.6863  
G01 X-2.4729 Y0.6934  
G01 X-2.4791 Y0.6996  
G01 X-2.4862 Y0.7047  
G01 X-2.4940 Y0.7087  
G01 X-2.5023 Y0.7114  
G01 X-2.5110 Y0.7128  
G01 X-2.5197 Y0.7128  
G01 X-2.5284 Y0.7114  
G01 X-2.5367 Y0.7087  
G01 X-2.5445 Y0.7047  
G01 X-2.5516 Y0.6996  
G01 X-2.5578 Y0.6934  
G01 X-2.5630 Y0.6863  
G01 X-2.5670 Y0.6785  
G01 X-2.5697 Y0.6701  
G01 X-2.5711 Y0.6615  
G01 X-2.5711 Y0.6527  
G01 X-2.5697 Y0.6440  
G01 X-2.5670 Y0.6357  
G01 X-2.5630 Y0.6279  
G01 X-2.5578 Y0.6208  
G01 X-2.5516 Y0.6146  
G01 X-2.5445 Y0.6095  
G01 X-2.5367 Y0.6055  
G01 X-2.5284 Y0.6028  
G01 X-2.5197 Y0.6014  
G01 X-2.5110 Y0.6014  
G01 X-2.5023 Y0.6028  
G01 X-2.4940 Y0.6055  
G01 X-2.4862 Y0.6095  
G01 X-2.4791 Y0.6146  
G01 X-2.4729 Y0.6208  
G00 Z0.0500  
G00 X-2.6422 Y0.6680  
G01 Z-0.0035 F10    
G01 X-2.6370 Y0.6751  F20    
G01 X-2.6330 Y0.6830  
G01 X-2.6303 Y0.6913  
G01 X-2.6289 Y0.6999  
G01 X-2.6289 Y0.7087  
G01 X-2.6303 Y0.7174  
G01 X-2.6330 Y0.7257  
G01 X-2.6370 Y0.7335  
G01 X-2.6422 Y0.7406  
G01 X-2.6484 Y0.7468  
G01 X-2.6555 Y0.7520  
G01 X-2.6633 Y0.7559  
G01 X-2.6716 Y0.7587  
G01 X-2.6803 Y0.7600  
G01 X-2.6890 Y0.7600  
G01 X-2.6977 Y0.7587  
G01 X-2.7060 Y0.7559  
G01 X-2.7138 Y0.7520  
G01 X-2.7209 Y0.7468  
G01 X-2.7271 Y0.7406  
G01 X-2.7323 Y0.7335  
G01 X-2.7363 Y0.7257  
G01 X-2.7390 Y0.7174  
G01 X-2.7403 Y0.7087  
G01 X-2.7403 Y0.6999  
G01 X-2.7390 Y0.6913  
G01 X-2.7363 Y0.6830  
G01 X-2.7323 Y0.6751  
G01 X-2.7271 Y0.6680  
G01 X-2.7209 Y0.6618  
G01 X-2.7138 Y0.6567  
G01 X-2.7060 Y0.6527  
G01 X-2.6977 Y0.6500  
G01 X-2.6890 Y0.6486  
G01 X-2.6803 Y0.6486  
G01 X-2.6716 Y0.6500  
G01 X-2.6633 Y0.6527  
G01 X-2.6555 Y0.6567  
G01 X-2.6484 Y0.6618  
G01 X-2.6422 Y0.6680  
G00 Z0.0500  
G00 X-2.6868 Y0.4172  
G01 Z-0.0035 F10    
G01 X-2.6917 Y0.4200  F20    
G01 X-2.6972 Y0.4215  
G01 X-2.8401 Y0.4215  
G01 X-2.8785 Y0.4668  
G01 X-2.8774 Y0.4683  
G01 X-2.8740 Y0.4751  
G01 X-2.8716 Y0.4823  
G01 X-2.8704 Y0.4899  
G01 X-2.8704 Y0.4975  
G01 X-2.8716 Y0.5051  
G01 X-2.8740 Y0.5123  
G01 X-2.8774 Y0.5191  
G01 X-2.8819 Y0.5253  
G01 X-2.8873 Y0.5307  
G01 X-2.8935 Y0.5352  
G01 X-2.9003 Y0.5386  
G01 X-2.9075 Y0.5410  
G01 X-2.9151 Y0.5422  
G01 X-2.9227 Y0.5422  
G01 X-2.9303 Y0.5410  
G01 X-2.9375 Y0.5386  
G01 X-2.9443 Y0.5352  
G01 X-2.9505 Y0.5307  
G01 X-2.9559 Y0.5253  
G01 X-2.9604 Y0.5191  
G01 X-2.9638 Y0.5123  
G01 X-2.9662 Y0.5051  
G01 X-2.9674 Y0.4975  
G01 X-2.9674 Y0.4899  
G01 X-2.9662 Y0.4823  
G01 X-2.9638 Y0.4751  
G01 X-2.9604 Y0.4683  
G01 X-2.9559 Y0.4621  
G01 X-2.9505 Y0.4567  
G01 X-2.9443 Y0.4522  
G01 X-2.9375 Y0.4488  
G01 X-2.9303 Y0.4464  
G01 X-2.9227 Y0.4452  
G01 X-2.9166 Y0.4452  
G01 X-2.8676 Y0.3876  
G01 X-2.8672 Y0.3868  
G01 X-2.8658 Y0.3854  
G01 X-2.8646 Y0.3839  
G01 X-2.8638 Y0.3834  
G01 X-2.8632 Y0.3828  
G01 X-2.8615 Y0.3818  
G01 X-2.8599 Y0.3807  
G01 X-2.8591 Y0.3804  
G01 X-2.8583 Y0.3800  
G01 X-2.8564 Y0.3795  
G01 X-2.8546 Y0.3788  
G01 X-2.8537 Y0.3787  
G01 X-2.8528 Y0.3785  
G01 X-2.8509 Y0.3785  
G01 X-2.8489 Y0.3783  
G01 X-2.8481 Y0.3785  
G01 X-2.7089 Y0.3785  
G01 X-2.5715 Y0.2411  
G01 X-2.5715 Y0.2083  
G01 X-2.5726 Y0.2076  
G01 X-2.5776 Y0.2026  
G01 X-2.5815 Y0.1968  
G01 X-2.5841 Y0.1904  
G01 X-2.5855 Y0.1835  
G01 X-2.5855 Y0.1165  
G01 X-2.5841 Y0.1096  
G01 X-2.5815 Y0.1032  
G01 X-2.5776 Y0.0974  
G01 X-2.5726 Y0.0924  
G01 X-2.5668 Y0.0885  
G01 X-2.5604 Y0.0859  
G01 X-2.5535 Y0.0845  
G01 X-2.5465 Y0.0845  
G01 X-2.5396 Y0.0859  
G01 X-2.5332 Y0.0885  
G01 X-2.5274 Y0.0924  
G01 X-2.5224 Y0.0974  
G01 X-2.5185 Y0.1032  
G01 X-2.5159 Y0.1096  
G01 X-2.5145 Y0.1165  
G01 X-2.5145 Y0.1835  
G01 X-2.5159 Y0.1904  
G01 X-2.5185 Y0.1968  
G01 X-2.5224 Y0.2026  
G01 X-2.5274 Y0.2076  
G01 X-2.5285 Y0.2083  
G01 X-2.5285 Y0.2528  
G01 X-2.5300 Y0.2583  
G01 X-2.5328 Y0.2632  
G01 X-2.5368 Y0.2672  
G01 X-2.6828 Y0.4132  
G01 X-2.6868 Y0.4172  
G00 Z0.0500  
G00 X-2.9274 Y0.2076  
G01 Z-0.0035 F10    
G01 X-2.9332 Y0.2115  F20    
G01 X-2.9396 Y0.2141  
G01 X-2.9465 Y0.2155  
G01 X-2.9535 Y0.2155  
G01 X-2.9604 Y0.2141  
G01 X-2.9668 Y0.2115  
G01 X-2.9726 Y0.2076  
G01 X-2.9776 Y0.2026  
G01 X-2.9815 Y0.1968  
G01 X-2.9841 Y0.1904  
G01 X-2.9855 Y0.1835  
G01 X-2.9855 Y0.1715  
G01 X-3.4397 Y0.1715  
G01 X-3.6285 Y0.4075  
G01 X-3.6285 Y2.5911  
G01 X-3.4911 Y2.7285  
G01 X-3.4357 Y2.7285  
G01 X-3.3715 Y2.6428  
G01 X-3.3715 Y2.1355  
G01 X-3.3870 Y2.1200  
G01 X-3.3870 Y2.0894  
G01 X-3.3653 Y2.0677  
G01 X-3.3347 Y2.0677  
G01 X-3.3130 Y2.0894  
G01 X-3.3130 Y2.1200  
G01 X-3.3285 Y2.1355  
G01 X-3.3285 Y2.6485  
G01 X-3.3283 Y2.6498  
G01 X-3.3285 Y2.6513  
G01 X-3.3285 Y2.6528  
G01 X-3.3288 Y2.6541  
G01 X-3.3290 Y2.6554  
G01 X-3.3296 Y2.6568  
G01 X-3.3300 Y2.6583  
G01 X-3.3306 Y2.6594  
G01 X-3.3311 Y2.6606  
G01 X-3.3320 Y2.6619  
G01 X-3.3328 Y2.6632  
G01 X-3.3337 Y2.6641  
G01 X-3.4070 Y2.7619  
G01 X-3.4078 Y2.7632  
G01 X-3.4087 Y2.7641  
G01 X-3.4095 Y2.7652  
G01 X-3.4107 Y2.7661  
G01 X-3.4118 Y2.7672  
G01 X-3.4129 Y2.7679  
G01 X-3.4140 Y2.7687  
G01 X-3.4154 Y2.7693  
G01 X-3.4167 Y2.7700  
G01 X-3.4180 Y2.7704  
G01 X-3.4192 Y2.7709  
G01 X-3.4207 Y2.7711  
G01 X-3.4222 Y2.7715  
G01 X-3.4235 Y2.7715  
G01 X-3.4248 Y2.7717  
G01 X-3.4263 Y2.7715  
G01 X-3.5028 Y2.7715  
G01 X-3.5083 Y2.7700  
G01 X-3.5132 Y2.7672  
G01 X-3.5172 Y2.7632  
G01 X-3.6672 Y2.6132  
G01 X-3.6700 Y2.6083  
G01 X-3.6715 Y2.6028  
G01 X-3.6715 Y0.4012  
G01 X-3.6717 Y0.3996  
G01 X-3.6715 Y0.3984  
G01 X-3.6715 Y0.3972  
G01 X-3.6711 Y0.3956  
G01 X-3.6708 Y0.3940  
G01 X-3.6703 Y0.3929  
G01 X-3.6700 Y0.3917  
G01 X-3.6692 Y0.3903  
G01 X-3.6686 Y0.3888  
G01 X-3.6678 Y0.3878  
G01 X-3.6672 Y0.3868  
G01 X-3.6660 Y0.3856  
G01 X-3.4678 Y0.1378  
G01 X-3.4672 Y0.1368  
G01 X-3.4660 Y0.1356  
G01 X-3.4650 Y0.1344  
G01 X-3.4641 Y0.1336  
G01 X-3.4632 Y0.1328  
G01 X-3.4618 Y0.1320  
G01 X-3.4605 Y0.1310  
G01 X-3.4593 Y0.1306  
G01 X-3.4583 Y0.1300  
G01 X-3.4567 Y0.1295  
G01 X-3.4552 Y0.1289  
G01 X-3.4540 Y0.1288  
G01 X-3.4528 Y0.1285  
G01 X-3.4512 Y0.1285  
G01 X-3.4496 Y0.1283  
G01 X-3.4484 Y0.1285  
G01 X-2.9855 Y0.1285  
G01 X-2.9855 Y0.1165  
G01 X-2.9841 Y0.1096  
G01 X-2.9815 Y0.1032  
G01 X-2.9776 Y0.0974  
G01 X-2.9726 Y0.0924  
G01 X-2.9668 Y0.0885  
G01 X-2.9604 Y0.0859  
G01 X-2.9535 Y0.0845  
G01 X-2.9465 Y0.0845  
G01 X-2.9396 Y0.0859  
G01 X-2.9332 Y0.0885  
G01 X-2.9274 Y0.0924  
G01 X-2.9224 Y0.0974  
G01 X-2.9185 Y0.1032  
G01 X-2.9159 Y0.1096  
G01 X-2.9145 Y0.1165  
G01 X-2.9145 Y0.1835  
G01 X-2.9159 Y0.1904  
G01 X-2.9185 Y0.1968  
G01 X-2.9224 Y0.2026  
G01 X-2.9274 Y0.2076  
G00 Z0.0500  
G00 X-2.9729 Y0.6208  
G01 Z-0.0035 F10    
G01 X-2.9677 Y0.6279  F20    
G01 X-2.9637 Y0.6357  
G01 X-2.9610 Y0.6440  
G01 X-2.9597 Y0.6527  
G01 X-2.9597 Y0.6615  
G01 X-2.9610 Y0.6701  
G01 X-2.9637 Y0.6785  
G01 X-2.9677 Y0.6863  
G01 X-2.9729 Y0.6934  
G01 X-2.9791 Y0.6996  
G01 X-2.9862 Y0.7047  
G01 X-2.9940 Y0.7087  
G01 X-3.0023 Y0.7114  
G01 X-3.0110 Y0.7128  
G01 X-3.0197 Y0.7128  
G01 X-3.0284 Y0.7114  
G01 X-3.0367 Y0.7087  
G01 X-3.0445 Y0.7047  
G01 X-3.0516 Y0.6996  
G01 X-3.0578 Y0.6934  
G01 X-3.0630 Y0.6863  
G01 X-3.0670 Y0.6785  
G01 X-3.0697 Y0.6701  
G01 X-3.0711 Y0.6615  
G01 X-3.0711 Y0.6527  
G01 X-3.0697 Y0.6440  
G01 X-3.0670 Y0.6357  
G01 X-3.0630 Y0.6279  
G01 X-3.0578 Y0.6208  
G01 X-3.0516 Y0.6146  
G01 X-3.0445 Y0.6095  
G01 X-3.0367 Y0.6055  
G01 X-3.0284 Y0.6028  
G01 X-3.0197 Y0.6014  
G01 X-3.0110 Y0.6014  
G01 X-3.0023 Y0.6028  
G01 X-2.9940 Y0.6055  
G01 X-2.9862 Y0.6095  
G01 X-2.9791 Y0.6146  
G01 X-2.9729 Y0.6208  
G00 Z0.0500  
G00 X-3.0788 Y0.7233  
G01 Z-0.0035 F10    
G01 X-3.0788 Y0.7767  F20    
G01 X-3.1166 Y0.8146  
G01 X-3.1700 Y0.8146  
G01 X-3.2079 Y0.7767  
G01 X-3.2079 Y0.7233  
G01 X-3.1700 Y0.6854  
G01 X-3.1166 Y0.6854  
G01 X-3.0788 Y0.7233  
G00 Z0.0500  
G00 X-3.3715 Y0.6472  
G01 Z-0.0035 F10    
G01 X-3.3700 Y0.6417  F20    
G01 X-3.3672 Y0.6368  
G01 X-3.3632 Y0.6328  
G01 X-3.3215 Y0.5911  
G01 X-3.3215 Y0.4972  
G01 X-3.3200 Y0.4917  
G01 X-3.3172 Y0.4868  
G01 X-3.3135 Y0.4831  
G01 X-3.3135 Y0.4705  
G01 X-3.3347 Y0.4917  
G01 X-3.3653 Y0.4917  
G01 X-3.3865 Y0.4705  
G01 X-3.3865 Y0.4831  
G01 X-3.3828 Y0.4868  
G01 X-3.3800 Y0.4917  
G01 X-3.3785 Y0.4972  
G01 X-3.3785 Y0.9528  
G01 X-3.3800 Y0.9583  
G01 X-3.3828 Y0.9632  
G01 X-3.3865 Y0.9669  
G01 X-3.3865 Y0.9889  
G01 X-3.3715 Y0.9739  
G01 X-3.3715 Y0.6472  
G00 Z0.0500  
G00 X-3.4921 Y0.7233  
G01 Z-0.0035 F10    
G01 X-3.4921 Y0.7767  F20    
G01 X-3.5300 Y0.8146  
G01 X-3.5834 Y0.8146  
G01 X-3.6212 Y0.7767  
G01 X-3.6212 Y0.7233  
G01 X-3.5834 Y0.6854  
G01 X-3.5300 Y0.6854  
G01 X-3.4921 Y0.7233  
G00 Z0.0500  
G00 X-3.4215 Y0.4972  
G01 Z-0.0035 F10    
G01 X-3.4200 Y0.4917  F20    
G01 X-3.4172 Y0.4868  
G01 X-3.4135 Y0.4831  
G01 X-3.4135 Y0.4721  
G01 X-3.4269 Y0.4855  
G01 X-3.4269 Y0.9739  
G01 X-3.4135 Y0.9873  
G01 X-3.4135 Y0.9669  
G01 X-3.4172 Y0.9632  
G01 X-3.4200 Y0.9583  
G01 X-3.4215 Y0.9528  
G01 X-3.4215 Y0.4972  
G00 Z0.0500  
G00 X-3.4921 Y1.2733  
G01 Z-0.0035 F10    
G01 X-3.4921 Y1.3267  F20    
G01 X-3.5300 Y1.3646  
G01 X-3.5834 Y1.3646  
G01 X-3.6212 Y1.3267  
G01 X-3.6212 Y1.2733  
G01 X-3.5834 Y1.2354  
G01 X-3.5300 Y1.2354  
G01 X-3.4921 Y1.2733  
G00 Z0.0500  
G00 X-3.2079 Y1.2733  
G01 Z-0.0035 F10    
G01 X-3.1700 Y1.2354  F20    
G01 X-3.1166 Y1.2354  
G01 X-3.0788 Y1.2733  
G01 X-3.0788 Y1.3267  
G01 X-3.1166 Y1.3646  
G01 X-3.1700 Y1.3646  
G01 X-3.2079 Y1.3267  
G01 X-3.2079 Y1.2733  
G00 Z0.0500  
G00 X-3.2079 Y1.8233  
G01 Z-0.0035 F10    
G01 X-3.1700 Y1.7854  F20    
G01 X-3.1166 Y1.7854  
G01 X-3.0788 Y1.8233  
G01 X-3.0788 Y1.8767  
G01 X-3.1166 Y1.9146  
G01 X-3.1700 Y1.9146  
G01 X-3.2079 Y1.8767  
G01 X-3.2079 Y1.8233  
G00 Z0.0500  
G00 X-3.4921 Y1.8233  
G01 Z-0.0035 F10    
G01 X-3.4921 Y1.8767  F20    
G01 X-3.5300 Y1.9146  
G01 X-3.5834 Y1.9146  
G01 X-3.6212 Y1.8767  
G01 X-3.6212 Y1.8233  
G01 X-3.5834 Y1.7854  
G01 X-3.5300 Y1.7854  
G01 X-3.4921 Y1.8233  
G00 Z0.0500  
G00 X-3.4921 Y2.3733  
G01 Z-0.0035 F10    
G01 X-3.4921 Y2.4267  F20    
G01 X-3.5300 Y2.4646  
G01 X-3.5834 Y2.4646  
G01 X-3.6212 Y2.4267  
G01 X-3.6212 Y2.3733  
G01 X-3.5834 Y2.3354  
G01 X-3.5300 Y2.3354  
G01 X-3.4921 Y2.3733  
G00 Z0.0500  
G00 X-3.2079 Y2.3733  
G01 Z-0.0035 F10    
G01 X-3.1700 Y2.3354  F20    
G01 X-3.1166 Y2.3354  
G01 X-3.0788 Y2.3733  
G01 X-3.0788 Y2.4267  
G01 X-3.1166 Y2.4646  
G01 X-3.1700 Y2.4646  
G01 X-3.2079 Y2.4267  
G01 X-3.2079 Y2.3733  
G00 Z0.0500  
G00 X-3.0516 Y2.6004  
G01 Z-0.0035 F10    
G01 X-3.0445 Y2.5953  F20    
G01 X-3.0367 Y2.5913  
G01 X-3.0284 Y2.5886  
G01 X-3.0197 Y2.5872  
G01 X-3.0110 Y2.5872  
G01 X-3.0023 Y2.5886  
G01 X-2.9940 Y2.5913  
G01 X-2.9862 Y2.5953  
G01 X-2.9791 Y2.6004  
G01 X-2.9729 Y2.6066  
G01 X-2.9677 Y2.6137  
G01 X-2.9637 Y2.6215  
G01 X-2.9610 Y2.6299  
G01 X-2.9597 Y2.6385  
G01 X-2.9597 Y2.6473  
G01 X-2.9610 Y2.6560  
G01 X-2.9637 Y2.6643  
G01 X-2.9677 Y2.6721  
G01 X-2.9729 Y2.6792  
G01 X-2.9791 Y2.6854  
G01 X-2.9862 Y2.6905  
G01 X-2.9940 Y2.6945  
G01 X-3.0023 Y2.6972  
G01 X-3.0110 Y2.6986  
G01 X-3.0197 Y2.6986  
G01 X-3.0284 Y2.6972  
G01 X-3.0367 Y2.6945  
G01 X-3.0445 Y2.6905  
G01 X-3.0516 Y2.6854  
G01 X-3.0578 Y2.6792  
G01 X-3.0630 Y2.6721  
G01 X-3.0670 Y2.6643  
G01 X-3.0697 Y2.6560  
G01 X-3.0711 Y2.6473  
G01 X-3.0711 Y2.6385  
G01 X-3.0697 Y2.6299  
G01 X-3.0670 Y2.6215  
G01 X-3.0630 Y2.6137  
G01 X-3.0578 Y2.6066  
G01 X-3.0516 Y2.6004  
G00 Z0.0500  
G00 X-2.7403 Y2.6001  
G01 Z-0.0035 F10    
G01 X-2.7403 Y2.5913  F20    
G01 X-2.7390 Y2.5826  
G01 X-2.7363 Y2.5743  
G01 X-2.7323 Y2.5665  
G01 X-2.7271 Y2.5594  
G01 X-2.7209 Y2.5532  
G01 X-2.7138 Y2.5480  
G01 X-2.7060 Y2.5441  
G01 X-2.6977 Y2.5413  
G01 X-2.6890 Y2.5400  
G01 X-2.6803 Y2.5400  
G01 X-2.6716 Y2.5413  
G01 X-2.6633 Y2.5441  
G01 X-2.6555 Y2.5480  
G01 X-2.6484 Y2.5532  
G01 X-2.6422 Y2.5594  
G01 X-2.6370 Y2.5665  
G01 X-2.6330 Y2.5743  
G01 X-2.6303 Y2.5826  
G01 X-2.6289 Y2.5913  
G01 X-2.6289 Y2.6001  
G01 X-2.6303 Y2.6087  
G01 X-2.6330 Y2.6170  
G01 X-2.6370 Y2.6249  
G01 X-2.6422 Y2.6320  
G01 X-2.6484 Y2.6382  
G01 X-2.6555 Y2.6433  
G01 X-2.6633 Y2.6473  
G01 X-2.6716 Y2.6500  
G01 X-2.6803 Y2.6514  
G01 X-2.6890 Y2.6514  
G01 X-2.6977 Y2.6500  
G01 X-2.7060 Y2.6473  
G01 X-2.7138 Y2.6433  
G01 X-2.7209 Y2.6382  
G01 X-2.7271 Y2.6320  
G01 X-2.7323 Y2.6249  
G01 X-2.7363 Y2.6170  
G01 X-2.7390 Y2.6087  
G01 X-2.7403 Y2.6001  
G00 Z0.0500  
G00 X-2.5516 Y2.6004  
G01 Z-0.0035 F10    
G01 X-2.5445 Y2.5953  F20    
G01 X-2.5367 Y2.5913  
G01 X-2.5284 Y2.5886  
G01 X-2.5197 Y2.5872  
G01 X-2.5110 Y2.5872  
G01 X-2.5023 Y2.5886  
G01 X-2.4940 Y2.5913  
G01 X-2.4862 Y2.5953  
G01 X-2.4791 Y2.6004  
G01 X-2.4729 Y2.6066  
G01 X-2.4677 Y2.6137  
G01 X-2.4637 Y2.6215  
G01 X-2.4610 Y2.6299  
G01 X-2.4597 Y2.6385  
G01 X-2.4597 Y2.6473  
G01 X-2.4610 Y2.6560  
G01 X-2.4637 Y2.6643  
G01 X-2.4677 Y2.6721  
G01 X-2.4729 Y2.6792  
G01 X-2.4791 Y2.6854  
G01 X-2.4862 Y2.6905  
G01 X-2.4940 Y2.6945  
G01 X-2.5023 Y2.6972  
G01 X-2.5110 Y2.6986  
G01 X-2.5197 Y2.6986  
G01 X-2.5284 Y2.6972  
G01 X-2.5367 Y2.6945  
G01 X-2.5445 Y2.6905  
G01 X-2.5516 Y2.6854  
G01 X-2.5578 Y2.6792  
G01 X-2.5630 Y2.6721  
G01 X-2.5670 Y2.6643  
G01 X-2.5697 Y2.6560  
G01 X-2.5711 Y2.6473  
G01 X-2.5711 Y2.6385  
G01 X-2.5697 Y2.6299  
G01 X-2.5670 Y2.6215  
G01 X-2.5630 Y2.6137  
G01 X-2.5578 Y2.6066  
G01 X-2.5516 Y2.6004  
G00 Z0.0500  
G00 X-2.2403 Y2.6001  
G01 Z-0.0035 F10    
G01 X-2.2403 Y2.5913  F20    
G01 X-2.2390 Y2.5826  
G01 X-2.2363 Y2.5743  
G01 X-2.2323 Y2.5665  
G01 X-2.2271 Y2.5594  
G01 X-2.2209 Y2.5532  
G01 X-2.2138 Y2.5480  
G01 X-2.2060 Y2.5441  
G01 X-2.1977 Y2.5413  
G01 X-2.1890 Y2.5400  
G01 X-2.1803 Y2.5400  
G01 X-2.1716 Y2.5413  
G01 X-2.1633 Y2.5441  
G01 X-2.1555 Y2.5480  
G01 X-2.1484 Y2.5532  
G01 X-2.1422 Y2.5594  
G01 X-2.1370 Y2.5665  
G01 X-2.1330 Y2.5743  
G01 X-2.1303 Y2.5826  
G01 X-2.1289 Y2.5913  
G01 X-2.1289 Y2.6001  
G01 X-2.1303 Y2.6087  
G01 X-2.1330 Y2.6170  
G01 X-2.1370 Y2.6249  
G01 X-2.1422 Y2.6320  
G01 X-2.1484 Y2.6382  
G01 X-2.1555 Y2.6433  
G01 X-2.1633 Y2.6473  
G01 X-2.1716 Y2.6500  
G01 X-2.1803 Y2.6514  
G01 X-2.1890 Y2.6514  
G01 X-2.1977 Y2.6500  
G01 X-2.2060 Y2.6473  
G01 X-2.2138 Y2.6433  
G01 X-2.2209 Y2.6382  
G01 X-2.2271 Y2.6320  
G01 X-2.2323 Y2.6249  
G01 X-2.2363 Y2.6170  
G01 X-2.2390 Y2.6087  
G01 X-2.2403 Y2.6001  
G00 Z0.0500  
G00 X-1.5516 Y2.6004  
G01 Z-0.0035 F10    
G01 X-1.5445 Y2.5953  F20    
G01 X-1.5367 Y2.5913  
G01 X-1.5284 Y2.5886  
G01 X-1.5197 Y2.5872  
G01 X-1.5110 Y2.5872  
G01 X-1.5023 Y2.5886  
G01 X-1.4940 Y2.5913  
G01 X-1.4862 Y2.5953  
G01 X-1.4791 Y2.6004  
G01 X-1.4729 Y2.6066  
G01 X-1.4677 Y2.6137  
G01 X-1.4637 Y2.6215  
G01 X-1.4610 Y2.6299  
G01 X-1.4597 Y2.6385  
G01 X-1.4597 Y2.6473  
G01 X-1.4610 Y2.6560  
G01 X-1.4637 Y2.6643  
G01 X-1.4677 Y2.6721  
G01 X-1.4729 Y2.6792  
G01 X-1.4791 Y2.6854  
G01 X-1.4862 Y2.6905  
G01 X-1.4940 Y2.6945  
G01 X-1.5023 Y2.6972  
G01 X-1.5110 Y2.6986  
G01 X-1.5197 Y2.6986  
G01 X-1.5284 Y2.6972  
G01 X-1.5367 Y2.6945  
G01 X-1.5445 Y2.6905  
G01 X-1.5516 Y2.6854  
G01 X-1.5578 Y2.6792  
G01 X-1.5630 Y2.6721  
G01 X-1.5670 Y2.6643  
G01 X-1.5697 Y2.6560  
G01 X-1.5711 Y2.6473  
G01 X-1.5711 Y2.6385  
G01 X-1.5697 Y2.6299  
G01 X-1.5670 Y2.6215  
G01 X-1.5630 Y2.6137  
G01 X-1.5578 Y2.6066  
G01 X-1.5516 Y2.6004  
G00 Z0.0500  
G00 X-1.2403 Y2.6001  
G01 Z-0.0035 F10    
G01 X-1.2403 Y2.5913  F20    
G01 X-1.2390 Y2.5826  
G01 X-1.2363 Y2.5743  
G01 X-1.2323 Y2.5665  
G01 X-1.2271 Y2.5594  
G01 X-1.2209 Y2.5532  
G01 X-1.2138 Y2.5480  
G01 X-1.2060 Y2.5441  
G01 X-1.1977 Y2.5413  
G01 X-1.1890 Y2.5400  
G01 X-1.1803 Y2.5400  
G01 X-1.1716 Y2.5413  
G01 X-1.1633 Y2.5441  
G01 X-1.1555 Y2.5480  
G01 X-1.1484 Y2.5532  
G01 X-1.1422 Y2.5594  
G01 X-1.1370 Y2.5665  
G01 X-1.1330 Y2.5743  
G01 X-1.1303 Y2.5826  
G01 X-1.1289 Y2.5913  
G01 X-1.1289 Y2.6001  
G01 X-1.1303 Y2.6087  
G01 X-1.1330 Y2.6170  
G01 X-1.1370 Y2.6249  
G01 X-1.1422 Y2.6320  
G01 X-1.1484 Y2.6382  
G01 X-1.1555 Y2.6433  
G01 X-1.1633 Y2.6473  
G01 X-1.1716 Y2.6500  
G01 X-1.1803 Y2.6514  
G01 X-1.1890 Y2.6514  
G01 X-1.1977 Y2.6500  
G01 X-1.2060 Y2.6473  
G01 X-1.2138 Y2.6433  
G01 X-1.2209 Y2.6382  
G01 X-1.2271 Y2.6320  
G01 X-1.2323 Y2.6249  
G01 X-1.2363 Y2.6170  
G01 X-1.2390 Y2.6087  
G01 X-1.2403 Y2.6001  
G00 Z0.0500  
G00 X-1.0516 Y2.6004  
G01 Z-0.0035 F10    
G01 X-1.0445 Y2.5953  F20    
G01 X-1.0367 Y2.5913  
G01 X-1.0284 Y2.5886  
G01 X-1.0197 Y2.5872  
G01 X-1.0110 Y2.5872  
G01 X-1.0023 Y2.5886  
G01 X-0.9940 Y2.5913  
G01 X-0.9862 Y2.5953  
G01 X-0.9791 Y2.6004  
G01 X-0.9729 Y2.6066  
G01 X-0.9677 Y2.6137  
G01 X-0.9637 Y2.6215  
G01 X-0.9610 Y2.6299  
G01 X-0.9597 Y2.6385  
G01 X-0.9597 Y2.6473  
G01 X-0.9610 Y2.6560  
G01 X-0.9637 Y2.6643  
G01 X-0.9677 Y2.6721  
G01 X-0.9729 Y2.6792  
G01 X-0.9791 Y2.6854  
G01 X-0.9862 Y2.6905  
G01 X-0.9940 Y2.6945  
G01 X-1.0023 Y2.6972  
G01 X-1.0110 Y2.6986  
G01 X-1.0197 Y2.6986  
G01 X-1.0284 Y2.6972  
G01 X-1.0367 Y2.6945  
G01 X-1.0445 Y2.6905  
G01 X-1.0516 Y2.6854  
G01 X-1.0578 Y2.6792  
G01 X-1.0630 Y2.6721  
G01 X-1.0670 Y2.6643  
G01 X-1.0697 Y2.6560  
G01 X-1.0711 Y2.6473  
G01 X-1.0711 Y2.6385  
G01 X-1.0697 Y2.6299  
G01 X-1.0670 Y2.6215  
G01 X-1.0630 Y2.6137  
G01 X-1.0578 Y2.6066  
G01 X-1.0516 Y2.6004  
G00 Z0.0500  
G00 X-0.7403 Y2.6001  
G01 Z-0.0035 F10    
G01 X-0.7403 Y2.5913  F20    
G01 X-0.7390 Y2.5826  
G01 X-0.7363 Y2.5743  
G01 X-0.7323 Y2.5665  
G01 X-0.7271 Y2.5594  
G01 X-0.7209 Y2.5532  
G01 X-0.7138 Y2.5480  
G01 X-0.7060 Y2.5441  
G01 X-0.6977 Y2.5413  
G01 X-0.6890 Y2.5400  
G01 X-0.6803 Y2.5400  
G01 X-0.6716 Y2.5413  
G01 X-0.6633 Y2.5441  
G01 X-0.6555 Y2.5480  
G01 X-0.6484 Y2.5532  
G01 X-0.6422 Y2.5594  
G01 X-0.6370 Y2.5665  
G01 X-0.6330 Y2.5743  
G01 X-0.6303 Y2.5826  
G01 X-0.6289 Y2.5913  
G01 X-0.6289 Y2.6001  
G01 X-0.6303 Y2.6087  
G01 X-0.6330 Y2.6170  
G01 X-0.6370 Y2.6249  
G01 X-0.6422 Y2.6320  
G01 X-0.6484 Y2.6382  
G01 X-0.6555 Y2.6433  
G01 X-0.6633 Y2.6473  
G01 X-0.6716 Y2.6500  
G01 X-0.6803 Y2.6514  
G01 X-0.6890 Y2.6514  
G01 X-0.6977 Y2.6500  
G01 X-0.7060 Y2.6473  
G01 X-0.7138 Y2.6433  
G01 X-0.7209 Y2.6382  
G01 X-0.7271 Y2.6320  
G01 X-0.7323 Y2.6249  
G01 X-0.7363 Y2.6170  
G01 X-0.7390 Y2.6087  
G01 X-0.7403 Y2.6001  
G00 Z0.0500  
G00 X-0.6212 Y1.8767  
G01 Z-0.0035 F10    
G01 X-0.6212 Y1.8233  F20    
G01 X-0.5834 Y1.7854  
G01 X-0.5300 Y1.7854  
G01 X-0.4921 Y1.8233  
G01 X-0.4921 Y1.8767  
G01 X-0.5300 Y1.9146  
G01 X-0.5834 Y1.9146  
G01 X-0.6212 Y1.8767  
G00 Z0.0500  
G00 X-0.2079 Y1.8767  
G01 Z-0.0035 F10    
G01 X-0.2079 Y1.8233  F20    
G01 X-0.1700 Y1.7854  
G01 X-0.1166 Y1.7854  
G01 X-0.0788 Y1.8233  
G01 X-0.0788 Y1.8767  
G01 X-0.1166 Y1.9146  
G01 X-0.1700 Y1.9146  
G01 X-0.2079 Y1.8767  
G00 Z0.0500  
G00 X-0.2079 Y1.3267  
G01 Z-0.0035 F10    
G01 X-0.2079 Y1.2733  F20    
G01 X-0.1700 Y1.2354  
G01 X-0.1166 Y1.2354  
G01 X-0.0788 Y1.2733  
G01 X-0.0788 Y1.3267  
G01 X-0.1166 Y1.3646  
G01 X-0.1700 Y1.3646  
G01 X-0.2079 Y1.3267  
G00 Z0.0500  
G00 X-0.4921 Y1.3267  
G01 Z-0.0035 F10    
G01 X-0.5300 Y1.3646  F20    
G01 X-0.5834 Y1.3646  
G01 X-0.6212 Y1.3267  
G01 X-0.6212 Y1.2733  
G01 X-0.5834 Y1.2354  
G01 X-0.5300 Y1.2354  
G01 X-0.4921 Y1.2733  
G01 X-0.4921 Y1.3267  
G00 Z0.0500  
G00 X-0.2079 Y0.7767  
G01 Z-0.0035 F10    
G01 X-0.2079 Y0.7233  F20    
G01 X-0.1700 Y0.6854  
G01 X-0.1166 Y0.6854  
G01 X-0.0788 Y0.7233  
G01 X-0.0788 Y0.7767  
G01 X-0.1166 Y0.8146  
G01 X-0.1700 Y0.8146  
G01 X-0.2079 Y0.7767  
G00 Z0.0500  
G00 X-1.5788 Y1.2733  
G01 Z-0.0035 F10    
G01 X-1.5788 Y1.3267  F20    
G01 X-1.6166 Y1.3646  
G01 X-1.6700 Y1.3646  
G01 X-1.7079 Y1.3267  
G01 X-1.7079 Y1.2733  
G01 X-1.6700 Y1.2354  
G01 X-1.6166 Y1.2354  
G01 X-1.5788 Y1.2733  
G00 Z0.0500  
G00 X-1.9921 Y1.2733  
G01 Z-0.0035 F10    
G01 X-1.9921 Y1.3267  F20    
G01 X-2.0300 Y1.3646  
G01 X-2.0834 Y1.3646  
G01 X-2.1212 Y1.3267  
G01 X-2.1212 Y1.2733  
G01 X-2.0834 Y1.2354  
G01 X-2.0300 Y1.2354  
G01 X-1.9921 Y1.2733  
G00 Z0.0500  
G00 X-1.9135 Y0.9873  
G01 Z-0.0035 F10    
G01 X-1.9135 Y0.9669  F20    
G01 X-1.9172 Y0.9632  
G01 X-1.9200 Y0.9583  
G01 X-1.9215 Y0.9528  
G01 X-1.9215 Y0.4972  
G01 X-1.9200 Y0.4917  
G01 X-1.9172 Y0.4868  
G01 X-1.9135 Y0.4831  
G01 X-1.9135 Y0.4721  
G01 X-1.9269 Y0.4855  
G01 X-1.9269 Y0.9739  
G01 X-1.9135 Y0.9873  
G00 Z0.0500  
G00 X-1.9921 Y1.8233  
G01 Z-0.0035 F10    
G01 X-1.9921 Y1.8767  F20    
G01 X-2.0300 Y1.9146  
G01 X-2.0834 Y1.9146  
G01 X-2.1212 Y1.8767  
G01 X-2.1212 Y1.8233  
G01 X-2.0834 Y1.7854  
G01 X-2.0300 Y1.7854  
G01 X-1.9921 Y1.8233  
G00 Z0.0500  
G00 X-1.7079 Y1.8233  
G01 Z-0.0035 F10    
G01 X-1.6700 Y1.7854  F20    
G01 X-1.6166 Y1.7854  
G01 X-1.5788 Y1.8233  
G01 X-1.5788 Y1.8767  
G01 X-1.6166 Y1.9146  
G01 X-1.6700 Y1.9146  
G01 X-1.7079 Y1.8767  
G01 X-1.7079 Y1.8233  
G00 Z0.0500  
G00 X-0.2814 Y0.2347  
G01 Z-0.0035 F10    
G01 X-0.2787 Y0.2386  F20    
G01 X-0.2769 Y0.2430  
G01 X-0.2760 Y0.2476  
G01 X-0.2760 Y0.4024  
G01 X-0.2769 Y0.4070  
G01 X-0.2787 Y0.4114  
G01 X-0.2814 Y0.4153  
G01 X-0.2840 Y0.4179  
G01 X-0.2840 Y0.4313  
G01 X-0.2679 Y0.4152  
G01 X-0.2352 Y0.4152  
G01 X-0.2121 Y0.4384  
G01 X-0.2121 Y0.4711  
G01 X-0.2276 Y0.4866  
G01 X-0.2276 Y0.9729  
G01 X-0.2121 Y0.9884  
G01 X-0.2121 Y1.0211  
G01 X-0.2276 Y1.0366  
G01 X-0.2276 Y1.5229  
G01 X-0.2121 Y1.5384  
G01 X-0.2121 Y1.5711  
G01 X-0.2260 Y1.5850  
G01 X-0.2260 Y1.6024  
G01 X-0.2269 Y1.6070  
G01 X-0.2287 Y1.6114  
G01 X-0.2314 Y1.6153  
G01 X-0.2347 Y1.6186  
G01 X-0.2760 Y1.6599  
G01 X-0.2760 Y1.8401  
G01 X-0.1420 Y1.9741  
G01 X-0.1394 Y1.9780  
G01 X-0.1376 Y1.9824  
G01 X-0.1366 Y1.9870  
G01 X-0.1366 Y2.1683  
G01 X-0.1247 Y2.1683  
G01 X-0.1217 Y2.1695  
G01 X-0.1195 Y2.1717  
G01 X-0.1183 Y2.1747  
G01 X-0.1183 Y2.2253  
G01 X-0.1195 Y2.2283  
G01 X-0.1217 Y2.2305  
G01 X-0.1247 Y2.2317  
G01 X-0.1366 Y2.2317  
G01 X-0.1366 Y2.5735  
G01 X-0.1329 Y2.5772  
G01 X-0.1290 Y2.5831  
G01 X-0.1263 Y2.5896  
G01 X-0.1249 Y2.5965  
G01 X-0.1249 Y2.6035  
G01 X-0.1263 Y2.6104  
G01 X-0.1290 Y2.6169  
G01 X-0.1329 Y2.6228  
G01 X-0.1366 Y2.6265  
G01 X-0.1366 Y2.7235  
G01 X-0.1329 Y2.7272  
G01 X-0.1290 Y2.7331  
G01 X-0.1263 Y2.7396  
G01 X-0.1249 Y2.7465  
G01 X-0.1249 Y2.7535  
G01 X-0.1263 Y2.7604  
G01 X-0.1290 Y2.7669  
G01 X-0.1329 Y2.7728  
G01 X-0.1379 Y2.7777  
G01 X-0.1437 Y2.7817  
G01 X-0.1502 Y2.7843  
G01 X-0.1571 Y2.7857  
G01 X-0.1641 Y2.7857  
G01 X-0.1710 Y2.7843  
G01 X-0.1775 Y2.7817  
G01 X-0.1834 Y2.7777  
G01 X-0.1884 Y2.7728  
G01 X-0.1923 Y2.7669  
G01 X-0.1950 Y2.7604  
G01 X-0.1963 Y2.7535  
G01 X-0.1963 Y2.7465  
G01 X-0.1950 Y2.7396  
G01 X-0.1923 Y2.7331  
G01 X-0.1884 Y2.7272  
G01 X-0.1846 Y2.7235  
G01 X-0.1846 Y2.6265  
G01 X-0.1884 Y2.6228  
G01 X-0.1923 Y2.6169  
G01 X-0.1950 Y2.6104  
G01 X-0.1963 Y2.6035  
G01 X-0.1963 Y2.5965  
G01 X-0.1950 Y2.5896  
G01 X-0.1923 Y2.5831  
G01 X-0.1884 Y2.5772  
G01 X-0.1846 Y2.5735  
G01 X-0.1846 Y1.9993  
G01 X-0.3153 Y1.8686  
G01 X-0.3186 Y1.8653  
G01 X-0.3213 Y1.8614  
G01 X-0.3231 Y1.8570  
G01 X-0.3240 Y1.8524  
G01 X-0.3240 Y1.6476  
G01 X-0.3231 Y1.6430  
G01 X-0.3213 Y1.6386  
G01 X-0.3186 Y1.6347  
G01 X-0.2740 Y1.5901  
G01 X-0.2740 Y1.5882  
G01 X-0.2911 Y1.5711  
G01 X-0.2911 Y1.5384  
G01 X-0.2756 Y1.5229  
G01 X-0.2756 Y1.0366  
G01 X-0.2911 Y1.0211  
G01 X-0.2911 Y0.9884  
G01 X-0.2756 Y0.9729  
G01 X-0.2756 Y0.4866  
G01 X-0.2840 Y0.4782  
G01 X-0.2840 Y0.4821  
G01 X-0.2814 Y0.4847  
G01 X-0.2787 Y0.4886  
G01 X-0.2769 Y0.4930  
G01 X-0.2760 Y0.4976  
G01 X-0.2760 Y0.5991  
G01 X-0.2759 Y0.6007  
G01 X-0.2760 Y0.6015  
G01 X-0.2760 Y0.6024  
G01 X-0.2763 Y0.6038  
G01 X-0.2765 Y0.6053  
G01 X-0.2768 Y0.6062  
G01 X-0.2769 Y0.6070  
G01 X-0.2775 Y0.6084  
G01 X-0.3260 Y0.7539  
G01 X-0.3260 Y0.9729  
G01 X-0.3105 Y0.9884  
G01 X-0.3105 Y1.0211  
G01 X-0.3336 Y1.0442  
G01 X-0.3664 Y1.0442  
G01 X-0.3840 Y1.0266  
G01 X-0.3840 Y1.0321  
G01 X-0.3814 Y1.0347  
G01 X-0.3787 Y1.0386  
G01 X-0.3769 Y1.0430  
G01 X-0.3760 Y1.0476  
G01 X-0.3760 Y1.0970  
G01 X-0.3271 Y1.2925  
G01 X-0.3269 Y1.2930  
G01 X-0.3266 Y1.2947  
G01 X-0.3261 Y1.2965  
G01 X-0.3261 Y1.2971  
G01 X-0.3260 Y1.2976  
G01 X-0.3260 Y1.2994  
G01 X-0.3259 Y1.3012  
G01 X-0.3260 Y1.3018  
G01 X-0.3260 Y1.5229  
G01 X-0.3105 Y1.5384  
G01 X-0.3105 Y1.5711  
G01 X-0.3336 Y1.5942  
G01 X-0.3664 Y1.5942  
G01 X-0.3895 Y1.5711  
G01 X-0.3895 Y1.5384  
G01 X-0.3740 Y1.5229  
G01 X-0.3740 Y1.3030  
G01 X-0.4229 Y1.1075  
G01 X-0.4231 Y1.1070  
G01 X-0.4234 Y1.1053  
G01 X-0.4239 Y1.1035  
G01 X-0.4239 Y1.1029  
G01 X-0.4240 Y1.1024  
G01 X-0.4240 Y1.1006  
G01 X-0.4241 Y1.0988  
G01 X-0.4240 Y1.0982  
G01 X-0.4240 Y1.0476  
G01 X-0.4231 Y1.0430  
G01 X-0.4213 Y1.0386  
G01 X-0.4186 Y1.0347  
G01 X-0.4160 Y1.0321  
G01 X-0.4160 Y1.0282  
G01 X-0.4244 Y1.0366  
G01 X-0.4244 Y1.5229  
G01 X-0.4089 Y1.5384  
G01 X-0.4089 Y1.5711  
G01 X-0.4260 Y1.5882  
G01 X-0.4260 Y1.6401  
G01 X-0.3814 Y1.6847  
G01 X-0.3787 Y1.6886  
G01 X-0.3769 Y1.6930  
G01 X-0.3760 Y1.6976  
G01 X-0.3760 Y1.8901  
G01 X-0.2207 Y2.0453  
G01 X-0.2181 Y2.0493  
G01 X-0.2163 Y2.0536  
G01 X-0.2154 Y2.0583  
G01 X-0.2154 Y2.5735  
G01 X-0.2116 Y2.5772  
G01 X-0.2077 Y2.5831  
G01 X-0.2050 Y2.5896  
G01 X-0.2037 Y2.5965  
G01 X-0.2037 Y2.6035  
G01 X-0.2050 Y2.6104  
G01 X-0.2077 Y2.6169  
G01 X-0.2116 Y2.6228  
G01 X-0.2154 Y2.6265  
G01 X-0.2154 Y2.7235  
G01 X-0.2116 Y2.7272  
G01 X-0.2077 Y2.7331  
G01 X-0.2050 Y2.7396  
G01 X-0.2037 Y2.7465  
G01 X-0.2037 Y2.7535  
G01 X-0.2050 Y2.7604  
G01 X-0.2077 Y2.7669  
G01 X-0.2116 Y2.7728  
G01 X-0.2166 Y2.7777  
G01 X-0.2225 Y2.7817  
G01 X-0.2290 Y2.7843  
G01 X-0.2359 Y2.7857  
G01 X-0.2411 Y2.7857  
G01 X-0.2804 Y2.8249  
G01 X-0.2843 Y2.8276  
G01 X-0.2887 Y2.8294  
G01 X-0.2933 Y2.8303  
G01 X-0.7361 Y2.8303  
G01 X-0.7375 Y2.8330  
G01 X-0.7422 Y2.8395  
G01 X-0.7479 Y2.8452  
G01 X-0.7544 Y2.8499  
G01 X-0.7615 Y2.8536  
G01 X-0.7692 Y2.8560  
G01 X-0.7771 Y2.8573  
G01 X-0.7851 Y2.8573  
G01 X-0.7930 Y2.8560  
G01 X-0.8007 Y2.8536  
G01 X-0.8078 Y2.8499  
G01 X-0.8143 Y2.8452  
G01 X-0.8200 Y2.8395  
G01 X-0.8247 Y2.8330  
G01 X-0.8261 Y2.8303  
G01 X-1.2361 Y2.8303  
G01 X-1.2375 Y2.8330  
G01 X-1.2422 Y2.8395  
G01 X-1.2479 Y2.8452  
G01 X-1.2544 Y2.8499  
G01 X-1.2615 Y2.8536  
G01 X-1.2692 Y2.8560  
G01 X-1.2771 Y2.8573  
G01 X-1.2851 Y2.8573  
G01 X-1.2930 Y2.8560  
G01 X-1.3007 Y2.8536  
G01 X-1.3078 Y2.8499  
G01 X-1.3143 Y2.8452  
G01 X-1.3200 Y2.8395  
G01 X-1.3247 Y2.8330  
G01 X-1.3261 Y2.8303  
G01 X-2.2361 Y2.8303  
G01 X-2.2375 Y2.8330  
G01 X-2.2422 Y2.8395  
G01 X-2.2479 Y2.8452  
G01 X-2.2544 Y2.8499  
G01 X-2.2615 Y2.8536  
G01 X-2.2692 Y2.8560  
G01 X-2.2771 Y2.8573  
G01 X-2.2851 Y2.8573  
G01 X-2.2930 Y2.8560  
G01 X-2.3007 Y2.8536  
G01 X-2.3078 Y2.8499  
G01 X-2.3143 Y2.8452  
G01 X-2.3200 Y2.8395  
G01 X-2.3247 Y2.8330  
G01 X-2.3261 Y2.8303  
G01 X-2.7361 Y2.8303  
G01 X-2.7375 Y2.8330  
G01 X-2.7422 Y2.8395  
G01 X-2.7479 Y2.8452  
G01 X-2.7544 Y2.8499  
G01 X-2.7615 Y2.8536  
G01 X-2.7692 Y2.8560  
G01 X-2.7771 Y2.8573  
G01 X-2.7851 Y2.8573  
G01 X-2.7930 Y2.8560  
G01 X-2.8007 Y2.8536  
G01 X-2.8078 Y2.8499  
G01 X-2.8143 Y2.8452  
G01 X-2.8200 Y2.8395  
G01 X-2.8247 Y2.8330  
G01 X-2.8284 Y2.8259  
G01 X-2.8290 Y2.8240  
G01 X-3.1024 Y2.8240  
G01 X-3.1070 Y2.8231  
G01 X-3.1114 Y2.8213  
G01 X-3.1153 Y2.8186  
G01 X-3.1186 Y2.8153  
G01 X-3.2522 Y2.6817  
G01 X-3.2753 Y2.6817  
G01 X-3.2783 Y2.6805  
G01 X-3.2805 Y2.6783  
G01 X-3.2817 Y2.6753  
G01 X-3.2817 Y2.6247  
G01 X-3.2805 Y2.6217  
G01 X-3.2783 Y2.6195  
G01 X-3.2753 Y2.6183  
G01 X-3.2247 Y2.6183  
G01 X-3.2217 Y2.6195  
G01 X-3.2195 Y2.6217  
G01 X-3.2183 Y2.6247  
G01 X-3.2183 Y2.6478  
G01 X-3.0901 Y2.7760  
G01 X-2.8221 Y2.7760  
G01 X-2.8200 Y2.7731  
G01 X-2.8143 Y2.7674  
G01 X-2.8078 Y2.7627  
G01 X-2.8007 Y2.7590  
G01 X-2.7930 Y2.7566  
G01 X-2.7851 Y2.7553  
G01 X-2.7771 Y2.7553  
G01 X-2.7692 Y2.7566  
G01 X-2.7615 Y2.7590  
G01 X-2.7544 Y2.7627  
G01 X-2.7479 Y2.7674  
G01 X-2.7422 Y2.7731  
G01 X-2.7375 Y2.7796  
G01 X-2.7361 Y2.7823  
G01 X-2.3261 Y2.7823  
G01 X-2.3247 Y2.7796  
G01 X-2.3200 Y2.7731  
G01 X-2.3143 Y2.7674  
G01 X-2.3078 Y2.7627  
G01 X-2.3007 Y2.7590  
G01 X-2.2930 Y2.7566  
G01 X-2.2851 Y2.7553  
G01 X-2.2771 Y2.7553  
G01 X-2.2692 Y2.7566  
G01 X-2.2615 Y2.7590  
G01 X-2.2544 Y2.7627  
G01 X-2.2479 Y2.7674  
G01 X-2.2422 Y2.7731  
G01 X-2.2375 Y2.7796  
G01 X-2.2361 Y2.7823  
G01 X-1.9570 Y2.7823  
G01 X-1.9554 Y2.7816  
G01 X-1.9508 Y2.7807  
G01 X-1.9461 Y2.7807  
G01 X-1.9414 Y2.7816  
G01 X-1.9398 Y2.7823  
G01 X-1.3261 Y2.7823  
G01 X-1.3247 Y2.7796  
G01 X-1.3200 Y2.7731  
G01 X-1.3143 Y2.7674  
G01 X-1.3078 Y2.7627  
G01 X-1.3007 Y2.7590  
G01 X-1.2930 Y2.7566  
G01 X-1.2851 Y2.7553  
G01 X-1.2771 Y2.7553  
G01 X-1.2692 Y2.7566  
G01 X-1.2615 Y2.7590  
G01 X-1.2544 Y2.7627  
G01 X-1.2479 Y2.7674  
G01 X-1.2422 Y2.7731  
G01 X-1.2375 Y2.7796  
G01 X-1.2361 Y2.7823  
G01 X-0.8261 Y2.7823  
G01 X-0.8247 Y2.7796  
G01 X-0.8200 Y2.7731  
G01 X-0.8143 Y2.7674  
G01 X-0.8078 Y2.7627  
G01 X-0.8007 Y2.7590  
G01 X-0.7930 Y2.7566  
G01 X-0.7851 Y2.7553  
G01 X-0.7771 Y2.7553  
G01 X-0.7692 Y2.7566  
G01 X-0.7615 Y2.7590  
G01 X-0.7544 Y2.7627  
G01 X-0.7479 Y2.7674  
G01 X-0.7422 Y2.7731  
G01 X-0.7375 Y2.7796  
G01 X-0.7361 Y2.7823  
G01 X-0.3056 Y2.7823  
G01 X-0.2751 Y2.7518  
G01 X-0.2751 Y2.7465  
G01 X-0.2737 Y2.7396  
G01 X-0.2710 Y2.7331  
G01 X-0.2671 Y2.7272  
G01 X-0.2634 Y2.7235  
G01 X-0.2634 Y2.6265  
G01 X-0.2671 Y2.6228  
G01 X-0.2710 Y2.6169  
G01 X-0.2737 Y2.6104  
G01 X-0.2751 Y2.6035  
G01 X-0.2751 Y2.5965  
G01 X-0.2737 Y2.5896  
G01 X-0.2710 Y2.5831  
G01 X-0.2671 Y2.5772  
G01 X-0.2634 Y2.5735  
G01 X-0.2634 Y2.1240  
G01 X-1.7524 Y2.1240  
G01 X-1.7570 Y2.1231  
G01 X-1.7614 Y2.1213  
G01 X-1.7653 Y2.1186  
G01 X-1.7686 Y2.1153  
G01 X-1.9671 Y1.9169  
G01 X-1.9697 Y1.9129  
G01 X-1.9715 Y1.9086  
G01 X-1.9724 Y1.9039  
G01 X-1.9724 Y1.5866  
G01 X-1.9879 Y1.5711  
G01 X-1.9879 Y1.5384  
G01 X-1.9724 Y1.5229  
G01 X-1.9724 Y1.0366  
G01 X-1.9879 Y1.0211  
G01 X-1.9879 Y0.9884  
G01 X-1.9724 Y0.9729  
G01 X-1.9724 Y0.4866  
G01 X-1.9879 Y0.4711  
G01 X-1.9879 Y0.4384  
G01 X-1.9648 Y0.4152  
G01 X-1.9321 Y0.4152  
G01 X-1.9160 Y0.4313  
G01 X-1.9160 Y0.4179  
G01 X-2.1599 Y0.1740  
G01 X-2.3120 Y0.1740  
G01 X-2.3120 Y0.1837  
G01 X-2.3135 Y0.1911  
G01 X-2.3163 Y0.1980  
G01 X-2.3205 Y0.2042  
G01 X-2.3258 Y0.2095  
G01 X-2.3320 Y0.2137  
G01 X-2.3389 Y0.2165  
G01 X-2.3463 Y0.2180  
G01 X-2.3537 Y0.2180  
G01 X-2.3611 Y0.2165  
G01 X-2.3680 Y0.2137  
G01 X-2.3742 Y0.2095  
G01 X-2.3795 Y0.2042  
G01 X-2.3837 Y0.1980  
G01 X-2.3865 Y0.1911  
G01 X-2.3880 Y0.1837  
G01 X-2.3880 Y0.1163  
G01 X-2.3865 Y0.1089  
G01 X-2.3837 Y0.1020  
G01 X-2.3795 Y0.0958  
G01 X-2.3742 Y0.0905  
G01 X-2.3680 Y0.0863  
G01 X-2.3611 Y0.0835  
G01 X-2.3537 Y0.0820  
G01 X-2.3463 Y0.0820  
G01 X-2.3389 Y0.0835  
G01 X-2.3320 Y0.0863  
G01 X-2.3258 Y0.0905  
G01 X-2.3205 Y0.0958  
G01 X-2.3163 Y0.1020  
G01 X-2.3135 Y0.1089  
G01 X-2.3120 Y0.1163  
G01 X-2.3120 Y0.1260  
G01 X-2.1476 Y0.1260  
G01 X-2.1430 Y0.1269  
G01 X-2.1386 Y0.1287  
G01 X-2.1347 Y0.1314  
G01 X-2.1314 Y0.1347  
G01 X-1.8814 Y0.3847  
G01 X-1.8787 Y0.3886  
G01 X-1.8769 Y0.3930  
G01 X-1.8760 Y0.3976  
G01 X-1.8760 Y0.4024  
G01 X-1.8769 Y0.4070  
G01 X-1.8787 Y0.4114  
G01 X-1.8814 Y0.4153  
G01 X-1.8840 Y0.4179  
G01 X-1.8840 Y0.4329  
G01 X-1.8740 Y0.4229  
G01 X-1.8740 Y0.3476  
G01 X-1.8731 Y0.3430  
G01 X-1.8713 Y0.3386  
G01 X-1.8686 Y0.3347  
G01 X-1.6686 Y0.1347  
G01 X-1.6653 Y0.1314  
G01 X-1.6614 Y0.1287  
G01 X-1.6570 Y0.1269  
G01 X-1.6524 Y0.1260  
G01 X-1.4380 Y0.1260  
G01 X-1.4380 Y0.1163  
G01 X-1.4365 Y0.1089  
G01 X-1.4337 Y0.1020  
G01 X-1.4295 Y0.0958  
G01 X-1.4242 Y0.0905  
G01 X-1.4180 Y0.0863  
G01 X-1.4111 Y0.0835  
G01 X-1.4037 Y0.0820  
G01 X-1.3963 Y0.0820  
G01 X-1.3889 Y0.0835  
G01 X-1.3820 Y0.0863  
G01 X-1.3758 Y0.0905  
G01 X-1.3705 Y0.0958  
G01 X-1.3663 Y0.1020  
G01 X-1.3635 Y0.1089  
G01 X-1.3620 Y0.1163  
G01 X-1.3620 Y0.1837  
G01 X-1.3635 Y0.1911  
G01 X-1.3663 Y0.1980  
G01 X-1.3705 Y0.2042  
G01 X-1.3758 Y0.2095  
G01 X-1.3820 Y0.2137  
G01 X-1.3889 Y0.2165  
G01 X-1.3963 Y0.2180  
G01 X-1.4037 Y0.2180  
G01 X-1.4111 Y0.2165  
G01 X-1.4180 Y0.2137  
G01 X-1.4242 Y0.2095  
G01 X-1.4295 Y0.2042  
G01 X-1.4337 Y0.1980  
G01 X-1.4365 Y0.1911  
G01 X-1.4380 Y0.1837  
G01 X-1.4380 Y0.1740  
G01 X-1.6401 Y0.1740  
G01 X-1.8260 Y0.3599  
G01 X-1.8260 Y0.4229  
G01 X-1.8160 Y0.4329  
G01 X-1.8160 Y0.4179  
G01 X-1.8186 Y0.4153  
G01 X-1.8213 Y0.4114  
G01 X-1.8231 Y0.4070  
G01 X-1.8240 Y0.4024  
G01 X-1.8240 Y0.3976  
G01 X-1.8231 Y0.3930  
G01 X-1.8213 Y0.3886  
G01 X-1.8186 Y0.3847  
G01 X-1.7186 Y0.2847  
G01 X-1.7153 Y0.2814  
G01 X-1.7114 Y0.2787  
G01 X-1.7070 Y0.2769  
G01 X-1.7024 Y0.2760  
G01 X-1.3599 Y0.2760  
G01 X-1.3240 Y0.2401  
G01 X-1.3240 Y0.2097  
G01 X-1.3242 Y0.2095  
G01 X-1.3295 Y0.2042  
G01 X-1.3337 Y0.1980  
G01 X-1.3365 Y0.1911  
G01 X-1.3380 Y0.1837  
G01 X-1.3380 Y0.1163  
G01 X-1.3365 Y0.1089  
G01 X-1.3337 Y0.1020  
G01 X-1.3295 Y0.0958  
G01 X-1.3242 Y0.0905  
G01 X-1.3180 Y0.0863  
G01 X-1.3111 Y0.0835  
G01 X-1.3037 Y0.0820  
G01 X-1.2963 Y0.0820  
G01 X-1.2889 Y0.0835  
G01 X-1.2820 Y0.0863  
G01 X-1.2758 Y0.0905  
G01 X-1.2705 Y0.0958  
G01 X-1.2663 Y0.1020  
G01 X-1.2635 Y0.1089  
G01 X-1.2620 Y0.1163  
G01 X-1.2620 Y0.1837  
G01 X-1.2635 Y0.1911  
G01 X-1.2663 Y0.1980  
G01 X-1.2705 Y0.2042  
G01 X-1.2758 Y0.2095  
G01 X-1.2760 Y0.2097  
G01 X-1.2760 Y0.2524  
G01 X-1.2769 Y0.2570  
G01 X-1.2787 Y0.2614  
G01 X-1.2814 Y0.2653  
G01 X-1.2847 Y0.2686  
G01 X-1.3347 Y0.3186  
G01 X-1.3386 Y0.3213  
G01 X-1.3430 Y0.3231  
G01 X-1.3476 Y0.3240  
G01 X-1.6901 Y0.3240  
G01 X-1.7840 Y0.4179  
G01 X-1.7840 Y0.4313  
G01 X-1.7679 Y0.4152  
G01 X-1.7352 Y0.4152  
G01 X-1.7121 Y0.4384  
G01 X-1.7121 Y0.4711  
G01 X-1.7276 Y0.4866  
G01 X-1.7276 Y0.9729  
G01 X-1.7244 Y0.9760  
G01 X-1.3189 Y0.9760  
G01 X-1.3051 Y0.9676  
G01 X-1.3051 Y0.5387  
G01 X-1.3078 Y0.5373  
G01 X-1.3143 Y0.5326  
G01 X-1.3200 Y0.5269  
G01 X-1.3247 Y0.5204  
G01 X-1.3284 Y0.5133  
G01 X-1.3308 Y0.5056  
G01 X-1.3321 Y0.4977  
G01 X-1.3321 Y0.4897  
G01 X-1.3308 Y0.4818  
G01 X-1.3284 Y0.4741  
G01 X-1.3247 Y0.4670  
G01 X-1.3200 Y0.4605  
G01 X-1.3143 Y0.4548  
G01 X-1.3078 Y0.4501  
G01 X-1.3007 Y0.4464  
G01 X-1.2930 Y0.4440  
G01 X-1.2851 Y0.4427  
G01 X-1.2771 Y0.4427  
G01 X-1.2692 Y0.4440  
G01 X-1.2615 Y0.4464  
G01 X-1.2544 Y0.4501  
G01 X-1.2479 Y0.4548  
G01 X-1.2422 Y0.4605  
G01 X-1.2375 Y0.4670  
G01 X-1.2338 Y0.4741  
G01 X-1.2314 Y0.4818  
G01 X-1.2301 Y0.4897  
G01 X-1.2301 Y0.4977  
G01 X-1.2314 Y0.5056  
G01 X-1.2338 Y0.5133  
G01 X-1.2375 Y0.5204  
G01 X-1.2422 Y0.5269  
G01 X-1.2479 Y0.5326  
G01 X-1.2544 Y0.5373  
G01 X-1.2571 Y0.5387  
G01 X-1.2571 Y0.9760  
G01 X-1.0099 Y0.9760  
G01 X-0.8051 Y0.7712  
G01 X-0.8051 Y0.5387  
G01 X-0.8078 Y0.5373  
G01 X-0.8143 Y0.5326  
G01 X-0.8200 Y0.5269  
G01 X-0.8247 Y0.5204  
G01 X-0.8284 Y0.5133  
G01 X-0.8308 Y0.5056  
G01 X-0.8321 Y0.4977  
G01 X-0.8321 Y0.4897  
G01 X-0.8308 Y0.4818  
G01 X-0.8284 Y0.4741  
G01 X-0.8247 Y0.4670  
G01 X-0.8200 Y0.4605  
G01 X-0.8143 Y0.4548  
G01 X-0.8078 Y0.4501  
G01 X-0.8007 Y0.4464  
G01 X-0.7930 Y0.4440  
G01 X-0.7851 Y0.4427  
G01 X-0.7771 Y0.4427  
G01 X-0.7692 Y0.4440  
G01 X-0.7615 Y0.4464  
G01 X-0.7544 Y0.4501  
G01 X-0.7479 Y0.4548  
G01 X-0.7422 Y0.4605  
G01 X-0.7375 Y0.4670  
G01 X-0.7338 Y0.4741  
G01 X-0.7314 Y0.4818  
G01 X-0.7301 Y0.4897  
G01 X-0.7301 Y0.4977  
G01 X-0.7314 Y0.5056  
G01 X-0.7338 Y0.5133  
G01 X-0.7375 Y0.5204  
G01 X-0.7422 Y0.5269  
G01 X-0.7479 Y0.5326  
G01 X-0.7544 Y0.5373  
G01 X-0.7571 Y0.5387  
G01 X-0.7571 Y0.7835  
G01 X-0.7580 Y0.7881  
G01 X-0.7598 Y0.7925  
G01 X-0.7625 Y0.7964  
G01 X-0.9814 Y1.0153  
G01 X-0.9847 Y1.0186  
G01 X-0.9886 Y1.0213  
G01 X-0.9930 Y1.0231  
G01 X-0.9976 Y1.0240  
G01 X-1.3104 Y1.0240  
G01 X-1.3109 Y1.0241  
G01 X-1.3127 Y1.0240  
G01 X-1.7150 Y1.0240  
G01 X-1.7276 Y1.0366  
G01 X-1.7276 Y1.5229  
G01 X-1.7244 Y1.5260  
G01 X-1.4976 Y1.5260  
G01 X-1.4930 Y1.5269  
G01 X-1.4886 Y1.5287  
G01 X-1.4847 Y1.5314  
G01 X-1.4814 Y1.5347  
G01 X-1.0814 Y1.9347  
G01 X-1.0787 Y1.9386  
G01 X-1.0769 Y1.9430  
G01 X-1.0760 Y1.9476  
G01 X-1.0760 Y1.9683  
G01 X-1.0747 Y1.9683  
G01 X-1.0717 Y1.9695  
G01 X-1.0695 Y1.9717  
G01 X-1.0683 Y1.9747  
G01 X-1.0683 Y2.0253  
G01 X-1.0695 Y2.0283  
G01 X-1.0717 Y2.0305  
G01 X-1.0747 Y2.0317  
G01 X-1.1253 Y2.0317  
G01 X-1.1283 Y2.0305  
G01 X-1.1305 Y2.0283  
G01 X-1.1317 Y2.0253  
G01 X-1.1317 Y1.9747  
G01 X-1.1305 Y1.9717  
G01 X-1.1283 Y1.9695  
G01 X-1.1253 Y1.9683  
G01 X-1.1240 Y1.9683  
G01 X-1.1240 Y1.9599  
G01 X-1.5099 Y1.5740  
G01 X-1.7150 Y1.5740  
G01 X-1.7352 Y1.5942  
G01 X-1.7679 Y1.5942  
G01 X-1.7911 Y1.5711  
G01 X-1.7911 Y1.5384  
G01 X-1.7756 Y1.5229  
G01 X-1.7756 Y1.0366  
G01 X-1.7911 Y1.0211  
G01 X-1.7911 Y0.9884  
G01 X-1.7756 Y0.9729  
G01 X-1.7756 Y0.4866  
G01 X-1.7840 Y0.4782  
G01 X-1.7840 Y0.4821  
G01 X-1.7814 Y0.4847  
G01 X-1.7787 Y0.4886  
G01 X-1.7769 Y0.4930  
G01 X-1.7760 Y0.4976  
G01 X-1.7760 Y0.8024  
G01 X-1.7769 Y0.8070  
G01 X-1.7787 Y0.8114  
G01 X-1.7814 Y0.8153  
G01 X-1.8260 Y0.8599  
G01 X-1.8260 Y0.9729  
G01 X-1.8105 Y0.9884  
G01 X-1.8105 Y1.0211  
G01 X-1.8336 Y1.0442  
G01 X-1.8664 Y1.0442  
G01 X-1.8840 Y1.0266  
G01 X-1.8840 Y1.0321  
G01 X-1.8814 Y1.0347  
G01 X-1.8787 Y1.0386  
G01 X-1.8769 Y1.0430  
G01 X-1.8760 Y1.0476  
G01 X-1.8760 Y1.3901  
G01 X-1.8314 Y1.4347  
G01 X-1.8287 Y1.4386  
G01 X-1.8269 Y1.4430  
G01 X-1.8260 Y1.4476  
G01 X-1.8260 Y1.5229  
G01 X-1.8105 Y1.5384  
G01 X-1.8105 Y1.5711  
G01 X-1.8336 Y1.5942  
G01 X-1.8664 Y1.5942  
G01 X-1.8895 Y1.5711  
G01 X-1.8895 Y1.5384  
G01 X-1.8740 Y1.5229  
G01 X-1.8740 Y1.4599  
G01 X-1.9153 Y1.4186  
G01 X-1.9186 Y1.4153  
G01 X-1.9213 Y1.4114  
G01 X-1.9231 Y1.4070  
G01 X-1.9240 Y1.4024  
G01 X-1.9240 Y1.0476  
G01 X-1.9231 Y1.0430  
G01 X-1.9213 Y1.0386  
G01 X-1.9186 Y1.0347  
G01 X-1.9160 Y1.0321  
G01 X-1.9160 Y1.0282  
G01 X-1.9244 Y1.0366  
G01 X-1.9244 Y1.5229  
G01 X-1.9089 Y1.5384  
G01 X-1.9089 Y1.5711  
G01 X-1.9244 Y1.5866  
G01 X-1.9244 Y1.8916  
G01 X-1.7401 Y2.0760  
G01 X-0.2634 Y2.0760  
G01 X-0.2634 Y2.0706  
G01 X-0.4153 Y1.9186  
G01 X-0.4186 Y1.9153  
G01 X-0.4213 Y1.9114  
G01 X-0.4231 Y1.9070  
G01 X-0.4240 Y1.9024  
G01 X-0.4240 Y1.7099  
G01 X-0.4653 Y1.6686  
G01 X-0.4686 Y1.6653  
G01 X-0.4713 Y1.6614  
G01 X-0.4731 Y1.6570  
G01 X-0.4740 Y1.6524  
G01 X-0.4740 Y1.5850  
G01 X-0.4879 Y1.5711  
G01 X-0.4879 Y1.5384  
G01 X-0.4724 Y1.5229  
G01 X-0.4724 Y1.0366  
G01 X-0.4879 Y1.0211  
G01 X-0.4879 Y0.9884  
G01 X-0.4724 Y0.9729  
G01 X-0.4724 Y0.4866  
G01 X-0.4879 Y0.4711  
G01 X-0.4879 Y0.4384  
G01 X-0.4648 Y0.4152  
G01 X-0.4321 Y0.4152  
G01 X-0.4160 Y0.4313  
G01 X-0.4160 Y0.4179  
G01 X-0.4187 Y0.4153  
G01 X-0.4628 Y0.3490  
G01 X-0.8990 Y0.3490  
G01 X-0.9003 Y0.3491  
G01 X-0.9013 Y0.3490  
G01 X-0.9024 Y0.3490  
G01 X-0.9037 Y0.3487  
G01 X-0.9050 Y0.3486  
G01 X-0.9060 Y0.3483  
G01 X-0.9070 Y0.3481  
G01 X-0.9082 Y0.3476  
G01 X-0.9095 Y0.3472  
G01 X-0.9104 Y0.3467  
G01 X-0.9114 Y0.3463  
G01 X-0.9125 Y0.3455  
G01 X-0.9136 Y0.3449  
G01 X-0.9144 Y0.3442  
G01 X-0.9153 Y0.3436  
G01 X-0.9162 Y0.3427  
G01 X-0.9173 Y0.3418  
G01 X-0.9179 Y0.3410  
G01 X-0.9186 Y0.3403  
G01 X-0.9194 Y0.3392  
G01 X-1.0179 Y0.2160  
G01 X-1.0186 Y0.2153  
G01 X-1.0194 Y0.2142  
G01 X-1.0202 Y0.2131  
G01 X-1.0207 Y0.2122  
G01 X-1.0211 Y0.2116  
G01 X-1.0242 Y0.2095  
G01 X-1.0295 Y0.2042  
G01 X-1.0337 Y0.1980  
G01 X-1.0365 Y0.1911  
G01 X-1.0380 Y0.1837  
G01 X-1.0380 Y0.1163  
G01 X-1.0365 Y0.1089  
G01 X-1.0337 Y0.1020  
G01 X-1.0295 Y0.0958  
G01 X-1.0242 Y0.0905  
G01 X-1.0180 Y0.0863  
G01 X-1.0111 Y0.0835  
G01 X-1.0037 Y0.0820  
G01 X-0.9963 Y0.0820  
G01 X-0.9889 Y0.0835  
G01 X-0.9820 Y0.0863  
G01 X-0.9758 Y0.0905  
G01 X-0.9705 Y0.0958  
G01 X-0.9663 Y0.1020  
G01 X-0.9635 Y0.1089  
G01 X-0.9620 Y0.1163  
G01 X-0.9620 Y0.1837  
G01 X-0.9635 Y0.1911  
G01 X-0.9663 Y0.1980  
G01 X-0.9684 Y0.2011  
G01 X-0.8885 Y0.3010  
G01 X-0.4524 Y0.3010  
G01 X-0.4500 Y0.3010  
G01 X-0.4476 Y0.3010  
G01 X-0.4454 Y0.3015  
G01 X-0.4430 Y0.3019  
G01 X-0.4409 Y0.3028  
G01 X-0.4386 Y0.3037  
G01 X-0.4367 Y0.3050  
G01 X-0.4347 Y0.3064  
G01 X-0.4331 Y0.3080  
G01 X-0.4314 Y0.3097  
G01 X-0.4301 Y0.3116  
G01 X-0.4287 Y0.3136  
G01 X-0.3787 Y0.3887  
G01 X-0.3769 Y0.3930  
G01 X-0.3760 Y0.3977  
G01 X-0.3760 Y0.4024  
G01 X-0.3769 Y0.4070  
G01 X-0.3787 Y0.4114  
G01 X-0.3814 Y0.4153  
G01 X-0.3840 Y0.4179  
G01 X-0.3840 Y0.4329  
G01 X-0.3740 Y0.4229  
G01 X-0.3740 Y0.3099  
G01 X-0.4099 Y0.2740  
G01 X-0.8524 Y0.2740  
G01 X-0.8570 Y0.2731  
G01 X-0.8614 Y0.2713  
G01 X-0.8653 Y0.2686  
G01 X-0.9153 Y0.2186  
G01 X-0.9186 Y0.2153  
G01 X-0.9211 Y0.2116  
G01 X-0.9242 Y0.2095  
G01 X-0.9295 Y0.2042  
G01 X-0.9337 Y0.1980  
G01 X-0.9365 Y0.1911  
G01 X-0.9380 Y0.1837  
G01 X-0.9380 Y0.1163  
G01 X-0.9365 Y0.1089  
G01 X-0.9337 Y0.1020  
G01 X-0.9295 Y0.0958  
G01 X-0.9242 Y0.0905  
G01 X-0.9180 Y0.0863  
G01 X-0.9111 Y0.0835  
G01 X-0.9037 Y0.0820  
G01 X-0.8963 Y0.0820  
G01 X-0.8889 Y0.0835  
G01 X-0.8820 Y0.0863  
G01 X-0.8758 Y0.0905  
G01 X-0.8705 Y0.0958  
G01 X-0.8663 Y0.1020  
G01 X-0.8635 Y0.1089  
G01 X-0.8620 Y0.1163  
G01 X-0.8620 Y0.1837  
G01 X-0.8635 Y0.1911  
G01 X-0.8663 Y0.1980  
G01 X-0.8670 Y0.1990  
G01 X-0.8401 Y0.2260  
G01 X-0.3976 Y0.2260  
G01 X-0.3930 Y0.2269  
G01 X-0.3886 Y0.2287  
G01 X-0.3847 Y0.2314  
G01 X-0.3814 Y0.2347  
G01 X-0.3314 Y0.2847  
G01 X-0.3287 Y0.2886  
G01 X-0.3269 Y0.2930  
G01 X-0.3260 Y0.2976  
G01 X-0.3260 Y0.4229  
G01 X-0.3160 Y0.4329  
G01 X-0.3160 Y0.4179  
G01 X-0.3186 Y0.4153  
G01 X-0.3213 Y0.4114  
G01 X-0.3231 Y0.4070  
G01 X-0.3240 Y0.4024  
G01 X-0.3240 Y0.2599  
G01 X-0.4099 Y0.1740  
G01 X-0.7620 Y0.1740  
G01 X-0.7620 Y0.1837  
G01 X-0.7635 Y0.1911  
G01 X-0.7663 Y0.1980  
G01 X-0.7705 Y0.2042  
G01 X-0.7758 Y0.2095  
G01 X-0.7820 Y0.2137  
G01 X-0.7889 Y0.2165  
G01 X-0.7963 Y0.2180  
G01 X-0.8037 Y0.2180  
G01 X-0.8111 Y0.2165  
G01 X-0.8180 Y0.2137  
G01 X-0.8242 Y0.2095  
G01 X-0.8295 Y0.2042  
G01 X-0.8337 Y0.1980  
G01 X-0.8365 Y0.1911  
G01 X-0.8380 Y0.1837  
G01 X-0.8380 Y0.1163  
G01 X-0.8365 Y0.1089  
G01 X-0.8337 Y0.1020  
G01 X-0.8295 Y0.0958  
G01 X-0.8242 Y0.0905  
G01 X-0.8180 Y0.0863  
G01 X-0.8111 Y0.0835  
G01 X-0.8037 Y0.0820  
G01 X-0.7963 Y0.0820  
G01 X-0.7889 Y0.0835  
G01 X-0.7820 Y0.0863  
G01 X-0.7758 Y0.0905  
G01 X-0.7705 Y0.0958  
G01 X-0.7663 Y0.1020  
G01 X-0.7635 Y0.1089  
G01 X-0.7620 Y0.1163  
G01 X-0.7620 Y0.1260  
G01 X-0.3976 Y0.1260  
G01 X-0.3930 Y0.1269  
G01 X-0.3886 Y0.1287  
G01 X-0.3847 Y0.1314  
G01 X-0.2847 Y0.2314  
G01 X-0.2814 Y0.2347  
G00 Z0.0500  
G00 X-0.3160 Y0.4766  
G01 Z-0.0035 F10    
G01 X-0.3336 Y0.4942  F20    
G01 X-0.3664 Y0.4942  
G01 X-0.3840 Y0.4766  
G01 X-0.3840 Y0.4821  
G01 X-0.3814 Y0.4847  
G01 X-0.3787 Y0.4886  
G01 X-0.3769 Y0.4930  
G01 X-0.3760 Y0.4976  
G01 X-0.3760 Y0.9524  
G01 X-0.3769 Y0.9570  
G01 X-0.3787 Y0.9614  
G01 X-0.3814 Y0.9653  
G01 X-0.3840 Y0.9679  
G01 X-0.3840 Y0.9829  
G01 X-0.3740 Y0.9729  
G01 X-0.3740 Y0.7509  
G01 X-0.3741 Y0.7493  
G01 X-0.3740 Y0.7485  
G01 X-0.3740 Y0.7476  
G01 X-0.3737 Y0.7462  
G01 X-0.3735 Y0.7447  
G01 X-0.3732 Y0.7438  
G01 X-0.3731 Y0.7430  
G01 X-0.3725 Y0.7416  
G01 X-0.3240 Y0.5961  
G01 X-0.3240 Y0.4976  
G01 X-0.3231 Y0.4930  
G01 X-0.3213 Y0.4886  
G01 X-0.3186 Y0.4847  
G01 X-0.3160 Y0.4821  
G01 X-0.3160 Y0.4766  
G00 Z0.0500  
G00 X-0.4160 Y0.4782  
G01 Z-0.0035 F10    
G01 X-0.4244 Y0.4866  F20    
G01 X-0.4244 Y0.9729  
G01 X-0.4160 Y0.9813  
G01 X-0.4160 Y0.9679  
G01 X-0.4186 Y0.9653  
G01 X-0.4213 Y0.9614  
G01 X-0.4231 Y0.9570  
G01 X-0.4240 Y0.9524  
G01 X-0.4240 Y0.4976  
G01 X-0.4231 Y0.4930  
G01 X-0.4213 Y0.4886  
G01 X-0.4186 Y0.4847  
G01 X-0.4160 Y0.4821  
G01 X-0.4160 Y0.4782  
G00 Z0.0500  
G00 X-0.4896 Y0.7222  
G01 Z-0.0035 F10    
G01 X-0.4896 Y0.7778  F20    
G01 X-0.5289 Y0.8171  
G01 X-0.5845 Y0.8171  
G01 X-0.6237 Y0.7778  
G01 X-0.6237 Y0.7222  
G01 X-0.5845 Y0.6829  
G01 X-0.5289 Y0.6829  
G01 X-0.4896 Y0.7222  
G00 Z0.0500  
G00 X-0.6279 Y0.7180  
G01 Z-0.0035 F10    
G01 X-0.6307 Y0.7267  F20    
G01 X-0.6349 Y0.7348  
G01 X-0.6403 Y0.7422  
G01 X-0.6467 Y0.7487  
G01 X-0.6541 Y0.7541  
G01 X-0.6623 Y0.7583  
G01 X-0.6710 Y0.7611  
G01 X-0.6801 Y0.7625  
G01 X-0.6892 Y0.7625  
G01 X-0.6983 Y0.7611  
G01 X-0.7070 Y0.7583  
G01 X-0.7151 Y0.7541  
G01 X-0.7226 Y0.7487  
G01 X-0.7290 Y0.7422  
G01 X-0.7344 Y0.7348  
G01 X-0.7386 Y0.7267  
G01 X-0.7414 Y0.7180  
G01 X-0.7428 Y0.7089  
G01 X-0.7428 Y0.6998  
G01 X-0.7414 Y0.6907  
G01 X-0.7386 Y0.6820  
G01 X-0.7344 Y0.6738  
G01 X-0.7290 Y0.6664  
G01 X-0.7226 Y0.6599  
G01 X-0.7151 Y0.6546  
G01 X-0.7070 Y0.6504  
G01 X-0.6983 Y0.6476  
G01 X-0.6892 Y0.6461  
G01 X-0.6801 Y0.6461  
G01 X-0.6710 Y0.6476  
G01 X-0.6623 Y0.6504  
G01 X-0.6541 Y0.6546  
G01 X-0.6467 Y0.6599  
G01 X-0.6403 Y0.6664  
G01 X-0.6349 Y0.6738  
G01 X-0.6307 Y0.6820  
G01 X-0.6279 Y0.6907  
G01 X-0.6264 Y0.6998  
G01 X-0.6264 Y0.7089  
G01 X-0.6279 Y0.7180  
G00 Z0.0500  
G00 X-0.9774 Y0.7015  
G01 Z-0.0035 F10    
G01 X-0.9849 Y0.7069  F20    
G01 X-0.9930 Y0.7110  
G01 X-1.0017 Y0.7139  
G01 X-1.0108 Y0.7153  
G01 X-1.0199 Y0.7153  
G01 X-1.0290 Y0.7139  
G01 X-1.0377 Y0.7110  
G01 X-1.0459 Y0.7069  
G01 X-1.0533 Y0.7015  
G01 X-1.0597 Y0.6950  
G01 X-1.0651 Y0.6876  
G01 X-1.0693 Y0.6794  
G01 X-1.0721 Y0.6707  
G01 X-1.0736 Y0.6617  
G01 X-1.0736 Y0.6525  
G01 X-1.0721 Y0.6435  
G01 X-1.0693 Y0.6347  
G01 X-1.0651 Y0.6266  
G01 X-1.0597 Y0.6192  
G01 X-1.0533 Y0.6127  
G01 X-1.0459 Y0.6073  
G01 X-1.0377 Y0.6032  
G01 X-1.0290 Y0.6003  
G01 X-1.0199 Y0.5989  
G01 X-1.0108 Y0.5989  
G01 X-1.0017 Y0.6003  
G01 X-0.9930 Y0.6032  
G01 X-0.9849 Y0.6073  
G01 X-0.9774 Y0.6127  
G01 X-0.9710 Y0.6192  
G01 X-0.9656 Y0.6266  
G01 X-0.9614 Y0.6347  
G01 X-0.9586 Y0.6435  
G01 X-0.9572 Y0.6525  
G01 X-0.9572 Y0.6617  
G01 X-0.9586 Y0.6707  
G01 X-0.9614 Y0.6794  
G01 X-0.9656 Y0.6876  
G01 X-0.9710 Y0.6950  
G01 X-0.9774 Y0.7015  
G00 Z0.0500  
G00 X-1.1264 Y0.6998  
G01 Z-0.0035 F10    
G01 X-1.1264 Y0.7089  F20    
G01 X-1.1279 Y0.7180  
G01 X-1.1307 Y0.7267  
G01 X-1.1349 Y0.7348  
G01 X-1.1403 Y0.7422  
G01 X-1.1467 Y0.7487  
G01 X-1.1541 Y0.7541  
G01 X-1.1623 Y0.7583  
G01 X-1.1710 Y0.7611  
G01 X-1.1801 Y0.7625  
G01 X-1.1892 Y0.7625  
G01 X-1.1983 Y0.7611  
G01 X-1.2070 Y0.7583  
G01 X-1.2151 Y0.7541  
G01 X-1.2226 Y0.7487  
G01 X-1.2290 Y0.7422  
G01 X-1.2344 Y0.7348  
G01 X-1.2386 Y0.7267  
G01 X-1.2414 Y0.7180  
G01 X-1.2428 Y0.7089  
G01 X-1.2428 Y0.6998  
G01 X-1.2414 Y0.6907  
G01 X-1.2386 Y0.6820  
G01 X-1.2344 Y0.6738  
G01 X-1.2290 Y0.6664  
G01 X-1.2226 Y0.6599  
G01 X-1.2151 Y0.6546  
G01 X-1.2070 Y0.6504  
G01 X-1.1983 Y0.6476  
G01 X-1.1892 Y0.6461  
G01 X-1.1801 Y0.6461  
G01 X-1.1710 Y0.6476  
G01 X-1.1623 Y0.6504  
G01 X-1.1541 Y0.6546  
G01 X-1.1467 Y0.6599  
G01 X-1.1403 Y0.6664  
G01 X-1.1349 Y0.6738  
G01 X-1.1307 Y0.6820  
G01 X-1.1279 Y0.6907  
G01 X-1.1264 Y0.6998  
G00 Z0.0500  
G00 X-0.9578 Y0.5269  
G01 Z-0.0035 F10    
G01 X-0.9625 Y0.5204  F20    
G01 X-0.9662 Y0.5133  
G01 X-0.9686 Y0.5056  
G01 X-0.9699 Y0.4977  
G01 X-0.9699 Y0.4897  
G01 X-0.9686 Y0.4818  
G01 X-0.9665 Y0.4753  
G01 X-1.0176 Y0.4164  
G01 X-1.1153 Y0.3186  
G01 X-1.1186 Y0.3153  
G01 X-1.1213 Y0.3114  
G01 X-1.1231 Y0.3070  
G01 X-1.1240 Y0.3024  
G01 X-1.1240 Y0.2097  
G01 X-1.1242 Y0.2095  
G01 X-1.1295 Y0.2042  
G01 X-1.1337 Y0.1980  
G01 X-1.1365 Y0.1911  
G01 X-1.1380 Y0.1837  
G01 X-1.1380 Y0.1163  
G01 X-1.1365 Y0.1089  
G01 X-1.1337 Y0.1020  
G01 X-1.1295 Y0.0958  
G01 X-1.1242 Y0.0905  
G01 X-1.1180 Y0.0863  
G01 X-1.1111 Y0.0835  
G01 X-1.1037 Y0.0820  
G01 X-1.0963 Y0.0820  
G01 X-1.0889 Y0.0835  
G01 X-1.0820 Y0.0863  
G01 X-1.0758 Y0.0905  
G01 X-1.0705 Y0.0958  
G01 X-1.0663 Y0.1020  
G01 X-1.0635 Y0.1089  
G01 X-1.0620 Y0.1163  
G01 X-1.0620 Y0.1837  
G01 X-1.0635 Y0.1911  
G01 X-1.0663 Y0.1980  
G01 X-1.0705 Y0.2042  
G01 X-1.0758 Y0.2095  
G01 X-1.0760 Y0.2097  
G01 X-1.0760 Y0.2901  
G01 X-0.9841 Y0.3820  
G01 X-0.9834 Y0.3825  
G01 X-0.9824 Y0.3836  
G01 X-0.9814 Y0.3847  
G01 X-0.9809 Y0.3854  
G01 X-0.9303 Y0.4439  
G01 X-0.9229 Y0.4427  
G01 X-0.9149 Y0.4427  
G01 X-0.9070 Y0.4440  
G01 X-0.8993 Y0.4464  
G01 X-0.8922 Y0.4501  
G01 X-0.8857 Y0.4548  
G01 X-0.8800 Y0.4605  
G01 X-0.8753 Y0.4670  
G01 X-0.8716 Y0.4741  
G01 X-0.8692 Y0.4818  
G01 X-0.8679 Y0.4897  
G01 X-0.8679 Y0.4977  
G01 X-0.8692 Y0.5056  
G01 X-0.8716 Y0.5133  
G01 X-0.8753 Y0.5204  
G01 X-0.8800 Y0.5269  
G01 X-0.8857 Y0.5326  
G01 X-0.8922 Y0.5373  
G01 X-0.8993 Y0.5410  
G01 X-0.9070 Y0.5434  
G01 X-0.9149 Y0.5447  
G01 X-0.9229 Y0.5447  
G01 X-0.9308 Y0.5434  
G01 X-0.9385 Y0.5410  
G01 X-0.9456 Y0.5373  
G01 X-0.9521 Y0.5326  
G01 X-0.9578 Y0.5269  
G00 Z0.0500  
G00 X-1.3800 Y0.5269  
G01 Z-0.0035 F10    
G01 X-1.3857 Y0.5326  F20    
G01 X-1.3922 Y0.5373  
G01 X-1.3993 Y0.5410  
G01 X-1.4070 Y0.5434  
G01 X-1.4149 Y0.5447  
G01 X-1.4229 Y0.5447  
G01 X-1.4308 Y0.5434  
G01 X-1.4385 Y0.5410  
G01 X-1.4456 Y0.5373  
G01 X-1.4521 Y0.5326  
G01 X-1.4578 Y0.5269  
G01 X-1.4625 Y0.5204  
G01 X-1.4662 Y0.5133  
G01 X-1.4686 Y0.5056  
G01 X-1.4699 Y0.4977  
G01 X-1.4699 Y0.4897  
G01 X-1.4686 Y0.4818  
G01 X-1.4662 Y0.4741  
G01 X-1.4625 Y0.4670  
G01 X-1.4578 Y0.4605  
G01 X-1.4521 Y0.4548  
G01 X-1.4456 Y0.4501  
G01 X-1.4385 Y0.4464  
G01 X-1.4308 Y0.4440  
G01 X-1.4273 Y0.4434  
G01 X-1.2240 Y0.2401  
G01 X-1.2240 Y0.2097  
G01 X-1.2242 Y0.2095  
G01 X-1.2295 Y0.2042  
G01 X-1.2337 Y0.1980  
G01 X-1.2365 Y0.1911  
G01 X-1.2380 Y0.1837  
G01 X-1.2380 Y0.1163  
G01 X-1.2365 Y0.1089  
G01 X-1.2337 Y0.1020  
G01 X-1.2295 Y0.0958  
G01 X-1.2242 Y0.0905  
G01 X-1.2180 Y0.0863  
G01 X-1.2111 Y0.0835  
G01 X-1.2037 Y0.0820  
G01 X-1.1963 Y0.0820  
G01 X-1.1889 Y0.0835  
G01 X-1.1820 Y0.0863  
G01 X-1.1758 Y0.0905  
G01 X-1.1705 Y0.0958  
G01 X-1.1663 Y0.1020  
G01 X-1.1635 Y0.1089  
G01 X-1.1620 Y0.1163  
G01 X-1.1620 Y0.1837  
G01 X-1.1635 Y0.1911  
G01 X-1.1663 Y0.1980  
G01 X-1.1705 Y0.2042  
G01 X-1.1758 Y0.2095  
G01 X-1.1760 Y0.2097  
G01 X-1.1760 Y0.2524  
G01 X-1.1769 Y0.2570  
G01 X-1.1787 Y0.2614  
G01 X-1.1814 Y0.2653  
G01 X-1.1847 Y0.2686  
G01 X-1.3785 Y0.4625  
G01 X-1.3753 Y0.4670  
G01 X-1.3716 Y0.4741  
G01 X-1.3692 Y0.4818  
G01 X-1.3679 Y0.4897  
G01 X-1.3679 Y0.4977  
G01 X-1.3692 Y0.5056  
G01 X-1.3716 Y0.5133  
G01 X-1.3753 Y0.5204  
G01 X-1.3800 Y0.5269  
G00 Z0.0500  
G00 X-1.4710 Y0.6192  
G01 Z-0.0035 F10    
G01 X-1.4656 Y0.6266  F20    
G01 X-1.4614 Y0.6347  
G01 X-1.4586 Y0.6435  
G01 X-1.4572 Y0.6525  
G01 X-1.4572 Y0.6617  
G01 X-1.4586 Y0.6707  
G01 X-1.4614 Y0.6794  
G01 X-1.4656 Y0.6876  
G01 X-1.4710 Y0.6950  
G01 X-1.4774 Y0.7015  
G01 X-1.4849 Y0.7069  
G01 X-1.4930 Y0.7110  
G01 X-1.5017 Y0.7139  
G01 X-1.5108 Y0.7153  
G01 X-1.5199 Y0.7153  
G01 X-1.5290 Y0.7139  
G01 X-1.5377 Y0.7110  
G01 X-1.5459 Y0.7069  
G01 X-1.5533 Y0.7015  
G01 X-1.5597 Y0.6950  
G01 X-1.5651 Y0.6876  
G01 X-1.5693 Y0.6794  
G01 X-1.5721 Y0.6707  
G01 X-1.5736 Y0.6617  
G01 X-1.5736 Y0.6525  
G01 X-1.5721 Y0.6435  
G01 X-1.5693 Y0.6347  
G01 X-1.5651 Y0.6266  
G01 X-1.5597 Y0.6192  
G01 X-1.5533 Y0.6127  
G01 X-1.5459 Y0.6073  
G01 X-1.5377 Y0.6032  
G01 X-1.5290 Y0.6003  
G01 X-1.5199 Y0.5989  
G01 X-1.5108 Y0.5989  
G01 X-1.5017 Y0.6003  
G01 X-1.4930 Y0.6032  
G01 X-1.4849 Y0.6073  
G01 X-1.4774 Y0.6127  
G01 X-1.4710 Y0.6192  
G00 Z0.0500  
G00 X-1.5763 Y0.7222  
G01 Z-0.0035 F10    
G01 X-1.5763 Y0.7778  F20    
G01 X-1.6155 Y0.8171  
G01 X-1.6711 Y0.8171  
G01 X-1.7104 Y0.7778  
G01 X-1.7104 Y0.7222  
G01 X-1.6711 Y0.6829  
G01 X-1.6155 Y0.6829  
G01 X-1.5763 Y0.7222  
G00 Z0.0500  
G00 X-1.8240 Y0.7901  
G01 Z-0.0035 F10    
G01 X-1.8240 Y0.4976  F20    
G01 X-1.8231 Y0.4930  
G01 X-1.8213 Y0.4886  
G01 X-1.8186 Y0.4847  
G01 X-1.8160 Y0.4821  
G01 X-1.8160 Y0.4766  
G01 X-1.8336 Y0.4942  
G01 X-1.8664 Y0.4942  
G01 X-1.8840 Y0.4766  
G01 X-1.8840 Y0.4821  
G01 X-1.8814 Y0.4847  
G01 X-1.8787 Y0.4886  
G01 X-1.8769 Y0.4930  
G01 X-1.8760 Y0.4976  
G01 X-1.8760 Y0.9524  
G01 X-1.8769 Y0.9570  
G01 X-1.8787 Y0.9614  
G01 X-1.8814 Y0.9653  
G01 X-1.8840 Y0.9679  
G01 X-1.8840 Y0.9829  
G01 X-1.8740 Y0.9729  
G01 X-1.8740 Y0.8476  
G01 X-1.8731 Y0.8430  
G01 X-1.8713 Y0.8386  
G01 X-1.8686 Y0.8347  
G01 X-1.8240 Y0.7901  
G00 Z0.0500  
G00 X-1.9896 Y0.7778  
G01 Z-0.0035 F10    
G01 X-2.0289 Y0.8171  F20    
G01 X-2.0845 Y0.8171  
G01 X-2.1237 Y0.7778  
G01 X-2.1237 Y0.7222  
G01 X-2.0845 Y0.6829  
G01 X-2.0289 Y0.6829  
G01 X-1.9896 Y0.7222  
G01 X-1.9896 Y0.7778  
G00 Z0.0500  
G00 X-2.1467 Y0.7487  
G01 Z-0.0035 F10    
G01 X-2.1541 Y0.7541  F20    
G01 X-2.1623 Y0.7583  
G01 X-2.1710 Y0.7611  
G01 X-2.1801 Y0.7625  
G01 X-2.1892 Y0.7625  
G01 X-2.1983 Y0.7611  
G01 X-2.2070 Y0.7583  
G01 X-2.2151 Y0.7541  
G01 X-2.2226 Y0.7487  
G01 X-2.2290 Y0.7422  
G01 X-2.2344 Y0.7348  
G01 X-2.2386 Y0.7267  
G01 X-2.2414 Y0.7180  
G01 X-2.2428 Y0.7089  
G01 X-2.2428 Y0.6998  
G01 X-2.2414 Y0.6907  
G01 X-2.2386 Y0.6820  
G01 X-2.2344 Y0.6738  
G01 X-2.2290 Y0.6664  
G01 X-2.2226 Y0.6599  
G01 X-2.2151 Y0.6546  
G01 X-2.2070 Y0.6504  
G01 X-2.1983 Y0.6476  
G01 X-2.1892 Y0.6461  
G01 X-2.1801 Y0.6461  
G01 X-2.1710 Y0.6476  
G01 X-2.1623 Y0.6504  
G01 X-2.1541 Y0.6546  
G01 X-2.1467 Y0.6599  
G01 X-2.1403 Y0.6664  
G01 X-2.1349 Y0.6738  
G01 X-2.1307 Y0.6820  
G01 X-2.1279 Y0.6907  
G01 X-2.1264 Y0.6998  
G01 X-2.1264 Y0.7089  
G01 X-2.1279 Y0.7180  
G01 X-2.1307 Y0.7267  
G01 X-2.1349 Y0.7348  
G01 X-2.1403 Y0.7422  
G01 X-2.1467 Y0.7487  
G00 Z0.0500  
G00 X-2.2479 Y0.5326  
G01 Z-0.0035 F10    
G01 X-2.2544 Y0.5373  F20    
G01 X-2.2571 Y0.5387  
G01 X-2.2571 Y0.9933  
G01 X-2.2570 Y0.9950  
G01 X-2.2571 Y0.9956  
G01 X-2.2571 Y2.0090  
G01 X-2.0901 Y2.1760  
G01 X-1.1317 Y2.1760  
G01 X-1.1317 Y2.1747  
G01 X-1.1305 Y2.1717  
G01 X-1.1283 Y2.1695  
G01 X-1.1253 Y2.1683  
G01 X-1.0747 Y2.1683  
G01 X-1.0717 Y2.1695  
G01 X-1.0695 Y2.1717  
G01 X-1.0683 Y2.1747  
G01 X-1.0683 Y2.1760  
G01 X-0.3817 Y2.1760  
G01 X-0.3817 Y2.1747  
G01 X-0.3805 Y2.1717  
G01 X-0.3783 Y2.1695  
G01 X-0.3753 Y2.1683  
G01 X-0.3247 Y2.1683  
G01 X-0.3217 Y2.1695  
G01 X-0.3195 Y2.1717  
G01 X-0.3183 Y2.1747  
G01 X-0.3183 Y2.2253  
G01 X-0.3195 Y2.2283  
G01 X-0.3217 Y2.2305  
G01 X-0.3247 Y2.2317  
G01 X-0.3753 Y2.2317  
G01 X-0.3783 Y2.2305  
G01 X-0.3805 Y2.2283  
G01 X-0.3817 Y2.2253  
G01 X-0.3817 Y2.2240  
G01 X-1.0683 Y2.2240  
G01 X-1.0683 Y2.2253  
G01 X-1.0695 Y2.2283  
G01 X-1.0717 Y2.2305  
G01 X-1.0747 Y2.2317  
G01 X-1.1253 Y2.2317  
G01 X-1.1283 Y2.2305  
G01 X-1.1305 Y2.2283  
G01 X-1.1317 Y2.2253  
G01 X-1.1317 Y2.2240  
G01 X-2.1024 Y2.2240  
G01 X-2.1070 Y2.2231  
G01 X-2.1114 Y2.2213  
G01 X-2.1153 Y2.2186  
G01 X-2.1186 Y2.2153  
G01 X-2.2997 Y2.0342  
G01 X-2.3024 Y2.0303  
G01 X-2.3042 Y2.0259  
G01 X-2.3051 Y2.0213  
G01 X-2.3051 Y1.0192  
G01 X-2.3970 Y1.0239  
G01 X-2.3976 Y1.0240  
G01 X-2.3994 Y1.0240  
G01 X-2.4011 Y1.0241  
G01 X-2.4017 Y1.0240  
G01 X-2.7747 Y1.0240  
G01 X-2.9520 Y1.0287  
G01 X-2.9524 Y1.0287  
G01 X-2.9544 Y1.0287  
G01 X-2.9565 Y1.0288  
G01 X-2.9568 Y1.0287  
G01 X-3.2197 Y1.0287  
G01 X-3.2276 Y1.0366  
G01 X-3.2276 Y1.5229  
G01 X-3.2121 Y1.5384  
G01 X-3.2121 Y1.5711  
G01 X-3.2276 Y1.5866  
G01 X-3.2276 Y2.0729  
G01 X-3.2121 Y2.0884  
G01 X-3.2121 Y2.1211  
G01 X-3.2352 Y2.1442  
G01 X-3.2679 Y2.1442  
G01 X-3.2911 Y2.1211  
G01 X-3.2911 Y2.0884  
G01 X-3.2756 Y2.0729  
G01 X-3.2756 Y1.5866  
G01 X-3.2911 Y1.5711  
G01 X-3.2911 Y1.5384  
G01 X-3.2756 Y1.5229  
G01 X-3.2756 Y1.0366  
G01 X-3.2911 Y1.0211  
G01 X-3.2911 Y0.9884  
G01 X-3.2756 Y0.9729  
G01 X-3.2756 Y0.4866  
G01 X-3.2840 Y0.4782  
G01 X-3.2840 Y0.4821  
G01 X-3.2814 Y0.4847  
G01 X-3.2787 Y0.4886  
G01 X-3.2769 Y0.4930  
G01 X-3.2760 Y0.4976  
G01 X-3.2760 Y0.6024  
G01 X-3.2769 Y0.6070  
G01 X-3.2787 Y0.6114  
G01 X-3.2814 Y0.6153  
G01 X-3.2847 Y0.6186  
G01 X-3.3260 Y0.6599  
G01 X-3.3260 Y0.9729  
G01 X-3.3105 Y0.9884  
