(.../pcb-gcode-3.6.2.4/pcb-gcode.ulp)
(Copyright 2005 - 2012 by John Johnson)
(See readme.txt for licensing terms.)
(This file generated from the board:)
(.../atmega_midi_pg800/eagle/vco_pots.brd)
(Current profile is .../pcb-gcode-3.6.2.4/profiles/mach.pp  )
(This file generated 2/26/17 1:41 PM)
(Settings from pcb-machine.h)
(spindle on time = 0.0000)
(spindle speed = 20000.0000)
(tool change at 0.0000  0.0000  1.5000  )
(feed rate xy = F0     )
(feed rate z  = F20    )
(Z Axis Settings)
(  High     Up        Down     Drill)
(0.2500  	0.0500  	-0.0035 	-0.0710 )
(Settings from pcb-defaults.h)
(isolate min = 0.0040)
(isolate max = 0.0200)
(isolate step = 0.0025)
(Generated bottom outlines, bottom drill, )
(Unit of measure: inch)
( Tool|       Size       |  Min Sub |  Max Sub |   Count )
( T01 | 0.800mm 0.0315in | 0.0000in | 0.0000in |       0 )
( T02 | 0.900mm 0.0354in | 0.0000in | 0.0000in |       0 )
( T03 | 1.000mm 0.0394in | 0.0000in | 0.0000in |       0 )
( T04 | 1.016mm 0.0400in | 0.0000in | 0.0000in |       0 )
( T05 | 1.200mm 0.0472in | 0.0000in | 0.0000in |       0 )
( T06 | 1.700mm 0.0669in | 0.0000in | 0.0000in |       0 )
( T07 | 2.000mm 0.0787in | 0.0000in | 0.0000in |       0 )
(Inch Mode)
G20
(Absolute Coordinates)
G90
S20000
G00 Z0.2500  
G00 X0.0000  Y0.0000  
M03
G04 P0.000000
M05
G00 Z1.5000  
M06 T01  ; 0.0315  
G01 Z0.0000  F20    
M06 
G00 Z0.0500  
M03
G04 P0.000000
G82 X-0.1500 Y2.2000  Z-0.0710 F20    R0.0500  P0.250000
G82 X-0.3500 Y2.2000  
G82 X-1.1000 Y2.2000  
G82 X-1.1000 Y2.0000  
G82 X-3.2500 Y2.6500  
G82 X-3.4500 Y2.6500  
M05
G00 Z1.5000  
G00 X0.0000  Y0.0000  
M06 T02  ; 0.0354  
G01 Z0.0000  F20    
M06 
G00 Z0.0500  
M03
G04 P0.000000
G82 X-0.1606 Y2.6000  Z-0.0710 F20    R0.0500  P0.250000
G82 X-0.2394 Y2.6000  
G82 X-0.2394 Y2.7500  
G82 X-0.1606 Y2.7500  
M05
G00 Z1.5000  
G00 X0.0000  Y0.0000  
M06 T03  ; 0.0394  
G01 Z0.0000  F20    
M06 
G00 Z0.0500  
M03
G04 P0.000000
G82 X-0.2516 Y0.4547  Z-0.0710 F20    R0.0500  P0.250000
G82 X-0.3500 Y0.4547  
G82 X-0.4484 Y0.4547  
G82 X-0.4484 Y1.0047  
G82 X-0.3500 Y1.0047  
G82 X-0.2516 Y1.0047  
G82 X-0.2516 Y1.5547  
G82 X-0.3500 Y1.5547  
G82 X-0.4484 Y1.5547  
G82 X-1.7516 Y1.5547  
G82 X-1.8500 Y1.5547  
G82 X-1.9484 Y1.5547  
G82 X-1.9484 Y1.0047  
G82 X-1.8500 Y1.0047  
G82 X-1.7516 Y1.0047  
G82 X-1.7516 Y0.4547  
G82 X-1.8500 Y0.4547  
G82 X-1.9484 Y0.4547  
G82 X-3.2516 Y0.4547  
G82 X-3.3500 Y0.4547  
G82 X-3.4484 Y0.4547  
G82 X-3.4484 Y1.0047  
G82 X-3.3500 Y1.0047  
G82 X-3.2516 Y1.0047  
G82 X-3.2516 Y1.5547  
G82 X-3.3500 Y1.5547  
G82 X-3.4484 Y1.5547  
G82 X-3.4484 Y2.1047  
G82 X-3.3500 Y2.1047  
G82 X-3.2516 Y2.1047  
M05
G00 Z1.5000  
G00 X0.0000  Y0.0000  
M06 T04  ; 0.0400  
G01 Z0.0000  F20    
M06 
G00 Z0.0500  
M03
G04 P0.000000
G82 X-0.8000 Y0.1500  Z-0.0710 F20    R0.0500  P0.250000
G82 X-0.9000 Y0.1500  
G82 X-1.0000 Y0.1500  
G82 X-1.1000 Y0.1500  
G82 X-1.2000 Y0.1500  
G82 X-1.3000 Y0.1500  
G82 X-1.4000 Y0.1500  
G82 X-2.3500 Y0.1500  
G82 X-2.4500 Y0.1500  
G82 X-2.5500 Y0.1500  
G82 X-2.6500 Y0.1500  
G82 X-2.7500 Y0.1500  
G82 X-2.8500 Y0.1500  
G82 X-2.9500 Y0.1500  
M05
G00 Z1.5000  
G00 X0.0000  Y0.0000  
M06 T05  ; 0.0472  
G01 Z0.0000  F20    
M06 
G00 Z0.0500  
M03
G04 P0.000000
G82 X-0.7811 Y0.4937  Z-0.0710 F20    R0.0500  P0.250000
G82 X-0.9189 Y0.4937  
G82 X-1.2811 Y0.4937  
G82 X-1.4189 Y0.4937  
G82 X-2.2811 Y0.4937  
G82 X-2.4189 Y0.4937  
G82 X-2.7811 Y0.4937  
G82 X-2.9189 Y0.4937  
G82 X-2.7811 Y2.8063  
G82 X-2.2811 Y2.8063  
G82 X-1.2811 Y2.8063  
G82 X-0.7811 Y2.8063  
M05
G00 Z1.5000  
G00 X0.0000  Y0.0000  
M06 T06  ; 0.0669  
G01 Z0.0000  F20    
M06 
G00 Z0.0500  
M03
G04 P0.000000
G82 X-0.6846 Y0.7043  Z-0.0710 F20    R0.0500  P0.250000
G82 X-1.0154 Y0.6571  
G82 X-1.1846 Y0.7043  
G82 X-1.5154 Y0.6571  
G82 X-2.1846 Y0.7043  
G82 X-2.5154 Y0.6571  
G82 X-2.6846 Y0.7043  
G82 X-3.0154 Y0.6571  
G82 X-2.6846 Y2.5957  
G82 X-2.5154 Y2.6429  
G82 X-2.1846 Y2.5957  
G82 X-1.5154 Y2.6429  
G82 X-1.1846 Y2.5957  
G82 X-1.0154 Y2.6429  
G82 X-0.6846 Y2.5957  
G82 X-3.0154 Y2.6429  
M05
G00 Z1.5000  
G00 X0.0000  Y0.0000  
M06 T07  ; 0.0787  
G01 Z0.0000  F20    
M06 
G00 Z0.0500  
M03
G04 P0.000000
G82 X-0.1433 Y0.7500  Z-0.0710 F20    R0.0500  P0.250000
G82 X-0.5567 Y0.7500  
G82 X-0.5567 Y1.3000  
G82 X-0.1433 Y1.3000  
G82 X-0.1433 Y1.8500  
G82 X-0.5567 Y1.8500  
G82 X-1.6433 Y1.8500  
G82 X-2.0567 Y1.8500  
G82 X-2.0567 Y1.3000  
G82 X-1.6433 Y1.3000  
G82 X-1.6433 Y0.7500  
G82 X-2.0567 Y0.7500  
G82 X-3.1433 Y0.7500  
G82 X-3.5567 Y0.7500  
G82 X-3.5567 Y1.3000  
G82 X-3.1433 Y1.3000  
G82 X-3.1433 Y1.8500  
G82 X-3.5567 Y1.8500  
G82 X-3.5567 Y2.4000  
G82 X-3.1433 Y2.4000  
T01 
G00 Z0.2500  
M05
M02
